/* XPM */
static char *wall3[] = {
/* columns rows colors chars-per-pixel */
"64 64 32 1 ",
"  c #1A151F",
". c #36274B",
"X c #42343B",
"o c #3C336A",
"O c #264042",
"+ c #393B42",
"@ c #6A2F56",
"# c #813836",
"$ c #474C80",
"% c #7D413C",
"& c #69469B",
"* c #B03B59",
"= c #3C7253",
"- c #72615F",
"; c #B4563E",
": c #A1624E",
"> c #B158D3",
", c #6D767B",
"< c #E06465",
"1 c #5590B4",
"2 c #C68B60",
"3 c #6BB453",
"4 c #E981E4",
"5 c #DD9254",
"6 c #B4A091",
"7 c #F29380",
"8 c #B3BDB6",
"9 c #E5BD85",
"0 c #81D7CE",
"q c #C1DC71",
"w c #EAD074",
"e c #F6F5DE",
/* pixels */
"-----X X--,888X-X XX--686 +,,,,,,,--,-,,,,,,,,,,,,,,,,,------,,-",
"-----X X--,688X-X XX-,686X+,,,,,,,----,,,,,,,,,,,,,,,,,-------,-",
"-----X X--,688X-+ X+--686 +-,,,,,,----,,,,,,,,,,,,,,,,,---------",
"-----+ X--6888X-+ XX--686 X-,,,,,,----,,,,,,,,,,,,,,,,,---------",
"-----X X--6888X-X XX-,688 ---,,,,,----,,,,,,,,,,,,,,,,,---------",
"---,-X X--6888X-X XX-,688 +,,,,,,,,,,,,,,,,,,,,,,,,,,,,,--------",
"---,-+XX--6688+-X XX-,688++-,,,,,,,,,,,,,,,,,,,,,,,,,,,,--------",
"---,,-XX--,688+-X XX-,688X-,,,,,,,,,,,,,,,,,,,,,,,,,,,,,,-------",
"---,-+XX--6886X-X XX-6688X-,,,,,,,,,,,,,,,,,,,,,,,,,,-,,,,---,--",
"---,--+X--6886X-X +--6688X-,,,,,,,,,,,,,,,,,,,,,,,,,,-,,,,,-,,,-",
"-----X X--6886X-X  -,6688X-,,,,,,,,,,,,,,,,,,,,,,,,,,--,,,,,,,,-",
"-----X  --6886X-X  -,6688+,,,,,,,,,,,,,,,,,,,,,,,,,,,,,,,,,,,,,-",
"-----X  +-6886X-X  --6686-,,,,,,,,,,,,,,,,,,,,,,,,,,,,,,,,,,,,,,",
"-----X  --6886X-X X--6688-,,,,,,,,,,,,,,,,,,,,,,,,,,,,,,,,,,,,,,",
"-----XX X-6886X-X X--6688-,,,,,,,,,,,,,,,,,,,,,,,,,,,,,,,,,,,,,,",
"------+ +-6886X-X  X-,686-,,,,,,,,,,,,,,,,,,,,,,,,,,,,,,,,,,,,,,",
"------+ +-6886 -X  X---86-,,,,,,,,,,,,,,,,,,,,,,,,,,,,,,,,,,,,,,",
"------+XX-688, XX  X--688+,,,,,,,,,,,,,,,,,,,-,,,,,,,,,,,,,,,,,,",
"------X +-688, -   X--668-,,,,,,,,,,,,,,,,,,,,,,,,,,,,,,,,,,,,,,",
"------X X-688, -   --,688+-,,,,,,,,,,,,,,,,,,,,,,,,,,,,,,,,,,,,,",
"--,---  X-688, X   X-,688-,,,,,,,,,,,,,,,,,,,,,,,,,,,,,,,,,,,,,,",
"--,---X X-668, -+  X--686-,,,,,,,,,,,,,,,,,,,,,,,,,,,,,,,,,,,,,,",
"---,,,+ +-,68, -  X--6688-,,,,,,,,,,,,,,,,,,,,,,,,,,,,,,,,,,,,,,",
"---,--+ +-,68, -   --6688+,,,,,,,,,,,,,,,,,,,,,,,,,,,,,,,,,,,,,,",
"---,,-+ +-688, -X  --,686+-,,,,,,,,,,,,,,-,,,,,,,,,,,,,,,,,,,,,,",
"---,-+  +-688, ++ X+-,686+-,,,,,,,,,,,,,,-,,,,,,,,,,,,,,,,,,,,,,",
"---,--X +-6886 -X X+--688+-,,,,,,,,,,,,,,,,,,,,,,,,,,,,,,,,,,,,-",
"---,--+ +-,886 +X  X--,88++,,,,,,,,,,,,,,,,,,,,,,,,,,,,,,,,,,,,-",
"---,,,+ +-6886 X   X--,88+,,,,,,,,,,,,,,,,,,,,,,,,,,,,,,,,,,,,,-",
"---,,,+ +-,886 +   X--,88+,,,,,,,,,,,,,,,,,,,,,,,,,,,,,,,,,,,,,-",
"---,,,+ +-,886 X  X+-,688+-,,,,,,,,,,,,,,,,,,,,,,,,,,,,,,,,,,,,-",
"---,,++ +-,886 X  X--,688+-,,,,,,,,,,,,,,,,,,,,,,,,,,,,,,,,,,,,,",
"---,,-+++-,886 +X XX-,688 ,,,,,,,,,,,,,,,,,,,,,,,,,,,,,,,,,,,,,,",
"---,,-  +-,886 -X XX-,688 -,,,,,,,,,,,,,,,,,,,,,,,,,,,,,,,,,,,,,",
"----,+  +-6886 XX  --,688 -,,,,,,,,,,,,,---,,,,,,,,,,,,,,,,,,,,,",
"----,-+ +-6886 -+  +-,888+-,,,,,,,,,,,,-,,,,,,,,,,,,,,,,,,,,,,,,",
"----,-  X-,886 -X  +-6888 --,,,,,,,,,,,,,,,,,,,,,,,,,,,,,,,,,,,,",
"------+ +-,886 +X  X-,688 +-,,,,,,,,,,,,,,,,,,,,,,,,,,,,,,,,,,,,",
"------+XX-6886 +X XX-,688X--,,,,,,,,,,,,,,,,,,,,,,,,,,,,,,,-,,,-",
"------X +-6886 -  XX-,688 X-,,,,,,,,,,,,,,,,,,,,,,,,,,,,,,,-----",
"------X +-6888 XX XX-6688XX-,,,,,,,,,,,,,,,,,,,,,,,,,,,,,,,,----",
"------+X+,68e8 +  X--6888X--,,,,,,,,,,,,,,,,,,,,,,,,,,,,,,,----,",
"------X +-68e8 +  X--,888 --,,,,,,,,,,,,,,,,,,,,,,,,,,,,,,,----,",
"------X -,,886+X  X--,888+------------------------,,,,,,--------",
"-----+XX--,88,XX  X--6888 +-,,,,,,--+++-,,,,-------------------,",
"-----X +X--,8,+-  ++-,,88XX--+++XXXX-XX-------%%%%%%%%%%%%%%-+++",
"666---X++,,,6,,--++X--,68,,,8,,68,,66---6--6,---:::-:--%%%%66,88",
"688,6,X -,,-66,,-- X-6,,88,,88,,88,,66,,6,--6,,,6-6------6,66,,8",
",,,-,++  +X--,-+-X  X,--,,--,,,,,,,,,,,-,,-,,,-,,-,,-,+-----,-+-",
"+--++X   XX+--++++   ++++++++++++++++++++++++++++ ++++   ++++++-",
"            +++ ++                                              ",
"             +          ++++++++              XX                ",
",,,,6---X-X6---::%XX X:--,,,,,,,,,,,,,,,,,---::::::-:::::----,,,",
",,,886666666666::6--%-6:66,666,,,,,,,,,,,,,---:::6::::::::--6,,,",
",,,,-----,,---6::--%%%X%%-----,,,,,,,---,,----:6666-:%%%%---+--,",
"++-          XXXXXX          X----+          +-+--+          ++,",
",,,          X%%%XX X        ------    ++   +,-,,,,          --,",
",,,+        X-:%:--XX        -----,    +++ ++,,,,,,      +   ,,6",
",,,+        X-:::--X        +,,,,,,    +-++++,,686,         +,,6",
",,,+         -:::,,+        +,,,,,,    ++   +,,686,         +,,8",
",,,+         --:6,,+         ,,,,,,    ++   +,,688,         +,,8",
",,,+         ----,-          ,,,,,,         +,,,86,         +,,8",
",,,          -,,,,-          +,,,,,          --,,,-          -,6",
"+--         +++++++          ++++++          ++++-+          ++,"
};
