/* XPM */
static char *wall4[] = {
/* columns rows colors chars-per-pixel */
"64 64 32 1 ",
"  c #1A151F",
". c #36274B",
"X c #42343B",
"o c #3C336A",
"O c #264042",
"+ c #393B42",
"@ c #6A2F56",
"# c #813836",
"$ c #474C80",
"% c #7D413C",
"& c #69469B",
"* c #B03B59",
"= c #3C7253",
"- c #72615F",
"; c #B4563E",
": c #A1624E",
"> c #B158D3",
", c #6D767B",
"< c #E06465",
"1 c #5590B4",
"2 c #C68B60",
"3 c #6BB453",
"4 c #E981E4",
"5 c #DD9254",
"6 c #B4A091",
"7 c #F29380",
"8 c #B3BDB6",
"9 c #E5BD85",
"0 c #81D7CE",
"q c #C1DC71",
"w c #EAD074",
"e c #F6F5DE",
/* pixels */
"++++++++++++++++++++++++++++++++++++++++++++++++++++++++++++++++",
"+++++++  ++ +  ++++       +     ++++ +++++++++++++++++++++++++  ",
"+                                                               ",
"+       +                                                       ",
"+                                                               ",
"                                                                ",
"   +,                                                           ",
"  8888- XX+888,          XX ---+X                               ",
" ,8+ ,8XXX88++8-+++++    XX+666-XXXXX+++X++X    ++X-,,-         ",
" ,6   8-X+8-  ,6+XX++++             X-----X+XXXX-++-66,         ",
" ,8- ,8-X+86  86XXX++                ---------X++            +  ",
" +,888--+-,8888-XX++                  --------X++           -,  ",
" X,86--+++-886----++        888-      X--+----O,+  +-++   ,+ +  ",
" +,88,++--+886-----+   ++ X+888--   ++ --+-,-+,,   6888   8+    ",
" +,88,+----888-----+++X,+ ++++---++X++ ----+++8+ -X6,,,+  ,+    ",
" +,88,-----886-------++,+ +X+XXXXXX+,, X-----+8+ -+++--X+ ,+    ",
"++,88,-----888--------+,+ X-XXXXXXX+,, XX----+,+ ++XX +++X,+    ",
"X-,88,-----886-------,-,+ ++++     ++     +++    +++XX++++,+    ",
"++,8++----,8,+-----,,,,,+ , ++      ++++ +  ,+++          ,+    ",
"X+,,  ----,,- +----6,88,+           +       +             -+    ",
"++,8  +----8, +----888,,+ +++++ ++++                      ,+    ",
"X-,8  +----8, +-----,,+,+ ,,,-++-,,,,,  +++   ,+ ,---+-,,,,,    ",
"X-,,  +----,- +--------,+ ,8,----,,,,, X-,+++X,, ,,+-+,,,,,,    ",
"--,,  -----,+ ,6,,--,,,,+ 888,----,,,, X--++++,, ----X-,,,,,    ",
"X-,+  +--+,,+ ,8,,--,,8++ 8888,---+-,, ++++X++,+ ----+--,,,,    ",
"+,++ +++++,    ,,,--,,,++ ,,,--+++++++    X + ++ ++X++++-,,,    ",
"+,+++++ ++++++++-,----,++ -+        -+++++  ,+++++     ++++,    ",
" ,++++X X++++,+ ------,++           +       +           ++ ,    ",
"     +  X +    X------,++ ++      ++                    +++,    ",
"       XX      X--+---+++ ,,--++-,,,++   +,+  ++ ----+-,,,+,    ",
"      XXX+X   +-----X-+++ ,8,-++-,,,++ +-,,,--,+ --+XX-,,,+,+   ",
" +          ++XX+-----+++ ,,,,,-,+-,+, +-,,,--++ +-+---,,,+,    ",
"                 +-+    + +-88888+++,, -,,-++-++ ++8888,+-+,    ",
"                 +XX      +-888,, ++,+ -,,----+++ +,888,+,+,  + ",
"                 +X++++    ++      ++ +-,,,,,,- ++++++++++++ ,, ",
"       ++        +X++++              +8-,,,,,8,-+            ++ ",
"                 X+++               -8,-,,,,88,,8,+             ",
"               +  ++       +888+X  +,,---,,-,,,88888888-  ++    ",
"                 X++     ++-888-XXXX-----,,,,,,88888888-        ",
"                         +X++ +XX   XXX++++++++,,,,+            ",
"                  +                                             ",
"+++++++++++++++++++++++++++  +++++++       +++++++++++++++++++++",
"++++++++++++++++++++++++++++++++++++++++++++++++++++++++++++++++",
"---+---XX++++++XXXXXXXX--++++++++--------------+++X++X+++XXX----",
"--------X++X-X-XXXXXXX----++++++++XXXXX-------X-XXXXXXXXXXXX++++",
"-----------------------------+++XXXX----------%%%%%%%%%%%%%%-+++",
"886-66--86,,6---6,--6-,68,,,8,,68,,66---6--6,---:::-:--::::66,88",
"688,686,68,-66,,66--66,,88,,88,,88,,66,,6,--6,,,6-6------6,66,,8",
",,,-,,,+-,---,-+--XX-,--,,--,,,,,,,,,,,-,,-,,,-,,-,,-,+-----,-+-",
"+--++-+++--+--++++X +++++++++++++++++++++++++++++ ++++   ++++++-",
"                ++                                              ",
"                        ++++++++              XX                ",
",,,,6----6-6---:::----:--,,,,,,,,,,,,,,,,,---::::::-:::::----,,,",
",,,886666666666::666:66:66,666,,,,,,,,,,,,,---:::6::::::::--6,,,",
",,,,-----,,---6::--%%%X%%-----,,,,,,,---,,----:6666-:%%%%---+--,",
"++-          XXXXXX          X----+          +-+--+          ++,",
",,,          X%%%XX X        ------    ++   +,-,,,,          --,",
",,,+        X-:%:--XX        -----,    +++ ++,,,,,,      +   ,,6",
",,,+        X-:::--X        +,,,,,,    +-++++,,686,         +,,6",
",,,+         -:::,,+        +,,,,,,    ++   +,,686,         +,,8",
",,,+         --:6,,+         ,,,,,,    ++   +,,688,         +,,8",
",,,+         ----,-          ,,,,,,         +,,,86,         +,,8",
",,,          -,,,,-          +,,,,,          --,,,-          -,6",
"+--         +++++++          ++++++          ++++-+          ++,"
};
