/* XPM */
static char *wall2[] = {
/* columns rows colors chars-per-pixel */
"64 64 32 1 ",
"  c #1A151F",
". c #36274B",
"X c #42343B",
"o c #3C336A",
"O c #264042",
"+ c #393B42",
"@ c #6A2F56",
"# c #813836",
"$ c #474C80",
"% c #7D413C",
"& c #69469B",
"* c #B03B59",
"= c #3C7253",
"- c #72615F",
"; c #B4563E",
": c #A1624E",
"> c #B158D3",
", c #6D767B",
"< c #E06465",
"1 c #5590B4",
"2 c #C68B60",
"3 c #6BB453",
"4 c #E981E4",
"5 c #DD9254",
"6 c #B4A091",
"7 c #F29380",
"8 c #B3BDB6",
"9 c #E5BD85",
"0 c #81D7CE",
"q c #C1DC71",
"w c #EAD074",
"e c #F6F5DE",
/* pixels */
"-,,-+++,-,,-,,,,,,,--,,,,,,,66,,,6,,66666,,,-,,,,,-,-,,,-,,,,,,,",
"-X+XXX---,--,--,----------------------66----------------,-,,,-,-",
"XXXX---------+------%X--------------------------------------,---",
"XXXX----+---6----6XX--+XXXX    X+XXXXXX+XXXXXX----+-------------",
"XXXX--------------++X+++X XXXXXXXXXXX+X+--+-X--,,,,-+,,---------",
"XX+X---------,----++--++,,,,,X,XX-XXX+X-+++++-,,,,,-+,,-,--,----",
"X+X------,,,,-,,6,,,,8,,6,888888888888888888888-,,,-+,,,,--,,--,",
"++XX-----,,-,,,,6888888888888888888888888888888-,,,-+-,,,-,,,--,",
"-+X------,-+,,,,8888888888888888888888888888888,+++++,,,,-,,--,,",
"---------,---,,,88886666666666666---66666668888,+++++,6-,,--,-,,",
",------------,,,888666,6,6-----------6666668888,+--++66-----,-,,",
"----------++,,,,88-666866------XXXX---66666--88,---++,6----,---,",
"----------++,,,,88,,6,66--,,----XXXXX--6666-688,-:--+,6------,-,",
"-+--------+-,,,,886666,-XX,,,---XXXXXX---6--888,----+66--,--,,+-",
"---------+---,,,886666-XXX,,,---XXXXXXXX----888,66--+66----+,6+-",
",,,-,-,,-,,,-,,,886,6,XXX-,6,----XXXXXX-----888,66---66-,,,,-6+-",
"------,--,--,,,,88666XXXXX-6,---XXXXXXX-----888,66---66,,,-,-,+-",
"----------+-,,-,8866,+XXXX-6,----X----------888666---66,,,--X++-",
"-----+------,--,886,+XXXXX+6,---------------688666,--66,---XX+++",
"++------6--6,,,6888-++X-X---------,,--------688666---66,-,--+++-",
"+--6---66--66,66888-XXXXXXXXX---+-----------688666---66--66,,---",
"---,,,,66,,6,,66888-XXXX+----XX-------------,68,,,,,,,,,-66,,--,",
",,--,,,66,,66,66888-X----------------------X,68,,,,,,,,,,6----,-",
",,-,,,,66,,66+,,888,-----,,,-,-------------X-66,,,,,,66,,66-----",
",--,,,,66,,66+-,888----,,,,,--X------X%XXXX--66-,,,,,,,-,,6-----",
"---,,,,66,,66+,,888-+-,,,,,,,,----,,+XXXXXX--,6,6----,--,-6-----",
"+++-,,,66,,66+,6888,+,,,,,,,,------,,XX-X----,6,,,,-------6-++++",
"-++-,,,66,,66,,,888,-+--+++++-----,,,XXXX----66,-,,----+--------",
"---,,-,6,,,66,,,886,,X +X+++++----,,,XXXXX---66,,,,-------6-----",
"---,,,-66,,66,,,886,,- + + + X----,,,XXXX----6,-,,,-----,-6-----",
"---,---66,,66,6,886,,,++++++ X-----,,-XXX----66,,,,-------6-----",
"--+-,,,66,,66,66666-,,,+ + + +--------XX-----66,-,,-----,-------",
"--+-,,,66--66,6666,-,-,,++++ +------XXX--------,-,,-----,--+---,",
"---,,,,,6--6666666--,,,---++ +X---X+X------X---6,,,-------6----,",
"---,,,-66--66,66666,,-------XXXXXXX-------------,,,-------6-----",
"---,---66--66666666,---------------------------6,,,------+6----,",
"---,---66--66666-----------------------------X-6-,,------+-+----",
"--+-----6--6,------XXXXXXXXXXXXXXXXXXXXXXXXXX----,,------+-++---",
"-------X+X-XX--+-+X  XXX XXXXXXXX +   XXXX-----++,,-----+-6-+---",
"XX ++ +-X       X+   XX  XXXX          X X-++--+++,+++++++-+++--",
"XX   ++                                   X    +++++++++++++-+--",
"XX+ ++++--+           XXXX              + X++X-+++++++++++-+---+",
"X+++-+++++++  +++     XX+X             XXXX+++++++++++++++++----",
"------------------XXXXX--X-XXXXXXXXXXXXXXX----------------------",
"--------X++X-X-XXXX  X----++++++++XX   X------X-XXXXXXXXXXXX++++",
"-----------------XXXX--------+++XXXX-XX-------%%%%%%%%%%%%%%-+++",
"886-66--86,-6---6,XX--,68,,,8,,68,,66---6--6,---:::-:--%%%%66,88",
"688,686,68,-66,,66XX-6,,88,,88,,88,,66,,6,--6,,,6-6------6,66,,8",
",,,-,,,+-,---,-+--X X,--,,--,,,,,,,,,,,-,,-,,,-,,-,,-,+-----,-+-",
"+--++-+++--+--++++   ++++++++++++++++++++++++++++ ++++   ++++++-",
"                ++                                              ",
"                        ++++++++              XX                ",
",,,,6----6-6---::%XXX-:--,,,,,,,,,,,,,,,,,---::::::-:::::----,,,",
",,,886666666666::6--%66:66,666,,,,,,,,,,,,,---:::6::::::::--6,,,",
",,,,-----,,---6::--%%%X%%-----,,,,,,,---,,----:6666-:%%%%---+--,",
"++-          XXXXXX          X----+          +-+--+          ++,",
",,,          X%%%XX X        ------    ++   +,-,,,,          --,",
",,,+        X-:%:--XX        -----,    +++ ++,,,,,,      +   ,,6",
",,,+        X-:::--X        +,,,,,,    +-++++,,686,         +,,6",
",,,+         -:::,,+        +,,,,,,    ++   +,,686,         +,,8",
",,,+         --:6,,+         ,,,,,,    ++   +,,688,         +,,8",
",,,+         ----,-          ,,,,,,         +,,,86,         +,,8",
",,,          -,,,,-          +,,,,,          --,,,-          -,6",
"+--         +++++++          ++++++          ++++-+          ++,"
};
