/* XPM */
static char *wall1[] = {
/* columns rows colors chars-per-pixel */
"64 64 32 1 ",
"  c #1A151F",
". c #36274B",
"X c #42343B",
"o c #3C336A",
"O c #264042",
"+ c #393B42",
"@ c #6A2F56",
"# c #813836",
"$ c #474C80",
"% c #7D413C",
"& c #69469B",
"* c #B03B59",
"= c #3C7253",
"- c #72615F",
"; c #B4563E",
": c #A1624E",
"> c #B158D3",
", c #6D767B",
"< c #E06465",
"1 c #5590B4",
"2 c #C68B60",
"3 c #6BB453",
"4 c #E981E4",
"5 c #DD9254",
"6 c #B4A091",
"7 c #F29380",
"8 c #B3BDB6",
"9 c #E5BD85",
"0 c #81D7CE",
"q c #C1DC71",
"w c #EAD074",
"e c #F6F5DE",
/* pixels */
"++++++--++++++++++++++++++++++++++++++++++++X-6--66-6--------X++",
"++++++-+++++++++++++++++++++++++++++++++++++X666:666666666-666++",
"+++---++++++++++++++++++++++++++++++++++++++X:29922:226266:2:6++",
"-+-::::----,,,-,,,,,,,-,-,--++-+,--+--,,-+++X-262222:2:2::::-6++",
"--:::::--------------------------------,,+++X-26992266222::::6++",
"--::                                   -,XX+X:6e6622::2:::::-6++",
"-,-:                    X   XX   XX    --XX+X--86622:26::::::6++",
"----    ---+ ---+X--- +--- ---+ ----   --XX+X--:22222222:::::6++",
"----  XX-,,-+-,,--88,+-88,+-,,-+--,-X  --XXXX:222222:::2222::6++",
"+-,-+X%X-,-+-,,,--88,+-,8,+--,++----%X+--XX+X:29222::22::::::6++",
"+-,,+X%X+++-----++----,--+,++,,--+++%X+--XX+%:;;;;;:%::%%%%%%6++",
"--,,+X-X++-,,-,,,+,,,,,,11,,,,,8,,,,-X+--XX+X%#%%##%%%%%%XXX%X++",
"--,,+X-X++-,,,,+,-,,,,,,,,,,,,,88,+,-X+--XX+++XXXXXXXXXXXXXXXX++",
"--,-+X%X+++,,-,,,+,,,,,,88,,11-,,1,,%X+--XX++++XXX++X++XXXXXXX++",
"--,-X%%X++++ +++++,,,-,,,,,,,,,+,+,+-X+-6:-,,,,,,,,,,,+++XXXX+++",
"----XX++++++++++++++++++++-++++++++-+++------------,,,,,,XXXX+++",
"--,-X+,,,,,,,,,,,,,,,,,,,,,,,,,,,,,,+++,,++++++------,,,,-XXX+++",
"-+,-X+-,,,,,,,,,,,,,,,,,,,,,,,,,,,,,+++,,      XXXXXX--,,-XXX+++",
"++,-X++++X++++XX+X+++XX-X+X +XX%%%%#+++,-           XXX-,,-XX+++",
"++,,+++O--XXX---%++-+---%+-++--6666:+++,-            XX+-,-XX+++",
"++,,++++++,,,,++-+-,,+++-,,,,--886,,+++-+             XX-,-XX+++",
"++,-++++++++XX+++XXXX++++XXXX--88-+++++--          +   ++--+++++",
"++,-X+++,-X%X-6+,-X%%,,-,X%%%8-88+++O++--              ++--+++++",
"++--X+++-+XXX+-+-----,-+,----,+88++++++,-+++            ++++++++",
"++,-X++++-,,,,+++88,8,++,8,,8+X68,-,+++,,+++++          ++++++++",
"++--X+++ X+-+-XXXX++++ X + +X X6668,+++,,++++++         +-++++++",
"++,-X+++XX + ++X# X+ + %X+++++X,,,,-+++,,-,,,,,-        +--+++++",
"++--X+O+XX-+-++-X---,++X--------::%%O++,---,,,,,+       X--+++++",
"++--X++O -+,-++---,-,++-6-++-+-6:::++++--X---,,,,+      X--+++++",
"++,-X+++ -...+- X-...++X-+.  +-6:::X+++--XX+++-,,+      X--+++++",
"++--X+++X-  X  XXX  XXX-X  XXX--:::++++--     +--+      X--+++++",
"++--X++++O,,,,+,,,,,,,,,,,,,,,,,,,O+O++-+     ++++      +--+++++",
"++--X+++++O,,,,,,,,,,,,,,,,,,,,,,,++++++X      +++      +--+++++",
"++--X++++++++++++++++++++++++++++++X+++++       ++      +--+++++",
"++--XX%%%X X +XX+X+X%%%%%%%%%%:::::;%X+++       ++      +--+++++",
"++,-XX%-X-,,,,,,,,,,,,,,,,,,,,--::::%X+++       ++      +--+++++",
"++--XX--+,,,6,,,-,,----,------,-,---+++-+       ++      +--+++++",
"++--X+-,+6,666666-6,,-6,6,-666,,,,,,-++,+      +++      +--+++++",
"++--+X-,-,--,,---,-----------,---666-++-+      +++      ++++++++",
"++--X--,,X++++O++++++O--XOO----%%%%---+,+      +++      ++++++++",
"++,---,-,-,,,,,,--,--,-,-,,-+-------,-,,+      +++      X+++++++",
"+++-XX+X+++++++++++++++++++++++++++++++++      +++      X+++++++",
"+++                                            +++      X+++++++",
"--X X                                   X      +++      XXXX----",
"--XXX                                   XX X   +++      XXX%XXX+",
"--XXXXX                                XXXXX   ++XXXX   XX%;:X++",
"88----XX,XXX%XXXXXXXXXXXXXXX-XXXX++XXXXX-XX-     %%X%   XX:22-88",
"688,6,---,-%::---:%%::-X:-X+6-XX-,++--+-----6   ::2-X    X-66,,8",
",,,-,,,+-,-::-:X--XX-,---,--,,--,,,,,,,-,,-,--:------,   %:-,-+-",
"+--++-+++--X:%++++X +++++++++++++++++++++++++++++ ++++ XXXX++++-",
"                ++                                  X           ",
"                        X+++XXXX              %%   XX           ",
",,,,6----6-6%--:::----:--,,,--::::--:::-:::::;;;;;;::::::----,,,",
",,,886666666666::666:66:66,662-----:-------%%%;;;2;:::::::--6,,,",
",,,,-----,,---6::--%%%X%%-----,,,,,,,---,,----:6666-:%%%%---+--,",
"++-          XXXXXX          X----+          +-+--+          ++,",
",,,          X%%%XX X        ------    ++   +,-,,,,          --,",
",,,+        X-:%:--XX        -----,    +++ ++,,,,,,      +   ,,6",
",,,+        X-:::--X        +,,,,,,    +-++++,,686,         +,,6",
",,,+         -:::,,+        +,,,,,,    ++   +,,686,         +,,8",
",,,+         --:6,,+         ,,,,,,    ++   +,,688,         +,,8",
",,,+         ----,-          ,,,,,,         +,,,86,         +,,8",
",,,          -,,,,-          +,,,,,          --,,,-          -,6",
"+--         +++++++          ++++++          ++++-+          ++,"
};
