/* XPM */
static char *wall3[] = {
/* columns rows colors chars-per-pixel */
"128 128 169 2 ",
"   c #030303",
".  c #080705",
"X  c #090806",
"o  c #0C0C0C",
"O  c #100E0A",
"+  c #13100B",
"@  c #141414",
"#  c #1B1812",
"$  c #1C1C1C",
"%  c #211B0F",
"&  c #221E15",
"*  c #252015",
"=  c #2B2517",
"-  c #2C261A",
";  c #2F291C",
":  c #312916",
">  c #332C1D",
",  c #37301F",
"<  c #3D321B",
"1  c #242424",
"2  c #2C2C2C",
"3  c #342E21",
"4  c #373022",
"5  c #3C3424",
"6  c #3E3728",
"7  c #3F3829",
"8  c #343434",
"9  c #3C3C3C",
"0  c #403725",
"q  c #443A26",
"w  c #493D23",
"e  c #443C2B",
"r  c #493F2A",
"t  c #4C422D",
"y  c #574827",
"u  c #584827",
"i  c #51462D",
"p  c #55482D",
"a  c #5B4C2A",
"s  c #474032",
"d  c #4D4432",
"f  c #4D4739",
"g  c #4F4838",
"h  c #504732",
"j  c #544A34",
"k  c #594E35",
"l  c #544C3A",
"z  c #594F39",
"x  c #5D5136",
"c  c #5D523B",
"v  c #63522D",
"b  c #68562F",
"n  c #615436",
"m  c #6C5932",
"M  c #62563C",
"N  c #65593E",
"B  c #6B5C3D",
"V  c #715E36",
"C  c #705F3D",
"Z  c #6F603E",
"A  c #72613E",
"S  c #444444",
"D  c #4B4B4B",
"F  c #524D41",
"G  c #5C5341",
"H  c #535353",
"J  c #5B5B5B",
"K  c #615741",
"L  c #665A42",
"P  c #6A5E43",
"I  c #635B4A",
"U  c #695F49",
"Y  c #6E6145",
"T  c #6D624A",
"R  c #736445",
"E  c #786742",
"W  c #776847",
"Q  c #796946",
"!  c #736649",
"~  c #76694C",
"^  c #7B6D4D",
"/  c #7F704F",
"(  c #6D6452",
")  c #716751",
"_  c #756A52",
"`  c #7B6E52",
"'  c #766D5B",
"]  c #796F58",
"[  c #7E7053",
"{  c #7D725A",
"}  c #636363",
"|  c #6B6B6B",
" . c #7E7561",
".. c #737373",
"X. c #7B7B7B",
"o. c #80704F",
"O. c #837454",
"+. c #877857",
"@. c #887857",
"#. c #837659",
"$. c #86785A",
"%. c #897B5D",
"&. c #8A7C5C",
"*. c #8A7C5E",
"=. c #8C7D5D",
"-. c #817762",
";. c #877B61",
":. c #867B63",
">. c #8B7D60",
",. c #8C7E60",
"<. c #8A7F66",
"1. c #857C69",
"2. c #887E68",
"3. c #887E69",
"4. c #8F8061",
"5. c #8F8163",
"6. c #8D826B",
"7. c #8E846F",
"8. c #908162",
"9. c #928365",
"0. c #938567",
"q. c #948667",
"w. c #938569",
"e. c #958768",
"r. c #948669",
"t. c #96886A",
"y. c #96896B",
"u. c #96896D",
"i. c #988A6D",
"p. c #9A8C6F",
"a. c #8D8574",
"s. c #908672",
"d. c #968B71",
"f. c #9A8C70",
"g. c #9C8F72",
"h. c #948D7C",
"j. c #998F79",
"k. c #9E9175",
"l. c #9E937B",
"z. c #A09377",
"x. c #A1957B",
"c. c #A3967D",
"v. c #A4997E",
"b. c #838383",
"n. c #8B8B8B",
"m. c #939393",
"M. c #9B9B9B",
"N. c #A09580",
"B. c #A59A82",
"V. c #A79B82",
"C. c #A99D85",
"Z. c #A79E8A",
"A. c #AA9F89",
"S. c #ADA28C",
"D. c #B0A68F",
"F. c #ABA290",
"G. c #B1A790",
"H. c #B3AA95",
"J. c #B5AC99",
"K. c #B9B09D",
"L. c #A3A3A3",
"P. c #ABABAB",
"I. c #B9B1A0",
"U. c #B2B2B2",
"Y. c #BBBBBB",
"T. c #C3C3C3",
"R. c #CACACA",
"E. c #D4D4D4",
"W. c gray86",
/* pixels */
"+.#.4.q.9.e.i.k.g.t.i._ [ ` 8.f.8.Y i.0.>.p.+.d e ^ ^ ! t O.^ +.4.,.g.e.k.#.8.c.B.u.{ t.4.! c q ^ t 3 I 7.u.j { ~ M  .2.g.:.> #.g 6 s I l L h j ^ M P ! P d q M d ^ q R *.O.g.e 7 U R c <.g.+.<.k ! [ W Y c k c N O.t.=.^ *.O.4 ^ ! ! s _ c h ! O.+.,.,.w.u.$.0.",
"O.~ ! L P c P j O.~ ^ Y c ! ! z [ O.^ ! P ^ ^ L N P ~ L Y N ! ! L Y ! ! ` [ T c ! ` [ ! ! [ Y P ^ *.[ [ Y L M z c Y M P ! M M M P e x d M P %.,.i.4.+.%.q.` ,.! #.L ` $.w.*._ P R c 5 R x q c R L P ` 4.$.+.! Y ^ L L %.0.*.` ` [ 4.=.~ ~ O.$.j O.4.>.` ` ~ +.` ",
"` +.~ ` ` >.4.O.j $.O.~ ~ =.4.[ ` ` *.0.%.L L ^ Y ! +.$.4.` P L R c q x R 5 c R P ^ *.0.$.` L #.! ,.` q.%.+.4.i.,.%.P M d x e P M M M ! P M Y c z M L Y [ [ *.~ P Y [ ! ! [ ` ! c T [ ` ! ! Y L ! ! N Y L ~ P N L ^ ^ P ! ^ O.[ z ! ! c Y ^ ~ O.j P c P L ! ~ O.",
"0.$.u.w.,.,.+.O.! h c _ s ! ! ^ 4 O.*.^ =.t.O.N c k c Y W [ ! k <.+.g.<.c R U 7 e g.O.*.R q ^ d M q d P ! P n ^ j h L l I s 6 g #.> :.g.2. .M ~ { j u.7.I > t ^ q c ! 4.t.{ u.B.c.8.#.k.e.g.,.4.+.^ O.t ! ^ ^ e d +.p.>.0.i.Y 8.f.8.` [ _ i.t.g.k.i.e.9.q.4.#.+.",
"~ M ^ ^ +.M h O.L ^ j c N > q ; r ; 5 N 5 j 5 t q ^ 4.w.) c.x.k.O.0.[ %.4.S.c.l #.l ^ +.x j T ; q j O.P L Y ^ Y / I F.k.g.9.0.#.j I i.$._ 4.e.=.` P O.T p.k.d.$.M e 5 > d L T Y j q L P Y M t q P c L M k 5 d ^ j j P ^ ! ^ ` [ O.+.^ t ^ ^ ~ ! P L P P L e s L ",
"k.<.g.l.4.c { ,.l 9.j.c.' ' ( ` 6.T T g.-.l k.C.f.*.$.T ~ M l e.i.f.t.0.t.p.8.z.k.=.s #.t.#.x.C.x.g.v.B.C.B.S.e.g.f.u.8.0.c.k.8.O.O.^ e P R z [ [ #.$.S.u.x.e.9.$.0.C.C.D.v.e.G.c.c.6.v.` e.i.B.k.e.t.=.! k.8.i.i.*.g.k.f.g.8.i.f.8.t.x.i.t.,.,.,.8.k.c.x.k.B.C.",
"P j O.^ O.#.*.P ^ c Y ^ P ~ +.+.L ~ ! ! P +.k.C.x.9.U ! O.L t t c c ; ! M d R j M x M ~ L ~ [ ` P =.` ~ I T [ #.~ e ! ! ^ M L N ^ [ n L x P B O.^ ~ ~ L P ! G [ i.x.S.C.f.w.l.O.<.$.{ k { c.f.w.$.w.u.f.e.0.e.B.#.f.2.) I u.4.l.$.,.u.$.G +.k.c.B.T #.k z #.0.^ ",
"~ %.,.[ >.,.$.f.i.w.i.0.B.c.q.,.x.t.k.0._ L ~ k j q t ^ ^ w._ B.' s ( N.B.I G e x _ W d r j B i 5 n n n q 5 Y c q 5 q +.n R B P O.B w y a O.A m B Y q = > k W q c d 4 z L ~ j P c P T ` K z P ! L z j c j M P j M P j ! P Y L c M Y ! z c P c P z ! N c L j Y Y ",
"j._ T <.1.) { n q E 5 k r 5 i k 5 B > B t t K :.S.C.+.i.>.! K M ! h q c c K ~ $.0.k.S.S.g.k.f.#.C.S.K.h.' Z.f.j.' c T j B q t B n p w < p a u u a O.-._ <.n P ,.( a.g.>.4.4.I l.4.d.' ` ( w.+.$._ ( S.6.g.x.B.k.v.O.2.{ f.{ ! w.c.d.f.g.F B.l.I s.c.l.c.l.c.l.l.",
"z t ! j x t 6 t Y j M Y O.O.v.k.g.z.H.q.[ ` L M N Y M P P j ^ Y t d N ^ t Y ~ R ~ N P N N c z P h j j x x Y P ! ~ 4.x.B.S.H. .f.R N w : : < a E P <.S.A.v.z.k.` e = j N Y e L k M N e ! ; e M e c N ; t n i n d ~ = > e d O.) c c L K l M M j k t 5 k - 5 i t q ",
"F.l.u.$.w.' :.d.B.! [ O.B i t 0 q t 5 r q c ~ ~ t i t r i L $.I _ I F w.d.l T L N k k j q 5 = * j i > > > t 6 P P ! P M x L 8.#.k.I.w.{ T I G H.H.#.l P M h 5 q T #.l ) k t d ^ M t - r t t 0 e t > t M e h M h *.l w.d j 9.{ k %.l.] $.,.{ %.e G K L ~ l 6.( k.",
"j j t ! N e j P d ! #.,.q.g.u.k.F U k O.e.T k.A.S.A.S.D.x.B.i.u.=.=.O.O.` 9.8.t.#.B.k.S.C.f C.S.f.I :.j.S.S.g.L 5 t n 6 6 ! M P j c 8.g.G.g.$.K M N z n B d w.4.c.H.J.p.H.x.k.0.C.S.f.{ ( K.c.H.u.C.k.k.v.t.` k.#.t.8.l.9.[ O.9.9.t.O.9.` =.+.! ,.0.x.z.=.~ T _ ",
"e.k.+.e.O.@.+.+.*.2.P [ c ~ c R R ^ [ T ` e.#.T ! R P o.^ P c Y N ~ ~ P Y R M z P R ! Y ! $.=.+.` ~ [ ` ! ! ` O.u.C.c.u.P +.Q R Y R ! Y c k ~ R P ^ ^ B.B.x.{ K e h k R k j N j h ; z h c c z j k ! Y c j c j k 6 t R r p N Q N B B N q 0 c B i - 5 k A ~ ,.` ` ",
"#.#.u.c.x.H.B.i.w.4.*.,.Y O.f.,.! %.O.9.+.P ! W E Q +.^ ! / #.^ O.Y Y ~ O.^ Y Q *.W N Q R A Z Q Q A R n k E P P ! R P [ i.i.f.i.k.w.w.%.O.C.l.k.x.4.~ N x R B ,.g.9.O.O.$.+.$.*.w.g.i.u.C.B.B.c.J.k.K.C.B.k.v.C.k.4.4.p.4.t.q.%.#.q.0.t.t.>.e.k.B.z.g.~ Y 4 L Q ",
"` ! c x P x N i k M K ~ z.c.w.w.,.Q R P P %.R O.~ R O.$.$.$.e.f.f.H.l.f.d.f.c.*.+.~ E E Q ^ +.Y R ^ +.O.O.^ ~ O.P ^ ,.E N ^ Y N P ! Y j c R c ! ^ Q ! O.~ R ~ +.,.S.S.c.e.l.4.O.B O.~ ! P c M x j M L M L N N B E +.+.*.u.%.*.[ u.e.*.4.+.^ +.g.Q P ,.S.H.S.v.*.",
"I ; d - ; & 6 T j K       . . X X X X .                               . .           o X     .     . . X X o X .   . .             .   . . .       .         .       .                     X . X . .                                   . .   t d & + & ; # O * 4 ",
"T d P j 0.q ` *.! _   o X @ $ $ @ $ $ @ $ $ X o o @ t > r > > 6 > e s s 4 4 5 4 j { h t o @ o o @ @ @ $ @ $ @ $ o o X X X X o X X @ @ @ @ @ @ $ @ @ @ $ @ @ @ . @ o @ X k K l k d j e 7 > - d 3 s 4 7 t 6 d       @ @ o @ o o o @ . . o X . +.#.c j ! #.t.d d 9.",
"f.K +.t O.q c +.k.W X $ o D S 9 H 2 8 2 $ 2 1 1 D R n ! t j L x P ! ` k P z j O.+.W k 8 2 8 9 H 2 8 2 1 1 1 8 2 2 1 1 8 8 9 1 1 1 $ 8 9 S D S S 9 S 9 S 9 S 8 8 8 2 S 8 2 Y *.4.! T ` P L j r _ L [ c ~ [ ~ ^ o 1 $ 2 8 8 2 9 8 1 1 $ 1 @ . u.f.j h ! +.q.P ! i.",
"%.L [ x P x 0.^ #.n 1 8 D } J X.X.H D D 2 S 1 1 ^ Q O.E [ +.Y 9.$.*.Y ^ O.Q ^ / R k 9 } 2 } } ..D } b.2 2 8 H 8 8 o S } D } H 9 S 8 S D | J X.m.X...X...X.b.S D 9 S J 2 S S T +.%.=.[ *.! $.P n $.+.%.O.+.O.Q E 9 8 9 } } ..m.S J D 9 2 $ o i.=.k c ! 8.O.O.O.t.",
"u.%.e.B +.c t.9.i.R 2 S J ..H n.n.n.9 9 1 9 2 ^ Q ^ A ~ O.W 4.=.%.n ^ +.^ %.O.E k D } | | L.X.b.n.P.} | 2 J 2 2 D H H J H ..J H S 8 S S H X.b.L...b.n.n.X.| D } D S S 9 S 9 D T +.+.4.%.0.@.4.P R t.$.8.O.8.$.^ ^ 8 H ......} } H } | 9 2 X c.#.Q ^ #.u.4.M c [ ",
",.N O.k ! ^ e.O.O.B $ 8 8 } 8 | 1 1 1 1 1 2 ^ Q ^ R ~ ^ B =.+.#.Q O.^ P =.! R k } } ..n.E.b.b.b.M.X.} D 8 } b.9 H J | J | | J D D 2 8 8 D J m.n.| m.M.m.m...J H 8 S S S D | D 9 P $.=.8.8.8.! $.N n *.` p.+.+.+.W E J J ......} } J J 8 $ X p.! ^ N R #.O.P k u.",
">.,.i.n d k ,./ #.B @ 1 8 2 9 9 9 2 2 2 o ^ Q ^ E ~ O.Q e.,.*.B R Y O.4.^ ^ k 9 ..b.M.| X.J J M.m.M.S 8 8 H J S } | ..S M.} | J H 9 H S S H M.L.L.M.P.L.X.} J 9 D 9 2 S J D D D 2 Y +.=.w.q.#.=.*.! P $.O.+.~ +.+./ Q H J ..} m.X.H H S 1 X t.B B p O.e.e.$.O.$.",
"*./ 4.^ R ! ` O.i.R o $ 8 S S 8 1 1 $ @ Q ~ ^ W ^ ~ R e.$.*.W ^ R O.=.R W j 8 S } X.M.m.b.m.U.T.P.9 D S D D 2 | X.b.} X.X.| S D D S 9 2 S J D ..| | n.X.b.m.| S D 8 S J J H S D 8 S P +.O.t.g.4.+.8.L Y O.*.+.+.,.*.^ ^ 8 } X.H J } | D 2 o ~ m b a M [ =.^ j *.",
"#.+.%.B P ~ 0.9.t.~ @ 1 S D H 9 9 2 $ ^ ^ O.W %.+.W e.+.#.n R O.%.=.^ ^ j 1 9 D D D L.U.U.U.T.T.D 1 9 8 2 ..1 | | D H J | J ..H ..8 9 9 H H D } | } | m...b.J H H 2 D 2 H S D S S 2 1 ! $.+.0.i.0.O.0.Y W ^ q.0.O.$.*.Q E | 9 ..n.} | 9 1 @ ^ m v a ^ ~ 9.0.[ *.",
"t.+.O.p M x q.$.,.~ @ 2 D D H S D 9 O.Q / W ^ [ ! e.$.+.M ^ ^ +.=.~ ^ k 1 1 9 8 D $ H R.U.Y.Y.D $ 8 D J 8 ..} } J J X.| } S } M.S H J 9 H D S D J H J | } H } H S S H 8 H S 9 8 9 2 1 $ Y $.` 4.8.8.O.e.+.P ! %.=./ O.@.Q Q H ..2 $ 8 2 $ @ Q b m v B +.q.[ Y [ ",
"$.x =.Q c M 8.0.0.` $ 8 S } D S 9 ^ ^ O.^ +.O.+.0.,.$.N O.^ ^ 8.! O.x @ 1 8 D D 2 8 S S S E.2 1 1 H 8 8 S D } 2 D | J H D H J n.} } D 8 9 $ S D D H } | H H S 9 9 | J S H H D S S S S 9 9 P 4.@.4.4.8.=.e.O.O.O.9.=.^ +.$.O.Q @ o 2 8 2 2 $ +.A A w N O.i.0.Y 9.",
"=.,.` p ~ j %.#.~ ! @ 2 J ( D S ^ ^ ^ ~ O.! ` e.*.*.M R R *.0.~ ^ t 1 8 1 S S 8 9 8 2 9 8 S 9 9 S D S 9 H | S S H b.J H b.J n.J J J S 8 9 2 8 S D H J D S J 9 2 } J J } | J J } S J 8 H D 2 N $.O.9.8.0.*.t.~ Y ! ,.=.O.[ @.O.O.1 1 2 $ 1 $ O.E A > B L *.~ N +.",
"t.P *.^ 0.j #.z.=.[ $ 9 ..H D ^ ~ ^ ^ +.^ $.=.$.+.R O.+.%.t.^ [ j 1 9 2 $ b.D D H } 8 2 S 8 9 8 8 H $ @ X.P.@ S D 9 9 9 9 9 H 8 J 9 8 $ 8 8 H ..H H D J H D 2 2 H D J J | J X.J D | D J | 8 8 P *.+.8.=.4.*.8.=.~ R e.0.` ~ $.O./ 1 @ 8 2 @ 4.A V n M 0.q.Y j 0.",
"O.! ` t 9.k $.#.4.O.$ 1 S S O.E O.^ O.^ ^ $.$.O.W ! L %.0.R ^ j $ 2 S H } ..J ....S 1 $ 8 1 8 S 2 1 $ @ $ L.n.X.X.X.D S H 8 H 8 8 8 @ D J J X.J J } } ....9 8 9 } } J | | X.X...J b...| J S 9 $ N $.^ =.4.0.$.*.O.R M >.*.O.^ $.+.O.X 8 $ @ x.O.m y ! 8.` ! t O.",
"=.x 0.^ _ P t.p.e.[ @ 1 9 ^ E +.O.O.^ *.+.^ ` Y / O.4.*.R +.k 1 2 S S 2 } H J X.....m.. 2 } | 9 9 2 2 2 @ H | J M.T.| } 1 9 S H H H 8 R.m.| b.| | X.X.9 8 $ $ S $ 8 H | | J | n.X.n.L.H } J S 2 1 N $.$.$.=.t.%.t.%.P Y 8.0.*.^ O.O.^ $ $ o g.+.+.P ,.i.=.O.M *.",
"T M t.O.4.R +.k.8.O.X $ O.Q O.O.O.O.$.O.O.+.^ ^ ^ $.[ ~ +.j 2 2 9 H J } } J J ..J D @ o 1 L.D 9 J 9 8 2 1 1 m.9 b.b.1 b.X.| ..b.X.2 o n.X.b.n.b.m.P.} $ D D H 8 9 D | J | } ..X.b.b.M.X.J } S 8 2 2 N +./ *.4.t.+.,.#.O.O.%.$.+.O.+.^ ^ X X 8.i.W N / $.~ ^ Y ^ ",
"e.+.t.~ k O.+.q.0._ . ~ W O.O.[ O.$.+.*.+.O.O.[ 8.O.O.$.t 2 8 9 S J | } J | H J o @ $ 1 1 J J S S 8 S S 8 8 X.S } ..@ X.D ....H J @ $ Y.| ....X.b.D b.D J D D 1 2 2 H J } H | n.n.X.H b.m.} S 2 2 H S P =.$.8.8.g.$.,.+.~ ^ =.=.+.+.=.^ P . u.9.~ k ^ g.=.c O.$.",
"8.P 4.! ^ +.+.t.9.4.t N +.^ ^ O.^ ^ ^ O.! ^ ! 0.O.W ^ t 1 2 8 D | ....D H H 9 1 $ 1 1 2 1 X.H J H D H S D 9 S } ..} M.} | J J H $ 1 1 2 } ..X.b.m.| } } J H D 9 8 D D J } | b.X.| X.J ....| S 8 M.D J 9 N O./ +.#.0.~ q.=.~ ~ #.=.O.^ =.L q +.9.[ t +.#.^ ^ %.w.",
"%.O.4.^ t =.R ,.4.8.> Y ^ O.O.[ [ 4.! ~ ! ~ 0.+.~ +.j . 9 S } X.X.J J J J S 1 2 2 S 9 9 2 D H } } | } H 8 H 8 9 S D H D D D H $ 1 1 8 9 D J J J ..} J ..} J 9 D 9 J D } 8 J 9 H 2 ..} J } H 9 n.X.J b.9 9 P 4.O.$.+.t.+.4.$.R ^ =.9.%.^ L e ^ t.^ ^ $.,.q.N w.+.",
"i.T %.c i 0.c >.[ [ 4 x R ! [ O.$.$.P +.R 0.O.[ O.j $ . 9 H ....J J } J 9 9 2 9 8 8 2 8 9 S D | ..} J S H H 8 S S 2 8 9 1 S 1 2 8 8 } D 8 J J H | } ..b.| } H S S $ H D S J | D J J J H H 1 8 | } } } J D 8 M $.^ +.$.q.O.4.+.^ ~ %.[ P j j / 0.P Y %.,.t.q +.=.",
"*.9.0.4.n k.^ t.e.0.6 c ! ~ +.$.$.^ O.^ 8.^ O.+.k 2 8 1 H n.m.J 9 9 D 9 8 H D H H } S | | 9 D D X.| ..} | 1 D D S 8 8 9 8 2 8 8 9 } } 9 9 D D D J } J X.S | J 2 8 1 H 9 9 S 1 8 S 8 D D 9 8 M.2 J J J J 9 8 2 N +.O.+.$.e.! 8.8.+./ 4.=.K q C +.^ o.>.[ O.j t.0.",
"8.+.#.+.R t.Y 0.=.[ 4 c c ` O.%.^ ~ ^ 9.^ O.[ k D H } 8 9 | H 9 8 S J H J } H H ..R.R.P.X.9 D 9 n.| J } } J } } n.1 1 D 8 8 9 S S J } J S S S 9 H J H S ..} } 1 S S 8 2 9 D 2 9 S 9 8 9 9 | b.n.9 D J D 9 8 @ @ P O.O.=.=.e.*.0.` ~ N ,.Y e Q ^ ! k q.^ ! L ^ O.",
"[ 8.O.L q 4.j e.k.0.6 k $.Y *.W P R e.^ O.O.c 9 H H J } D J S 8 2 J | X.D b.M...n.M.m.X.J D 9 } b.| n.9 X...M.| J @ 1 9 8 S D D H ..| H 9 H S D S J S D | H } D S S 1 2 S 2 8 2 2 8 S M.P.b.X.m...9 J S 2 9 8 2 $ P $.O.$.=.t.+.*.^ ~ P ` d ^ ~ ^ x q.O.! ! ^ $.",
"4.e.p.$.r 0.4.x.e.=.5 [ ~ q.^ +.~ e.N +.+.c 8 9 9 H J 1 2 D 2 1 S J S D J M...| R.b.} ..} 1 2 1 @ 1 8 2 P.X.| } 8 } 2 | H 9 H H H } ..J | } J 8 9 9 8 D } 9 9 } 2 S 2 2 2 2 $ D H X.n.X.H X...| | 2 8 o 2 8 8 8 1 1 P $.[ $.=.p.O.4.` ! j G *.O.=.T +.4.k N O.$.",
"8.$.=.P Y f.^ =.0.` I j 4.^ O.O.u.^ *.$.c 8 8 S J } 2 1 8 9 9 2 8 H J } ..n.} J J J H J 9 @ 1 2 2 2 2 9 D H } } | b.| J D H } } n.n.X.| ..n.| H 8 2 S J 8 H 1 S 8 H 1 1 1 1 | D } D M.J } H 9 } J $   S 8 8 S S 2 8 1 P $.O.+.=.f.*.>.O.M q ~ E *.+.%.f.q L O.=.",
"e.=.O.O.j 0.M 4.*.[ e _ n O.^ q.~ +.+.c 1 9 9 9 8 J 8 S H } S 9 9 9 X.J ..D D 1 D 9 D } S $ 2 8 9 9 8 8 D J S ..b.9 H ..| | ..X...b.b.X.m.X.| J 1 9 1 2 9 8 8 D H S $ @ S S D H H X.J 2 J H 8 D 2 X 8 S D S 8 9 2 S 2 @ P $.+.+.+.4.+.i.Y e 4.^ $.L $.$.r Y P *.",
"q.9.#.L q #.%.=.u.+.d r O.^ 0.O.+.4.M 2 S 9 S 9 H } S S ..J D 8 } H D D S 1 2 D D D 9 2 D 8 2 2 9 S 9 S } } S 9 8 } 8 ..S | P.L.U.b.b.M...J D D $ o 9 S S 2 2 2 2 8 H 9 S S S ..S 1 H D H S 9 9 1 8 8 9 H H J $ D H @ @ 1 L O.^ *.+.p.^ { e [ +.O.` O.i.! ! *.+.",
"4.*.f.$.i $.P [ O.P > j M 9.~ +.+.K 8 o 8 2 D S H J S ..b.H H S H H H 8 $ $ D H 2 8 2 D 9 D 1 S D D D J b.b.9 J H S } ..n.m.P.| 8 } | 2 9   @ @ $ H H H H 8 S 9 S S 2 2 2 8 S $ S S 8 9 8 8 2 8 8 9 D D D H | } H D @ D 8 9 L @.^ $.$.4.L G 4.R Y c O.t.n ! $.+.",
"0.8.O.,.P i.T 0.8.=.q e w.~ %.$.I 1 S 8 1 H S H | | X...| S S 9 D | S 8 @ D 1 9 2 H H S 9 2 9 | ..H J X.M.| } b.D 9 8 S n.R...S S 9 $ S 1 8 D S S 2 S 9 D S ..} | 2 S S S 9 2 S 8 8 D } J J S 9 9 S S b.X.H } H J $ . H 1 1 1 P $.O.*.8.#.e ^ *.$.>.+.f.+.$.[ 0.",
",.*.=.+.i =.^ +.0.~ q I ~ *.$.I 8 H | S 8 } J ..J J J | H D 9 9 9 D 9 } ..J H } } H | 9 S 9 H ..D } } m.| b.....H D S S H | D J D 9 S 9 9 9 9 8 D D D P.Y.m.b.} } S 8 | D D S S ..| J } D S 2 D S S | ..| S | | } J } 2 1 $ S 2 N *.O.=.T G +.E ! %.+.,.i ~ R ^ ",
"i.%.O.+.R 0.O.O.*.! l x *.+.K ..| b.n.D 8 S | m.n.L.b...} S 9 1 9 9 } } | 1 } X.n.J S $ 1 J J J } | ....X.} S X.} J 2 8 X.8 D 9 9 9 9 S 8 S H S D X.b.M.L.L.| } J J 2 $ D J H M.b.} | H S 8 S 9 8 8 H J J D X.| } H D H D } } 1 1 P O.O.! L +.N [ c $.,.r T $.*.",
"t.0.` =.x *.~ [ *.~ 6 ~ O.M | b.....| 9 S } S D | M.} H S 1 2 9 9 S D D J ..X.X.8 D D D S 9 S J H J H J n.H | n.X.} ..H D 8 D S 2 2 H J D H ..b.| L.L.P.L.b.} J H 9 2 2 1 $ n.J n.M.| | H H S 8 @ 8 H } H J H H 2 1 $ D S X...8 D D L $.^ L %.^ ~ ` O.c.c +.M O.",
"*.g.8.=.j { O.$.=.^ j +.M J } } X.} } D S 2 8 D | X.J H D S 9 D 8 D | D H S D $ S 8 2 2 8 8 9 H S D H } J S H S X.D 1 9 2 2 9 S 2 H J ..D m.....X.| L.b.n.b.| J H D 9 D 2 H D 2 9 H H b.J J D 9 8 J | X.9 | 9 8 8 1 1 D H | } n.J S S P $.I O.^ +.4.*.i.W +.^ ` ",
"i.e.%.8.M Y ^ [ [ ^ ! c $ 8 n.m.X.} J J S 1 8 D H b.8 J D 9 8 9 8 S S 9 D 9 8 9 2 8 2 2 2 9 9 D D 8 D } H H J X.Y.8 8 $ 8 } H D 1 J } 2 D J | } J } n.J m.J X...} S S 2 1 | J 8 S H 8 D D } J D 2 9 } S 9 9 8 2 D 2 8 8 S D ..| ..J H S P ! R A ~ +.+.%.x +.P Y ",
",.e.8.q.i ` ~ 9.0.O.l o 2 2 9 S D } } J 9 D J H J X.2 J S H 8 H } S 9 8 8 8 8 9 9 9 8 8 8 8 2 8 1 S H D } n.n.} 9 2 . 1 X.S S D 8 9 S H H H H ..J H b.| J | b.S D 9 D 1 b.H D S ..9 8 S 8 9 } ..8 J S D 8 H 9 S S D 9 8 S S D X.X.J ..H 8 ! +.E Y O.! *.L +.M $.",
"8.#.+.%.n c $.^ [ R o . 1 1 8 D S J D S 9 S 9 S D H 9 9 9 J 8 J H 9 8 2 S H S J 9 S 9 H 8 9 8 1 2 2 S H n.} 1 X   1 1 | } S H D S 9 2 2 D H } S 9 J | } J H D D H D 9 S b...J J } S S J H | H m.} H H H X.9 8 D } H D 9 9 9 9 9 n.L.m...S @ / ^ ^ ! O.8.k P ^ ` ",
"%.` K #.t L ^ O.e.~ @   $ 2 2 9 9 8 9 S H H } H J H J D S S S 2 1 1 1 X.} J 2 X.J 9 H D H H S 9 1 2 S b.S 1 9 8 n.M.L.L.n.H H D S 8 8 9 9 8 S S S J H D 9 S D S D 2 } D X.| J ..D H J H } | } 1 S | H } 9 H ..H 9 D H 9 8 9 2 8 8 9 D 8 $ o O.+.O.T ,.0.B n 9.$.",
"$.w.f.f.i _ O.O.+.! @ $ @ $ 2 2 1 1 D H J } } | } | J 9 J D | J 2 ..| } | } } } S H } J } H H S S 1 8 } 9 2 } ..X.n.n.b.b.m.} D H 2 9 D S 8 8 9 S S 9 9 S J H 9 J S } D M.J ..n...X.| J M...9 9 D n...X.J H | J m.X.} ..J S 2 2 8 9 S D 1 @ O.~ O.Y P ^ k T P O.",
"%.:.i.q.q M ` ~ ` Y @ $ o @ 1 1 9 H J J ..X...J H ..X.n...b.L.} 8 9 | ..b.H X.m.L.X.n.m.} m.H J J X.J } $ @ S ..} } n...X.M.} J S 9 S H H H D D S 9 8 8 8 8 9 9 H S J J n...n.b.b.n...n.n.9 9 S D } J b.X.b.X.T.n.} X.X.} | 2 1 9 9 S D 1 X >.>.$.~ ! 0.n ~ ^ O.",
"#.0.[ i.l c $.O.8.^ @ 2 S o @ H H J | ..m.m.b...n.X.X.M.H L...J 8 H | b.n.M.| b.n.m.b.m.H U.b.| m.| D 9 2 $ $ H H } b.| ..b.H D S S 9 S J } H H H S } H D H 2 8 J H J | b.U.n.m.n.M.L.n.H 9 9 D H b.X.b.X.H U...n.m.M.} | J 9 1 1 2 H 9 $ X %.^ O.P $.$.O.~ M e.",
"$.*.k.8.~ ~ i.$.+.^ $ 2 9 2 D D H } X.R.X.b.n.b.} b.b.b.m.n.J } m...J } } ..M.M.M.m.U...b.X.2 | H 9 H S 9 2 1 1 H | b.| | | } S D D 8 D H | J } D } D D H | H } J D ..M.J m.L.J X...J ..b.2 9 9 J J | | ..| L.n.U.X.L...b.X.| 1 2 9 2 2 o . +.[ *.P $.! P z %.+.",
"#.8.4.#.d ~ [ ^ O.^ o $ $ @ @ D ..} ..P.n.X.m.X...m.M...| M.P.S 2 2 9 9 | } S S ..} X.H J S D J S S J D 2 1 1 2 8 H J H J | J D H 8 8 D H n...X.| ..X.b.S | ..J 9 D H | J L.H } J J H ..} J H X.D J | | J } } | J b.U.X.| } } | 1 $ H @ .   +.+.O.#.L ,.k c z ` ",
"z [ #.8.k P O.P O.! X @ 2 9 @ D 9 S X.J | X.n.......} J } H } 1 9 @ 8 9 J S D H | D } D H 9 9 H D H S H D 2 8 S 9 D H D H D J D 9 8 S D H J } } b.b.} } | L.n.J H | } X.L.9 } H H J H S 9 2 8 9 8 } D S D J } D ..H 2 H ....X.| o @ S 2 @ $ ^ ^ $.t $.k P ^ O.+.",
"O._ ` >.L M f.4.+.R o 1 9 2 $ 2 H 9 H J n.H | H } } } J J 9 2 S 9 H D 9 D S D D n.H H J 9 2 9 8 H H X.S S 8 D D H D 9 8 S S D D S S S D J J H H D H } J n.X.X.b.9 S 9 D 9 D S D S S 8 9 D S 9 D S S 9 H H D J H D 2 D H H b.b.b.X.o 2 J 9 o ,.O.O.W +.c c [ N ! ",
",.*.f.i.U N >.#.9.+.@ 2 9 8 8 9 8 D D S D 9 b.J D H D D D 9 S 9 S m.H P.H D 9 S D D S H 2 2 2 H ......S 9 } } H ..H D 2 8 9 9 S S S S H D H S D H S J } b.} | } 2 9 8 D 2 D 9 8 8 8 8 8 2 X.n.L.9 8 D J 8 9 S 2 9 9 9 H H D n.b.m.} | ..2 @ ,.^ 8.` O.~ j T / @.",
"` $.[ +.P B g.*.4.^ 8 J m.Y.S S S 1 8 J H } ..D D 9 S 9 S S D S ..P.M.X.n.b.@ 2 S S 9 9 9 1 1 D X.M...1 } } | X...| } H 2 2 2 8 S 9 D D S S S S 8 D D } D S 9 9 H 8 9 S 2 9 8 2 1 H H X.X.| ..n.| X.J H 9 D 8 8 8 8 J } 8 2 8 9 9 1 $ @ 9 1 O.^ #.P $.T j W ! Y ",
"O.f.i.v.c t t.e.+.! 2 H b.M.n.H 9 8 D } S | H 9 9 9 2 S S J X.b.m.} J ..J $ @ $ H 8 9 9 9 2 ..J n.b.X.o } ..b.X.| ......} $ 1 1 D S 9 9 H 9 D S H H S D S S D D S D 9 8 9 9 8 1 } J } } | } | ..b.X.X.n.} H S 2 1 1 9 9 9 9 S S 8 8 1 2 8 1 *.^ 8.#.$.4.R n ^ ~ ",
"! q.*.=.[ N 4.[ ^ Y 2 D m...b.| D D } 8 8 } 8 2 8 2 S D J } ..J | D } J H 1 9 9 2 X.D H J @ ..J b.| } H D } J } ....X.| ..} @ $ 2 H J H D H D D S H | n.| | } H J J 2 2 9 1 } 1 1 H H H H H J H S J 8 ..} b.} | J S J H 9 9 D H 9 8 8 1 2 @ 4.%.=.~ O.O.Z +.#.*.",
"$.0.9.0.L i i.e.+.^ 1 S D | | X.} b.n...D D 9 1 H J H } ......} } H } D S D 9 9 1 D b.| D 9 S 8 D S D S $ J S 9 D H J b.X.X.X.o J } } H J ..D H D X.X.X.| J ..| | } } $ | 9 8 1 8 2 2 2 J S D S S ..8 S } D } J D 2 2 S H H H D S 9 S @ @ $ +.O.9.>.[ +.k t R ^ ",
"+.T ` 9.c x ,.[ / ^ $ H S ..S ..J J } } 1 S D 1 ..| ..b.| | } J H S J 2 9 1 9 9 8 | J D D 9 H S H 8 S 8 $ S 9 9 1 H H S D X.X.D | ....X.X...| } ..L.n.b.| S X.X.X...D 9 H 9 @ H 2 9 8 8 S 8 D S 9 S $ S | X.8 S 2 8 S 2 S | | 9 S 9 H 1 1 $ 4.^ ` [ =.$.Y W P $.",
"8.! P ` Y E %.=.*.~ $ 2 H H ..} J D J $ 1 9 8 8 S J J H J D D H J S D S D } D 9 D ..n.H H 9 S H H H D 2 S 9 S 9 9 9 8 2 8 9 2 H X.n.b.b.b.X.b.X.M.m.b.P.| m.L.b.n.D D S J $ S H D J S D H 9 S 9 8 8 8 D 9 H D } 8 9 S 9 S H D | H D J 8 1 @ $.4.9.^ L ! k P #.$.",
"O.+.0.8.d 5 t.*.~ ! @ 8 S D m.} S 8 1 2 8 8 D S 9 D H H D J S H 9 D J D H D J J X.M.} 9 J 9 D ..J X.D H D D H 9 S S S D H 8 J X.X.X.X.b.X.b.b.b.m.X.m.M...L.L.m.J D S 9 J } J X...J | | J D ..H D S 9 S S S 8 8 2 9 S D H J } J J H H 8 8 @ 0.[ $.k ~ [ Y c ^ O.",
",.9.! g.+.t >.$.O.^ @ $ 2 2 2 8 8 1 2 8 8 D J S D 9 S S S D S S 2 D D J J X...} X...m.X.D 9 H } m.n.H H D 8 } J J } J | J n.$ J J J | | ....X.....| n.X.L.L.P.L.| D S D } | n.X...H b.M.} } J 1 H H J } } 2 1 2 S 9 H D D J M.} ..} H S 8 @ O.$.[ _ =.i.4.P x c ",
"O.T #.0.R q ,.%.+.R @ $ 9 D 8 8 2 1 9 9 9 | J J D D S S 8 2 1 2 S } J ..| b.| J m.| S M.J D 9 X.} ..H ..H J H n.| m...M.H | $ 1 2 J H J } | } } } J | D m.n.n.n.b.b.J 1 J | } J 9 ..X.} H } ..n.n.| | b.} J } H J H } H | n.b...b.J X.S 2 o $.[ t.I *.$.^ P [ ^ ",
"#.t.p.u.L e { %.~ ~ @ 1 8 1 8 @ 8 8 S S D } m.} } J D 8 2 1 1 H 9 } J ..H H | } ..H ..S H D m.D m.n.} 9 8 n.J m.M.M.8 H 9 1 8 9 8 2 2 H H H H J H H } | L.X.X.| | ..D m.2 2 8 | J J J 8 J J b.| ..n.U.X.....D 9 H X.J D X.m.M.M.X.J H S 2 @ *.9.e.[ $.8.` %.O.M ",
"#.q.9.e.[ t p.f.d.^ $ $ 1 8 $ 9 9 S 9 } ....J } D J | 8 $ $ J S D ..D J H J H J S S } 2 8 | H $   9 9 J L.} n.R.W.H 1 9 2 2 8 D S 9 S S S S H D S D H } } } } H J J S X.n.S 9 8 8 8 H 9 D 9 J D 8 n.m.n.X.X.8 H H 9 J X.M.M.m.P.| b.J J 1 o 8.O.[ P +.+.^ ^ Y $.",
"[ O._ u.O.t t.8.^ ! @ @ 2 2 S 2 8 9 D ....b.m.X.| D H H H o J J } 8 8 D 8 S D 9 9 D 9 S M.}   | n.X.M...S S Y.m.| 8 1 2 8 9 S H S 8 D S S 9 9 9 S S S S D | J 2 2 9 9 . b.b.n.D D D S S H 9 } S 2 S H D m.b.D } H 9 S X...n.X...} | ..S 2 @ *.+.0.L P 4.^ M [ +.",
"$.=.=.8.P n 4.O.+.^ @ 8 9 J 2 2 8 9 D ..} | X.X.} } X.| H 2 } 8 2 9 8 8 S S S X.b.n.| | U.J 8 J J D 8 9 H S b...H 8 9 H 2 9 S J D H ..H J D H 2 8 8 D 9 S D S 9 D S H @ o | | X.n.H H H H J X.H 1 2 S 8 9 8 D H J H J | ..} ..| | S 2 9 2 @ ,.^ *.%.! 9.P k [ ^ ",
"$.e.4.=.d t z.=.*.O.@ 1 | } 2 2 S S D } } } X.n.S J J J D 9 2 2 D J S J } } b.X.m.} | L.} ..} D S } H S S S D D 9 8 D | 9 D D | } H X.} J J } J H 1 9 9 9 8 H J S S 8 S 1 @ ....X.X.H D J H H H D D J J 1 1 H D H J } J ..H J 9 D 2 S S $ X =.*.u.c Y @.R K R ! ",
"K _ 4.9.h n 9.` ^ M X $ 9 1 8 8 9 S ....} | X.m.2 D H 9 J 1 J } D H D D D J X.| X.S | } X.| 2 8 8 D 9 8 S H H 9 9 X 8 8 8 J J | | b.} | } | | J } H 2 D H J J J S D 2 H 1 @ S } J J | | | } J } ..b.M.X.} X.D J } X.S J } D S S 1 1 9 2 1 . $.8.=.,.~ $.^ ! R #.",
"$.q.O.0.n t 4.! O./ o $ 1 2 8 S 8 D S H J 9 } H 9 D D 2 2 1 $ 9 S D H J D S ..9 9 H H H J S 2 D 9 S 9 D 9 S 8 9 8 8 8 S ..} | | X.R.Y...| } J D 9 8 9 9 J J X.H H D 9 H 2 2 2 J D ..1 9 } | ..} X.H X.| X.$ 1 9 D } H H D 9 8 9 8 8 8 8 1 . 4.+.0.~ =.0.R ^ R ^ ",
"O.*.8.g.! d g.^ ^ M 1 @ $ 1 2 8 S D ..D D S J 9 9 9 1 8 2 2 1 8 9 2 S S 2 S X.9 S H J D 8 S S D } | D H } D S 8 2 1 8 H ..P.L.M.R.P.n.M.m.| X.H | S S 9 D } J D D S 1 D 9 S 9 8 H 8 1 8 D H J ..} S 2 S $ @ @ 2 2 H S S D 8 9 8 8 2 J S 1 o ^ ^ [ N +.+.N k c O.",
"[ ` ,.4.W 4.9.O.$.+.$ 1 8 1 1 S D H 9 9 8 8 2 8 8 9 D S S 8 2 1 S 8 S S 8 H J D D D D S D 9 8 D L.| D H S } H S D 9 S D ..X.X.| | X...X.| ..D D 9 S S J X.} J H S 9 1 9 J D S 9 8 9 S 8 9 S 9 S 8 S S 8 2 1 8 D S D 9 2 2 9 2 1 $ | ..9 $ o $.+.=.z c +.N q c ` ",
"[ t.0.t.t N ! $.8.^ ! 1 D S H S D S 8 8 1 8 8 D S } H H S 9 8 2 H D } 9 9 } } H H J H H 8 D S X.M.n.8 n.| H 9 m.H 9 S S } b.b.} S | | | X.} D 9 D D D | H } J H S S H S | D S 8 D 8 8 8 S 9 S D 9 9 2 8 2 9 9 9 b.H } 2 8 9 2 $ $ | 9 9 @ l $.+.+.c ! 4.j x O.[ ",
",.k.=.f.j %.=.^ ,.^ ! P 9 o 8 S 8 9 1 1 S D D ..J H H D D D 8 8 2 J H D ..D n.} } | J } S } b.X.R.H 9 b...| b.n.J 9 D S 8 } J } } J H J J 9 H 8 S | ..H n.| } H D S S 8 S S H } D S 2 8 8 8 9 9 2 9 8 9 9 S D H } | } S ..8 @ X | S D 8 c ! %.+.=.! $.+.c ^ O.*.",
"+.=.#.9.i +.*.+.O.M I $.P 2 8 8 8 9 $ J } 9 } D H } ....J H D 9 8 8 J | | m.P.| X...b.9 D n.| X.b...D ..} ..U.X.@ 9 J 8 $ b.D H H D D S S D 8 2 J D D } } | D H D S 8 9 S H } } J J 9 1 1 9 9 8 9 9 S S S J H J | M.} } M.| . | | S S M +.j ^ ^ T O.*.+.n O.O.=.",
"i.k.+.0.q O.` ! $.^ L ^ $.L $ 2 9 $ $ $ | J H } | } J J } H H D 9 8 J m.U...X.X.L.m.U.S | ..| J | ..S D | | 9 1 H } X.@ H D S H 8 8 8 S S D D 9 2 2 9 D J X.} H D D 9 S H | b.| J | J D $ 2 D S D 9 J X.M.n.L.Y.Y.T.J n.b...8 S | 2 M O.~ 6 ,.! O.*.@.t.! Y P >.",
"*.#.O.p.p ,.P ^ [ ~ L ! O.O.P 2 9 H 1 2 $ 8 | ..H J | ..J J H H 8 S 1 m.M.m.L.L.P...| S D H S J J 8 8 2 D H H H H X.2 $ D 8 8 8 H D } } H H S 9 2 1 9 } J D } J D S S D S H S | X.n.H D 1 $ H H J J n.M.} ..P.n.U.L.} M.b.| X X 1 K +.*.x l +.$.+.R ` +.n O.#.+.",
"t.4.0.t.j ! ` #.9.~ G T =.O.*.N 1 2 1 8 2 S J H H } J } H | } J H 9 $ 9 S H D S } J 2 } S 9 S D S 1 2 9 9 9 D D D 9 1 8 1 J J } J D H   H b.H D S 2 S 9 9 D J H H S S D H H } H S D 9 S 8 2 S D H H } J H M.b.M.P.L.J } } @ o o I $.*.~ I q +.+.8.Y [ *.P +.` [ ",
"0.q.+.%.q t.l ~ $.! e #.8.*.O.$.P 9 8 2 2 2 S S D D H H J } X.} D 9 H 9 D H H } m.9 8 2 2 D J D D S S 8 9 8 1 8 9 @ 8 S | | X.| ..} ..H | X.8 1 1 $ D 9 9 S D J H H S S D H S S D 9 S H 9 2 1 D D H } D b.b.X.n.U.X.| H J @ o I $.%.^ w.e q $.^ ! T $.i.c N P R ",
"$.t.,.[ B i.%.*.8.O.G L 4.$.$.^ $.L S @ 8 9 8 9 S S S D H } b.} S 2 9 S S X.m.m.H 9 8 @ 8 } H J H H H J D S 8 9 $ 1 8 H | m.m.m.m.L...} X.X.1 S H H H 2 8 8 1 H S S 9 D D 9 9 9 9 9 J D 9 S 9 8 S D S D } H ..L.| } 2 J @ @ K +.+.~ 9.M j > 0.+.*.T =.$.z 9.! ` ",
">.i.O.#.B e.^ ^ +.! e { ^ p.+.*.^ O.P 8 D S 2 9 2 8 9 9 9 D S S 8 2 2 8 } L.b.J H S S 9 J } H H 1 | } } D D } } } } | H b.n.b.b.M.m.m.b.X.9 } | J J J J 1 2 2 J } D 9 D D 2 2 8 J H D J D D S 9 8 9 9 D J H } | H H 9 $ @ M 4.+.O.0.^ O.r d u.+.=.[ ^ C.c ^ P O.",
"k.9.T $.L =.+.,.t.~ e Y i.+.4.+.+.+.$.P 8 9 2 8 2 8 8 8 9 S S 8 $ 1 8 D J P.X.} H D D 9 9 S H S H J ....} J } ..J } | b.J ....b.b.b...m.m.} ..X.} H } J J $ 1 2 H D D D 8 2 X.| H } } | J J H J } 8 8 9 D S J H H 9 8 $ c +.+.~ q.^ O.n _ e t.,.O.$.` 9.! u.P c ",
"#.4.^ Y q g.O.~ O.R e M O.>.*.f.=.+.O.$.P 1 9 8 1 2 8 8 2 D D 1 1 9 S J n.L.R.M.X...D | H 9 D S D ..b.X.X...| } ..J $ $ } } } } | } ..n.} 1 J J } | X.| J } @ $ D S 9 S $ } X.} | ..b.| J H J J D $ 8 9 S S S D 8 2 1 c $.*.^ u.O.O.^ 4.j K *.! ` ! ^ *.c p.j ,.",
"p.q.^ $.T #.~ 4.e.R G j ! ` 4.O.p.=.$.[ $.P 8 H H 2 1 2 S 9 8 9 8 D S | T.| R.m...9 J H H D 9 S } 8 L.m.n.m.X.H H $ 1 1 1 1 D D H S | | D D H J H S H ..| J X o 8 9 9 @ | n.b.X.} J | | H J H S 9 8 9 } H D D H 9 2 c +.+.N e.~ +.^ q.~ [ 5 k.^ +.{ O.` t 4.8.L ",
"e.c z N k p.^ O.+.! d ` P ~ ^ *.+.t.=.$.O.$.P S D X 2 9 2 2 S S 1 1 | X.m.J T.H X.J ..} } H 8 9 S D X.L.P.M.D S 1 8 8 8 2 9 8 2 J S H H 9 H | 9 J D S D D 8 m.. X S S X...M...D H H } H H D S D S S D X.S J H 8 8 c O.O.^ e.R P W *.Y $.k 6 +.+.` 8.+.,.~ k.L Y ",
"#.*.` Y ! *.! *.f.+.e Y ,.N ~ ` q.*.e.=.=.O.O.P 8 @ 2 2 8 1 J } D D S 2 } M.} | ..} D D S | 1 1 8 9 S D U.H S D 8 S 9 S S S 1 2 2 8 9 9 H H D 9 } 2 D H S 2 S 8 X.$ X.X.b.S 2 H D D D D H D 9 D D } J J D H S 2 k [ O.^ 9.^ ~ ^ %.O.^ c c 4 =.O.^ f.^ O.+.[ O.[ ",
"8.$.#.O.R t.z [ 8.~ q K =.4./ +.8.8.! e.$.+.O.+.N $ $ 8 2 2 H X.} 9 8 H 9 | D H H 9 m.P.R.8 8 1 $ 9 9 D o 2 8 8 9 S 9 9 D S 8 9 S 8 9 S 1 8 9 8 8 2 9 1 2 H } J H H 9 D S S 9 S S S S S S S S D D J H D S 8 1 k +.O.^ 4.^ O.^ $.$.+.~ ! c 6 $.^ R =.^ ^ P =.w.0.",
"%.*.c ~ k i.O.O.$.P j j P [ %.~ ^ +.4.O.q.$.+.^ $.M o 8 8 D J | J 8 2 J S D S S D S S S 2 2 H 1 $ 2 9 9 o 2 S S D H H H H J H } } 2 S H 9 9 S S } 9 | J X...} H S 9 S 2 2 9 8 S 8 H S H H D S 9 S S S 9 8 1 j O.^ O.0.R +.P $.$.O.[ ! R x 4 ! ~ ^ f.N ^ k P *.$.",
"+.T ^ T z k.P $.k.O.e L ^ %.8.=.^ R $.4.+.t.+.$.O.,.P 8 S 8 S 9 H } | J J X.H D 9 8 1 1 J H | $ @ 8 9 2 @ H H } J J } P.| } | J J S 9 9 D D S D D D } J | M.n.M.b.R.m.$ 2 D S D 9 } H } D S H D D 9 2 2 1 j $.~ +.0.~ ! ~ ! 4.[ [ O.O.^ Y > +./ L e.d ^ j $.8.$.",
"$.*.4.O.M ,.P =.*.` q L =.^ O.=.#.~ ~ =.q.~ 0.#.+.^ O.N 1 $ 1 2 J S } | } J } H } 2 o 2 S | ..m.o 1 1 1 9 J ..J } P.L.L.L.X.} } H D J 9 8 S ..n.} ..| L.M.m.X.9 X.M.X.P.J J X.H ....} | J H } H D D 8 $ t O.W O.0.! ^ ! O.^ ^ ^ O.^ ^ +.N t / ~ W z.$.P T O.+.>.",
"K ~ ^ ^ t 8.P $.=.[ @ P ^ =.+.+.=.=.^ ~ +.,.$.g.8.4.$.=.P 1 8 J H b.m.b.| b.X.| | J 1 1 1 8 M.... @ 1 S @ b...X.M.L.n.P.m.U...H H D 9 D H H J b...m.L.m.M.b.H | R.| . o 2 | | D | b...| | } X.J H 9 2 t $.O.O.8.[ O.O.+.*.+.$.O.[ O.O.W ~   O.^ A q.R ! c $.4.j ",
"8.4.+.*.~ t.e g.8.[ $ $ ^ ^ +.O.+.$.%.O.O.#.,.+.t.4.*./ +.N 1 9 D } } | M.L.....X.| } | $ $ n.| ..o ..  b.U.b.m.m.n.M.m.n.M.b.} D S S S S 1 H ..} ....X.X.} } ....@ $ @ 8 | 8 } | J 9 } } H H D 8 8 j $.~ [ $.^ ^ ^ +.O.O.$.O.O.O.O.Q O.. . [ u.Q k.O.M #.+.%.z.",
"! 4.@.c W 0.t +.%.~ 1 $ 8 ^ O.O.^ *.0.8.Y P %.t.%.t.=.$.$.$.N 1 8 J J } M.M.b.n.X.J X.J H o @ n.Y.M.S H b.m.X.X.b...X...b...| J D 8 8 9 J 8 J | D J H b.} H | 1 $ 2 1 2 $ 2 8 H D 8 9 D S S 9 2 2 k +.R *.4.O./ Y ` ^ +.*.^ O.O.+.E ^ @ X   ~ +.R t.4.+.T =.0.O.",
"~ O.+.P ^ =.4.k.i.8.@ 1 9 8 O.+.$.^ O.*.>.M R O.*.$.9.4.=.^ $.N 1 8 H J } b.| X.M...b.X.U.X.1 H X.} 9 ..M.X...| } H | D ..} J | | S 9 D H H | J H H H H S H 2 2 2 8 8 P...$ 8 8 2 2 8 8 S 2 1 1 j ^ R 0.%.L ! W O.$.$.^ ^ O.^ O.W O.  1 @ o ^ +.W k.[ P k ~ #.p.",
"~ +.^ M x t.^ >.t.#.@ 1 9 S 8 ^ O.$.~ ` 0.e.R ~ =.8.*.4.=.8.+.*.P 8 H J | | b.| ..D H H $ 2 1 2 2 1 2 m.} D J J S H ..J | } | H H H 9 J S J } } D } D S D 8 8 9 9 L.L.m.| | 1 8 9 9 9 9 8 8 2 j [ ^ t.%.+.O.R +.$.=.$.^ +.^ ^ ~ ^ . 1 2 X 1 +.=.c q.^ O.P T P O.",
"M ! 4.%.W $.~ g.i.,.@ 1 9 9 1 X O.O.@.[ O.=.,.! Y ~ t.*.0.8.9.O.$.N 2 J H H H J J } D 2 8 8 @ . $ $ 1 } } S } 2 D ..J 8 H 8 H S S S 8 D D } H D 9 D 1 S 9 S S D M.n.n.J b.b.S D S S 9 S 9 8 t ^ ~ 0.*.R R M *.*.e.` ! O.~ ^ ^ ^ @ 9 D 9 2 @ ^ g.Y #.~ P j +.%.q.",
"4.Y ` ~ x +.M k.8.` o $ 8 8 8 1 $ Q O.$.+.^ =.9.O.O.O.e.=.8.4.4.@.4.P 8 9 D J H D 8 9 9 8 D J X.b.@ @ 1 J 9 8 2 9 S 8 2 H S D 9 S D S S S S S 9 8 8 9 8 1 ..} P.n.b...J | ..J J b.M...X.8 x O.! 8.^ ^ O.N $.,.0.+.O.+.^ O.^ ^ 8 9 H J } D $ E 0.^ #.! L j =.t.e.",
"^ ^ +.c i =.T 4.#.e.$ 1 S D S 9 8 2 Q Q @.O./ =.%.! P +.e.O.8.8.4.` $.Y 8 S 2 8 2 8 S S } J } n.$ $ 1 9 J 1 8 2 2 H D D H D J J J H J J D 8 8 8 8 D S D b.b.M...| ..| D | o $ S P.| H D k ^ ~ =.+.^ ^ M +.$.e.! [ ^ W / Q O.2 8 J | b.n.S @ %.k.R p.+.R n 4.%.=.",
"^ +.#.` c 4.j e.%.O.@ 2 H } J H S 9 $ E Q *.$.O.0.q.^ W Y 0.O.0.i.0.+.$.! 1 9 S D H } ..H X...| $ 1 1 2 8 @ @ D D D H H J | D S } } J J H D 2 J H D ........b.} } | J $ 2 $ 2 S J J D j ^ ^ =.%.O.R n #.+.e.W +.%.W O.^ ^ 2 J J b.M.M...$ @ O.[ k 4.` +.n k.i.=.",
"! +.i.^ B q.~ =.i.+.$ S H | | H D 8 1 2 ^ ^ *.,.+.+.=.O.Y L 8.+.4.g.t.O.+.P 8 S D D D X...X.} 9 2 $ $ $ 1 2 @ H } } ..| } H ..b.| | D | } H } | | H X.} ..} J J D 8 1 8 8 8 9 2 8 8 j W R =.O.R ^ W *.$.e.R ~ ^ W ^ Q Q H } | ..P.n.U.b.$ o #.i.^ [ $.4.B ^ [ $.",
"^ [ 4.*.k t.P t.t.~ $ 9 | D M.J S 9 8 8 8 Q / +.+.~ +.O.$.P ! *.=.#.q.w.=.+.Y 8 9 D H D 1 S 9 X @ @ 2 8 8 2 2 1 D ..X.| | b.T.} ......X.b.D 8 } | J | H H J H D 2 8 H 9 8 9 9 2 1 k ^ ^ 4.O.Y R B *.,.e.Q O.~ E ^ Q ^ H } X.m.L.Y.m.U.8 @ X O.*.O.T e.8.n Y 0.U ",
"O.T x.4.E 9.+.+.$.$.$ S ..n.} D 9 S 9 } D 8 E W +.+.+.p.` *.n N $.! 8.8.8.=.$.P S @ 8 1 2 D @ 1 2 8 8 J S 8 2 8 D D H ..n.E.| | n.L.M.J D S D H D J D J 9 S D S 9 S } 9 S 9 9 2 k R ! =.P ^ O.Q #.+.=.B ^ ~ R ^ Q ^ @ 1 X.M.L.U.P.Y.E.8 @ . ^ +.R ! 4.k.c ! $.=.",
"~ k O.f.R O.~ =.k.O.1 D | } S J D 9 9 | J H 8 ^ ^ $.8.O.8.$.t.R P 4.@.0.%.4.+.+.T 1 9 9 9 9 S 2 8 9 } ..H D 9 9 9 D D H m.X.n.M.L.L.J 8 D 9 S S 8 H S 9 9 S 9 S H D J H | H S k E O.%.^ +.^ n %.=.4.W O.~ A ^ Q ^ @ 2 1 2 P.Y.T.R.T.W.2 @ . O.! ` N p.+.O.^ ` 8.",
"k.I *.i.N +.M w.p.+.$ 8 J ..H J 8 9 S } J J S 9 E W O.+.O.%.+.$.n P $.! *.[ =.%.+.T 2 9 S D 2 9 S } H D } 9 9 8 9 9 S S H M.R.P.T.U.J D H H S S D 9 S 2 J H S H H ..| H H 9 k R [ ^ Q O.^ Y *.$.9.Y +.[ E O.Q ^ 1 1 $ 9 1 2 8 E.E.E.8 8 @ . O.f.B.B e.*.t L =.t.",
"*.R R O.P c ^ O.#.! @ 1 9 9 8 1 8 1 2 8 9 8 2 2 1 ^ ~ [ ~ c [ L _ r j L P ` T ! 4.*.Y 1 8 1 8 S 2 9 8 S D S 9 D 9 2 1 2 8 8 X.....8 1 9 8 2 1 @ $ 9 2 $ 1 2 8 8 2 2 2 2 1 k W +.O.j z P k ` ! P x L j t ! n R $ $ 2 S 9 2 @ @ @ $ m.1 @ X X W Y %.` +.O.L j _ 4.",
"T q c c j U j M P j   X @ o o X X o @ o @ @ o X X . d 6 t 7 4 s 3 d - > 7 e j d k l K k X . @ @ $ @ $ 1 1 2 $ @ @ @ . o @ @ $ @ o $ $ o O X @ @ @ @ @ @ O o X X o o o o t h [ j 4 5 4 4 s s e > 6 > > r > t X X X $ @ @ @ $ 2 @ X X @ o X . K k G 5 U T c 5 ( L ",
"4 = 6 5 = > * > 6 -       . .           .   .               . . X . X                     . . . . . o X o o o o . .   . . . . . . X @ .     . . . X .       .           X o           . .                       . o X o o o X X     o .     , > e % 4 5 > > 3 e ",
"*.v.S.H.S.,.P Q g.+.^ +.4.*.e.u.O.*.%.u.*.+.+.E B N N L M L M j x M c P ! ~ O.B O.4.l.e.c.S.S.,.O.~ R ~ O.! Q ^ ! c R c j Y ! P N Y ^ N E ,.^ P O.~ ^ O.O.+.^ R Y +.^ Q E E ~ +.*.c.f.d.f.l.H.f.f.e.$.$.$.O.R ~ O.R %.P P R Q ,.w.w.c.z.~ K M k i N x P x c ! ` ",
"Q L 4 T ~ g.z.B.k.q.>.t.t.0.q.#.%.q.t.4.p.4.4.k.C.v.k.B.C.K.k.J.c.B.B.C.u.i.g.w.*.$.+.$.O.O.9.g.>.A R x N ~ 4.x.k.l.C.O.*.w.w.k.i.f.i.i.[ P R ! P P E k n R A Q Q Z A R Q N W *.Q Y ^ O.~ Y Y O.^ #./ ! ~ +.Q E W ! P +.9.O.%.! ,.f.O.Y ,.*.4.w.i.B.H.c.c.u.#.#.",
"` ` ,.~ A k 5 - i B x 0 q N B B N Q N p r R t 6 k j c j c Y ! k j z c c h z ; h j N j k R k h e K { x.B.B.^ ^ P R ~ k c Y ! R Y R Q +.P u.c.C.u.O.` ! ! ` [ ~ ` +.=.$.! Y ! R P z M R Y P ~ ~ N Y c P ^ o.P R ! T #.e.` T [ ^ R R c ~ c [ P 2.*.+.+.$.O.e.+.k.e.",
"_ T ~ =.z.x.0.,.! +.=.` 9.O.t.9.9.O.[ 9.l.8.t.#.k.` t.v.k.k.C.u.H.c.K.( { f.S.C.0.k.x.H.p.J.H.c.4.w.d B n z N M K $.g.G.g.8.M j P M ! 6 6 n t 5 L g.S.S.j.:.I f.S.C.f C.S.k.B.#.u.8.9.` O.O.=.=.u.i.B.x.D.S.A.S.A.k.T e.O.k U F k.u.g.q.,.#.! d P j e N ! t j j ",
"k.( 6.l ~ L K G e %.{ ,.$.] l.%.k { 9.j d w.l *.h M h e M t > t e 0 t t r - t M ^ d t k ) l #.T q 5 h M P l #.H.H.G I T { w.I.k.#.8.L x M P ! P P 6 t > > > i j * = 5 q j k k N L T l d.w.F I _ I $.L i r t i t ~ ~ c q r 5 t q 0 t i B O.[ ! B.d.:.' w.$.u.l.S.",
"q t i 5 - k 5 t k j M M l K L c c ) O.d e > = ~ d n i n t ; N c e M e ; ! e N M k L e Y N j = e ` k.z.v.A.S.<.P E a < : : w N R f. .H.S.B.x.4.~ ! P Y x x j j h P z c N N P N ~ R ~ Y t ^ N d t Y ^ j P P M Y N M L ` [ q.H.z.g.k.v.O.O.Y M j Y t 6 d x j ! t k ",
"l.l.c.l.c.l.c.s.I l.B.F g.f.d.c.w.! { f.{ 2.O.v.k.B.x.g.6.S.( _ $.+.w.( ` ' d.4.l.I 4.4.>.g.a.( ,.P n <._ -.O.a u u a p < w p n B t q B j T c ' j.f.Z.' h.K.S.C.#.f.k.g.S.S.k.0.$.~ K c c q h ! M K ! >.i.+.C.S.:.K t t B > B 5 k i 5 r k 5 E q n { ) 1.<.T _ j.",
"Y Y j L c N ! z P c P c z ! Y M c L Y P ! j P M j P M j c j z L ! P z K ` T P c P j ~ L z 4 d c q W k > = q Y B m A O.a y w B O.P B R n +.q 5 q c Y 5 q n n n 5 i B j r d W _ x e G I B.N.( s ' B._ w.^ ^ t q j k ~ L _ 0.k.t.x.,.q.c.B.0.i.w.i.f.$.,.>.[ ,.%.~ ",
"^ 0.#.z k #.T B.c.k.+.G $.u.,.$.l.4.u.I ) 2.f.#.B.e.0.e.f.u.w.$.w.f.c.{ k { $.<.O.l.w.f.C.S.x.i.[ G ! P L ~ ~ ^ O.B P x L n [ ^ N L M ^ ! ! e ~ #.[ T I ~ ` =.P ` [ ~ L ~ M x M j R d M ! ; c c t t L O.! U 9.x.C.k.+.P ! ! ~ L +.+.~ P ^ Y c ^ P *.#.O.^ O.j P ",
"C.B.k.x.c.k.8.,.,.,.t.i.x.t.8.f.i.8.g.f.k.g.*.i.i.8.k.! =.t.e.k.B.i.e.` v.6.c.c.G.e.v.D.C.C.0.$.9.e.x.u.S.$.#.[ [ z R P e ^ O.O.8.k.c.0.8.u.f.g.e.S.B.C.B.v.g.x.C.x.#.t.#.s =.k.z.8.p.t.0.t.f.i.e.l M ~ T $.*.f.C.k.l -.g.T T 6.` ( ' ' c.j.9.l ,.{ c 4.l.g.<.k.",
"L s e L P P L P ! ~ ^ ^ t ^ +.O.[ ` ^ ! ^ P j j ^ d 5 k M L c P q t M Y P L q j Y T L d > 5 e M $.d.k.p.T O.P ` =.e.4._ $.i.I j #.0.9.g.k.F.I / Y ^ Y L P O.j q ; T j x +.^ l #.l c.S.4.%.[ 0.O.k.x.c.) w.4.^ q t 5 j 5 N 5 ; r ; q > N c j ^ L O.h M +.^ ^ M ~ ",
"+.#.4.q.9.e.i.k.g.t.i._ [ ` 8.f.8.Y i.0.>.p.+.d e ^ ^ ! t O.^ +.4.,.g.e.k.#.8.c.B.u.{ t.4.! c q ^ t > I 7.u.j { ~ M  .2.g.:.> #.g 6 s I l L h j ^ M P ! P d q M d ^ q R *.O.g.e 7 U R c <.g.+.<.k ! [ W Y c k c N O.t.=.^ *.O.4 ^ ! ! s _ c h ! O.+.,.,.w.u.$.0.",
"O.~ ! L P c P j O.~ ^ Y c ! ! z [ O.^ ! P ^ ^ L N P ~ L Y N ! ! L Y ! ! ` [ T c ! ` [ ! ! [ Y P ~ *.[ [ Y L M z c Y M P ! M M M P e x d M P %.,.i.4.+.%.q.` ,.! #.L ` $.0.*._ P R c 5 R x q c R L P ` 4.$.+.! Y ^ L L %.0.*.` ` [ 4.=.~ ~ O.$.j O.4.>.` ` ~ +.` ",
"+.^ P ^ ^ ! L ~ c ~ ! ` *.#.,.x.k.z.t.8.z.i.*.$.=.k.e.t.0.#.~ 0.~ +.O.P ~ *.q.,.#.,.e.z.9.x.i.%.g.9.f.e.>.e.e.z.g.[ t.v.p.{ ` #.#.4.=.O.=.f.$.#.$.t.~ O.%.f.%.g.4.[ ~ t.+.^ ! ^ P ^ ~ O.9.+.$.+.t.~ t.9.*.9.R 4.+.*.^ f.%.=.~ ^ $.+.9.~ ~ / R ~ Y O.O.! t._ 9.4.",
"` +.~ ` ` >.4.O.j $.O.~ ~ =.4.[ ` ` *.0.%.L L ^ Y ! +.$.4.` P L R c q x R 5 c R P ^ *.0.$.` L #.! ,.` q.%.+.4.i.,.%.P M d x e P M M M ! P M Y c k M L Y [ [ *.~ P Y [ ! ! [ ` ! c T [ ` ! ! Y L ! ! N Y L ~ P N L ^ ^ P ! ^ O.[ z ! ! c Y ^ ~ O.j P c P L ! ~ O."
};
