/* XPM */
static char *wall2[] = {
/* columns rows colors chars-per-pixel */
"128 128 57 1 ",
"  c #020202",
". c #070707",
"X c #090909",
"o c #0E0E0E",
"O c #101010",
"+ c gray9",
"@ c gray10",
"# c #1E1E1E",
"$ c gray13",
"% c gray15",
"& c #282828",
"* c #2D2D2D",
"= c gray19",
"- c gray21",
"; c gray22",
": c #3F3F3F",
"> c gray26",
", c #444444",
"< c #494949",
"1 c #4E4E4E",
"2 c gray32",
"3 c gray34",
"4 c #585858",
"5 c gray37",
"6 c #626262",
"7 c gray40",
"8 c gray42",
"9 c #6C6C6C",
"0 c #717171",
"q c gray46",
"w c gray47",
"e c #7C7C7C",
"r c #818181",
"t c #848484",
"y c gray54",
"u c #8E8E8E",
"i c gray57",
"p c gray59",
"a c gray60",
"s c gray61",
"d c gray63",
"f c gray65",
"g c #AAAAAA",
"h c #AEAEAE",
"j c #B2B2B2",
"k c gray71",
"l c #BBBBBB",
"z c gray75",
"x c #C1C1C1",
"c c #C5C5C5",
"v c #CBCBCB",
"b c gray80",
"n c gray82",
"m c gray84",
"M c #D8D8D8",
"N c gainsboro",
"B c #E7E7E7",
/* pixels */
"78ui+O+;222&*;,,>=3,<><=:#2141-:;:;::,>,,1<739433$*<67678q7973<:*,29662446>>156uwqrq>w8w#4>:X3125227:02:3<22>298pqy954543,*;uywt",
"0wf$$@$>:,=%>=**=43422<;,;>>>:><>>:-:,-;::;;-4-@2o2q900900q951<:;728u089q,,<2wtiye05qt25$#-$Ow8964r7r011436486342678642<,<><er9q",
"68$*o@*&>:#<&*%$e59624>,1=%-;1:2144852&=*;--3@$652799rereyr761<>52-9ere77>:8qq0eqt994266;&-;&-4624e454$17776&*421324>;;-*<5qq086",
"45-@-=:-<&&;$$@+608005<1613$>269777au344$%%,&*8p2<,#5784ud644,,;:,677356425366996t86533$&;:;:;=21r9yr+900,4-%>,:>,<:2><:30w8w766",
"<-4&,21qe2,&@Oo86pwt052998r6,737w9i3126<383--8a72182:77566752<,>,153211>=-&24464664421<:>,:35:*&;<tw5w94<,-;:12<:*->,*%66655q962",
"1>8,441>>5a>-X09wpi47q6ft>;-223447w3e0r0uw&*>fq8431>,-&1322451>:<:2:>;:=::;-3114227<<>,11<363;;%#:-rqu>:2;;112642:7&*%#40,3221<2",
"<,54292,3#$#2>yyutM6ut;5-*2*%<,6524uyepy4&$3q076471>,8:>,<,<11>;>1-:;=69772>,:>,,4>>:<1244r8:+%*;,;;121=;<12437646888%80833144-:",
"23376<&3$-**=;>udh8-;;&*-35>;=2,,1152py:*=>3ee9451:,132<11>;>;,=1*=25t97w93<21--;:>-&24679095=-;;>@%==$;213579q6q5w36<3443r,>,=3",
"56634&o&&-;;:=,*<&&&%*13251=>;-,;::>,11>:34yq16531:>254933<*=11:,$442r0088>7343&**=%>57q7ey8X*<2,2@%$@*33398r7ywt6p575:<<1,&:&26",
"8011,%;-<e527XoO>=##22378r0>0>><2$*=--:-,3fx0y6143>;21578q526%:;8990u90wew030995$%$@8897901&-454422@@+<2:9090pyywa599q8-,,>,:33<",
"-,>>>,>*<4760+@o$,2650cytq69914713&%-&&46hyarw978,:<22408135w6#0ww0wrtyqw72wf4888O-%156;1&#,:,49774<ow0700qewiywwi347&O8s3,53;>;",
"3;11673p9542#%O*%-68ymq198,93574:5<+##&00u9q7t432,<-12048eyet7,1uyy0e90:718d0tiy4*=$%=,-,;=-322<766i879qur600998i669*$#77w8w>23,",
"4>:576300,<$=O%:>;>,c83eq>3,,>1*,,1,O&487w5909012>,<3896,8we886>1667657745eq>a7<>::>,>&%-&;<-;=;>ip:>psy7768687917:;&;&%67696978",
"<,,10:25:4%>2#<6:>;15-12=;6-11,1=*<&#&4937:83yq32*=134215w8053+&33252421121;1231><166>$;-;*#-==;,<:;,<496211332,12=-><;-=4>6750,",
"<:>29352>:@>;*54><4746---;5<0**;*-&>:<>;:=<11<32=><<4,496647O#%-*>,<,><,:>,>>,>;-39551<*>,<;;&*=:-->,;13;,e-,,,>,:45w12,:&,:1>83",
"1:2<1:2==*:5&4499652$>-,%,5-4-><,>>19116,;;;1:2--,197q84132*o%*=*<>,<<,>:1<<<<2&,<5w08$<1<2<<<5$$&&-,3<-121$-:,:;$13r3<=<>;-4,23",
",:>1>:>:3116:468243,60>15y66951222414,,8;,<<<2>:<,1324>4:;=*;-:;=12324355546244&1,6<y9>3372>4wr48@@;---;*4412<<11*%1453552<<3;:4",
"1,>=-:%23613$w96r<1<-214b;au&-724e981-10934q556e>3,;-:2,>>:135;;;*1580787767581331r09t677u7pxti0w087384>8<345185>;=,<,701,1,#-*<",
"*:>*:*3673w7365ee212*3;,3>h9@r8w9i951<<i806t-08q<6t**-2==o,7<72:>=><95wpw0wqwr>1:<7;6qq7i8tntuy8t8w>77qye42q80i,41;;:<4e;>3,>*$%",
">2<$#24906yt803yyy>>=51qrqg<0z0ewif31:2ypwyr0feruh79*4*&<2352q53,=,>2erfqtyue9<6<,>>33yjauplspedktq>,qw7w7tirw6726813;,2>11253@&",
"=6:+u0e0q,76;7=9%&*=;211228q04>y0j3>2345dytpMtttse7<-7t;35949741<&-=14iy9psipq43-,>>2t97>qwddssjud>><tyiuthiptq7744>-;>>,13<62*=",
"85&X42,,61<1>*:>>=->$*>;,,q6>>0r70441<48saf9e53aps>--34,690>s7842:3,,3sdfagdw74;<;&,62581u697885g6:>9ewyugadupqse3231=,:-<=;>>>2",
"61,:>;:1<>>>>>,-*==*--%&*=:-42t,2111;>36wysprijxg;1><1*8er7ww8,<,,;&,51099ueri8,1->454<419,964<4856o0w0qrtru9as666944;:;27<70<23",
"57,:35<31141114<<,--->;:;;;;42>>,1=%@;3411djkjxx<$;=&0$9813585030=::2317979p0r432&1*2,1<3>:5,<214&*#@6458w075c6id89,><17q7251916",
"0<%:36633464525408*>=1,>>52qa5:4.X;;:=,:2#2ckzz1@-<5=07755e96>6a,25:2<>143596372,>2=3>:-:;--2>>;-;:&%$$2776<wtaj;$-;-<698wq0992r",
"2:-,1y350987405881:%13<3<thku%=<@$*&=;21&-,>,n*%%2--,<6&1943135u77<-:#,1126823,>;94>231,<<227,*:*->&%*==3<20992*@:;;23wwqw99wds6",
"1<;-2wi7p645eeqw3:->3-48qpft>;4%&>;,&<>=:-&;-,;:><>:28,,3t42r4y545>=;*-,124<,4:&64569446,6:7821;-:yyirq83&9<52>;<::&267yswrurru5",
"1:,<83ryurwijeyu:><1<8r9yhy6:11&=;2=$y1127-&>-;-=3#+wgO,<;:::;2-4:-#--2q331432&&315585e5<917r14;2>suww863;-%,<-,<<%354ajrhiddd9<",
"::<1-6spa0e5eer03>2>03879wt7%1;-;,24705q0,%#-%=,&$#+@fywww<>3=2---+144e4566q0;=;66588weq5rq9833:,1qrw0653>=*<>-:*=#727ekpgfjhh9>",
":<>3600qq0qwu76,90184>753sw3%=*::3<*725w00i.*79;;&&*+285sx96%;,332=cp9t89ww;=@@>@-28859yeyd2674:,,rd8884:::>,;8947&295qw4dahg23>",
"::2547qq644900,81&446&325e<&--2,<456755q4<Oo$d1;5;=&%%i:rr$re80tw*oywturih6#<12=;<95970errae48<:>2<9ey,&,>;<<70i6rq-<3753<456371",
":*6196%6723172>-=4-6<<,<x4:%;31,15875924o@@$%44,>=>,--e>70+w<0034O@l8qqwr1t<41<%**24739yuw2rp7,-;eeq9,:<>,,1323eu62O%<2,;324534,",
";1364:3211,<;;>17ew;X1,:9<:=:::39qq123:$#$$*$w24212,<:,6q6a78553@%%*7qwti967431:-11568rw8w40q8>-g5r0r>><>=<<14035<#%&,;;:::,,5<,",
"-140,>;*;:;13<46423*>1-*q1-o228re4554>%&*>::*<276962=2-:>121<<3#%%=:<444q64q75:1;416=4:2&06572:ur8d595;,<;<<353313$-$=,<-:,>33><",
"*35<;===#41y3,2732=:3+5t33=o<5w04475;:&;-=&=;>18q75>22=,>*=;%,%*==7<-54287qt863>>#31,49155423%=8668087<,>:,,264<1#=;$<q61e:,:&4>",
"=46&%#+;2066-75321=::>8q51,=5ip4;:1;=3<226,89:11e9068%1<,-=;-&=-:67::<<1575e,84&-$2;:,$=>-1<;-a*4458,12:::1243>1*---<260qw5@$*&-",
"%;++@655qi0yr8577<-;2,aetwq;:82:->424623qvbhw;<:u8567467u$%1-=;:>564>,>:253,066%>>=*:<*:>;-:;8tu;<52:>#*-><16<>4;::2<5wh0074s+O#",
"@ooq969qrtuu79132,:3-<r80868<5>=&49w1rsquaiw5<:7t9y;eqs85O%:-><<2093:2><,4,1937<,>%&>*=*&->agtwi0;4,&>>:->;3>:><<3512pgy0tiw9*:X",
".9qyyt760q0,%>,>,>;42444145$&<&$>5,<4sq9cr707$&%O$=*gw86-7&92:322604864-:;-<6;:6&>&&&*#13wye2w089&-o*;;>;>23,:642377rqwrtqw<w31r",
"1es8036:<>1&<2<<:,;625,287&$=::*-2560y744535:O$&&&*;<3778r841266uyw90y92=*,4=2$>=2%$$$8<6<a572;75# >==,<=1,4>97w89w0748t8qpq8427",
"@>18,:1<>8=,:<-,>><9,3<,=4->37,;;;w4q11$<:16>#&-;;--14,qr:2q99qe0ttwie84$:$*:==<3>#+,>132w4*52=1*X=><,=;*2>$@-460876<2e63561<1<#",
"&-2>:1=>,>%1--*=:<<271,:26>>q5<=62<1>%&<<<:*1=**:,:>66,;-6=q>9gfkrtsq41<#o:,,**&*=2:>,>q,$212,;>%-=;225#14+#,4t84414=821342&*%#%",
",4w37:<<2<<4%;;:>43+:=1>24>qt22>232=$#<2&=&<:1%>1<<5tr:42,60upg9=79*: +O@3323-,;>,&&*=,@>>-;==*==:11<39631O5183<2;,>-,=-::<:,:<;",
"jhlj&$$wq94-<,:<,,7,%4>398w08,,:<8,-O<%:*23>:&:9034ws97t1;->yc0>>:#>%-,,>&>:1>q79&>>,:*,=-1654,;:,,rw3634@.6*;>-;;::;--&>5<704dg",
"sdfg**%76226w7,530y1=750545831:::1;60536638:>:2q177i8r0q3<>,38<41:>;;::-111glpt66,=91<>>q9461>&<,,808>89656*%$73*&*><>,<33qt5%sa",
"fysds:=*,1i88<5zada1-,8iydrq6>:$;:669%6eu5>@%4557900w6>w65*=w-<;;;;,-,2,<wtsff9745*#142sr693,=>;--345<e872<3<8w=:-11>31254007ied",
"euppia:::33te9jjyr9:>6><9a72,%*:;,<<50ww=<<1,;>53435y38yw602<=1,**35<20r8ddgfr853:**$#y4ys8823,-+-362432&$#<,ew,9t7a85236544#oy8",
"ia9wii<<-,>1>atqt87<>&-<8w531,;,-<812><@>-&&--;3,<375,2,e1%;**;,&3501i00e9dtyr8421;1&21&;23r541;=58w:9:=-%$1288s950xp2961,2>@#8r",
"88rweru<<<>;:1fde755>$-13t-5<:-:-,,;<:-:*=*&&;;<1=16324wl--#-63<%56*158647u4i5w06>,&%85=>2=<1641&;7>:;=&<*-->1q9e9qy;50,<4,*%$&0",
"7779q7e32<;-,;>,1764:<425w&5>2-26,:-==-;:;--==&=$>3<6uy7:=.$e>,1=:>2332053t949t,<:<$t21,0;=,-:70-4,1=3;>>1;=>><wr8utrr;551&&*;-2",
"245tw7wq542+=&=1,4<,;,;,<3:;:4-52;=&,3,4:>:3-;-%**,3y6$X $%86,3<,;&&<26,:58643<<2<;,tq456,,4392i6213e;-<62<>;::;ufffp61>;:;,17--",
"26q8&983775X$**;;=;,23624351,,,*$%%w65&w5:2132,:%*,t,$;=uaddu22<,--;;->,,42<;><,1*71w9501353686%>936:2q3:<2:-;&=-:2>>>4=;<669=-:",
"3:->;4575q4:+#**%%134679694:5184&0868777>374632,,%=6:*60eyutrp7<3*:1,--;,>::>42:4>61a5qu0e86aq::1yqe5394iw704>&*=:,412=;-f7565,2",
"10@<;11135<-O+$$;255qeq53qwy0rf6-;90r3epdeyi6p344e56#O,067yqwa74,;>2222<,;--==;;3,45y0yttyquy::,165twrexy6ew69&%;;>4,-,,e08686u4",
"3r:=>,,>1,123o+33489iprqyewa3f05=28rya8rupti3kt8i8,:&@#336t80t3<>,;,46223>6213&=4358rjupysfy3:;13rerw2jqyps694;$$*3<;;;6q088wa0,",
"7y%=%&-:<142<&1136wcwrut7rtriy46pq566qasapjqte&93;2>;*$$29t8986,<1-<3946161<38375<qs5id4w05qt&::4599q9fyjefqtw9%&:*-%##twuqwsq58",
"td>8$%*-;>>=$+O<06qgywiwqpa09ag,*&::97>>q6w24,<5,>41*$%*=242495<2-=12y0w8qwt,905;1295d36552q643w149866785rjw8679$@2#+Or608170t4w",
"rw0ss@$&1<**-:O1:>e59euqq074636$;+=;5>129<7<3:;2<3>31&=>;<2<3141;=>13467tt768du5297ed;63342>;&-;-6<,<46<q4*2q0w9o+>;=4*31>54549s",
"7qte9++>,>:,<*#&2:34y28266655;&,:21:1><<y235;*;=22w,,-<12<:->,<1,>,15432<264yewt;>;1:<,<>>=:<,;<,>:32<421*<33tttwo&88;=*-*,<1<15",
">1,ye0o1,214,--;-<<,1:t4121<<:,:>p3g2<;><<>2***2qq0>:763q31*-::>>,,213><2,46r787*;-1&1:---=-*wuf;=<4=:,&:;:331uri69y22><>,,=:>2,",
"<>&*-::44hhjkl>,>$-51601<:>:,,1,qgaeyrO&>>>;:%$<wsq%779e0863&&*-,:<<,,>>=<16<,::2=;,&:=&%32we80y9w43;1==-=56-*=::$@#98>46843,41<",
"44<44:aqldssdsu2:=<6,83::;*>>5wti75q4@+#3-;:;&q4yrwo60rw80q97#%%<>;;2:<,22,1,,11,<;=::=$65669780rwwy62>&%%::;;>>==%=608wq3447912",
"7440<:atiqspkqt9<17=-7-*=*,<560491743$;;&w124O05t87316470qe8q7+#&2521311>29y986355&&:%7%%3323342>6-07t784>42::<3;==*32wu:00w9060",
"qey1::69qery599w6ty0<<:%35370qq67361><;:$<r9<;,-<,1,@5>:134teweo477250221ewe94q8977@8;-%=*&&5,<>>0=,61641**,3231>:>#&7983eru7y0y",
"pp63>et9qt5s2q,05567$,<$q8qt98642,5*;%::-8511:3>2->-@,:;$22,1we190qwe097qfur8>wew01:3;+3*;-->=<>;>#>9e-,*=>&>89;>;3=,64989pryrit",
"t65,6q<,66837307414#$;==,44351<24,<>16<;<qu32;,222<*,;,:;;-&;:*2wytttetwsitg8ifry1<>4#,314,<3;,;-==<;3<7=;>;>318215:<2<07u0qy9ye",
"ti51;*%,25473<i6>=$*--1>-12214,4:1512<54ws6:4:1q5w<3<<3:,,,<2=4wwwerwtrrpeisqfdp4<>:474wq38951021,:>,,-=*:,13564433,6:<4,4<45089",
"e9>>::==;-2:-&*-=$*--14,<;,,,1,>*1155w07w0pw<:36pu321-6446484u#5458800wq09ywdfgd9<>179yw03ra764%33467&%&,;2114s606237<,:2<296549",
"34,3,,;,,,,;<<==*%;::95511,>-*%*>6408r84i8>a5<;e7q30342y9iqa28#%&4356976758<iuyurt4$5874:0w7260uy98r746343628yr0t5e32;&=:*511165",
"14><<>23<32,>%=+-->>16p675<=&%%2:75q3286q1q,3<i<iy6:-y4isa-2:%=:-**232242360dew980<i*&-8444=54t90yjr001;2e41wpasw531424-#,,,>>><",
"2;*299e5865-&-@;;>:6qq57158-@@4>1q<42434,,6*=93# ;;5d6ycM3%:**=<>:>,,,2<><25677354,eu,:---2:1:51=yiywe=23;5esapg9r60<>1$-::;::>2",
"1051586qr93=-&>*-;100tpw8<223o457=-<-,1::<;>a6 8yes0>,zi8=%*-;>3,-<>>:::>,>>185*&;:.tty1<<,>2;7,*,2<ir<62;>e0ueq780234>t8,,<<219",
"343%$5737636<5*&-:<068ee76e82*6==;==,>>eru89j4=45<=:2,rq3-;3*;>4<202412*--<;,<>;1>3Oo90wu23325w2%*>-:=12535907098,*<21Oq38q0ww58",
"61<$=;>:3431r7**>,<666wu,544<;*&<5,477yep69f6061,72,,,1<:=19;<1973e744653%::;-24>>->$+00ew3<43231145%$3<2465024:<&>2>=@#1470qq87",
"21:&:==;:--:,%-=:>q079wp*13;5%47<2,114w9w,96w8*--1;-,33;:X-=-5598r68789572*12454><*2&+>645988656qtaw7e147w>561,,%$;=,=&%$5e31779",
"1,-*1633<=>:&*=>=1>35:63;<1**$#:>124<>0;:2235,*<;>;<:,=:*=->0798eclq864<:=::55w321;2&=*4<0$;6907w3e8w@$;16231:-:===:<&;=*&2<4558",
"2>;<,8,0549*%$*-,<01<>3:::%-*&$-;*,>*>w:,24<->>,68136<>-&%=2qhdavhuai9e39>,:164<<,%<;>;=3-%=<2507>*>@O+&*3,><-;-=&43,,-=---73305",
"*;2225yeq6e41%$><2;:==*--:1>,-&%>->,=2411<<,1:=<f8<2>73,1:>10ew99w0w80<1:>,4w652,;$:4<>;-;>-:>:>->,=&%-<,<:&*;*%#8e4>13<:>:3,<$%",
"-7234qq0p898q35,<,==$=-1,733>:-*217;:7632533-<,eau-y93:p2;,,7rt6>988w6<:<1<93653,>2,8<,-1--->:,<;;&=*;;:r26&-;*#@q,8>4202<<9<;*>",
">52474yyerwtq+:1-;$$>110532<<<--*53<01u66856,6tec3:r09ry3:<>-74674354:2-,8q2u8721>>-,,26<,*=-=;;*;=::><2787>0-+Xw209q3e9#78752-<",
"=3549rqqq08<5<1>;:@47:6<360042<:-=498pg8eqr;1u8et0,q7qkw+;5-@r<221<,><-&41<66812<,-:,27755:%$;:-;;,,>4259s77s9.0e7w768ur64w0664%",
"2580q53276206*-:,$@@852696556321:=4ikqewdij,9q8480,<98:%36wO2<>3--->>11;*&:<5w6311:>39e84851#*<,<:5eaufllx5yr0-3a256tpee56092787",
"879e;1<23<2--&,<37*&#=8q25905532-,%iapddg08>13,45--*13322e&@<-=-2<6733,:*$:74164<>>1,3,8eu21%@3344ya7qgyjd7stqo+>2778iwq95wwewyq",
"*r9<=::;>-,,<&,2>>=:*,52264639642:#;>31>64&6>:><>%&;:;<<<:%=%456513 2r21,&,:;<423,><3363,<:>=&>123743stahd489+@#%w=354daiiyyt7ew",
"*:**&*,,:121<<2<29<==*,,1<3246w6<:2;<226i:-*&<41<>,-;=%=:+-,99w807028w-$$@<;;><432>><3,,<;>2;*%<1361rreujw950%$;-;=<,<13sjddqtr,",
"-%$&2<80r8742<,,750$:>-:,>>126r7,*;>,wii2:-+=63533341>-;@$=28pippd07we%>223&=-%2,,:<<::;:;5<;>:-,<,<630f87=9%%*m,1;<1<-1754e5111",
"%&7968076853<,,186q692=:*=:::1>>=&&=7dr52>,:4722%86611776782tuttsiire;684555$&*56<:<1**-5214<<,:=;:1426844<=%-vzz11<1613-;=;5<12",
"q>t7887yw55:8<,4664634;:*==-;,,=#%-15hw731<::>3,35006570568r50qtrrqii6qe63654#$&2<<<-*e8366944257--:1,5241<;:kkhhgh32,1*$=*==;89",
"e0utqytet4532=,1<67q7,3>%&==*<<$%:>5ufvawq<82:<>1qeee097q4@#667787qy7%5568w946+@1,:>@7e69qt953551#-:>>,3:::,saafsddddqw5<$#&@;&%",
"480uuw8qdgy83<2,,33qe05q7*%&>;=:=<>9x9viq:422<;>7=diuie23@%%%$1<2>88<<253,2095Xo-:;O9yre7488342>:-;6213621>tazppiidapa01-2@@#=>#",
"&&&556280769=32<8w6800708o=:&*>>%$8ei4x3e40773-;>1efgs<,%=-=&;=&5,32:29;41,11-p.X>>e0aq1326331,<>,1e>67<4::wrt<utye6u8ir461u+5%*",
";=-=*276,5552:1:22<7666,4#-=-%57<1>&7s790711>8%%-;,<k2>1=,:,>,$&&=::32<;6*<2>&>-e@wer>&2<<<<11:1175638814;<1104uwqww08u594hi-7:>",
"1,:<;:,;742><<12>21332<2>=&>**3w6:-3;8123:phv--$#:;1o*=-:>;;<,=:,-;>%-:=-*;%&36433:1>>:,,,>>>>,1142231,,1:7>0080:79786e:43d,=:1:",
"111,2,>,;:>:>,%*$1:*<::>>:#,,3694=&4,<>><>,,&*2$#*;:o&,,133324377*>3;:>>7:84w062,:>*&;=>=2>321>:>,<1<1<:2;=%55322735>4,=13s,:<35",
"eq13,@-&,>>*-1::34#:<,1<7<245:,:26955w2<:-$%538@+=;&+237557g96854,;:11><11749suatci@&<>1;7371,2<<>;>:>>:1>;=-%1><<,,=,&:2#%%$@+q",
"9wq,23465&754&==<=-552474666:*&*5,6965627&o&,8qio%%%:4q56hdfdw76215;=,0u609fspw;eaeg44e30q684364351-*-;;,<-;><1>>;<-=$->,$==*##7",
"5731697w76p8q93=&%2358409536>>,95ypt8rw895$%%=aq.+$,+t0wadugikq33<:<224tqidiar39v8.o&8819rq896r76436&&*-226357690,7=%&=>;<71==&%",
"54957w8at7dr5754+086060r9756;,:24968adq0w968@#y80o0 rjtipyaiyat61,,,,%2060qee66qqO#+=8=784:6545424889#@-4389w8p6418&-<=3-52>:;;=",
"-24305quqph7eid>9hwxqrutu654<>-><086sarue4e53oOuls>2tpwer0wqt0841--;4-59143t729$#&%&@&=2<=:<<1<,111<:>-62586w641:2-;;$O;;>:*3,:;",
":1>24174e085w77:,qyy9j7ehp422=:>,<677r9esqrwke$3e7:qsw08639<q6498,;<33943322>3&&&=-g0#-=**-=<;;>;,::,>>><42:2,,12>X2<<6,2:31,:<,",
"*,;,<14133346774-1e8@4167q522:;->409q8t90132#*%*&#*i7145,2q5868322;4>477161,<==;;fdi88%-;;>>><311121126<,1,::<15 +;<%q,>-><232,,",
"21&%&,,22>3241;#-93>858-3,261>>;27<e654546<*==O.+#$67,7&<q4=2-3,,>-<1731;1$,;>,1suu5tt>1,>,2363145574y81:==:> -@=5646>4>:>4>5551",
"5;,#;-;,:=>:>;>-::<*>3,:11412<>;:1342572<=::=14wt++%6:=*:>-*2,<:,1,,>>,;==;-$q7gurq59q45tgyg3319r678qu0r494&7136509wt4::33716954",
"59>4=1,;-171222<122,2>%,::;>;::;<:<<44;;&->,646y##$:4%-&&211215542541=-=-<,1rra080818o+<kr0et4597w96ste3<w6=7622qqyge;:11248p097",
"11:=2:><2552766533=;;--:--::;::,*-;>1:22226w2w08#$%*=++<<12359<>76553<&42<0qq0t6794@&#=<0wrutwq78e3sgur418+745uqpddu::12,22wywir",
"1>;>,343608e69942,:223,<<<6w1<1,6=-35855412wqe7:&##@%&O26709720t99<8736883e707541-%=-;>-<4aagrwpiaj0qqrq,-77aautkyjd-:1,14q898e8",
"<>:>2e86qy9we1s5<>:27752277941rq2q19y2331451%,:X+O&==&*$10w89tx7qqqwr<=69484343<*-2:-><>>::jhgtu0p06qqe74#0dpdfhzpj>=*1355468888",
";->1y87ewyqruu6<:,,rq49qi0irityyrtir8#879@:*&1+$*==4,=*=<13qym99yfs41>131414;><>:,7:<123<<<<33425,44365--#&:fjhjhln>&*3455152335",
"<&63w0w0t0qpe6>41>>q0w75880897w77$%#=;5;#>3<>:>&=:6031;::113peyadd5=<:>>-2,:;,:,3155ywep1-<541<,>1<,,1:>>*,==klxcxN=*%43,1,,>223",
">>&5677768878024-;,98q79e86964043*=@,1<,051311=:>7216;:-::>,2schxj4132,><;,*42,22w08e8www4->>>,,<42<2225<:&,$*=mmm=:=&3>;:>,,3,:",
"<>,-16326469072:3;<366507457580=121$O-<3q5617,37<527065w5<:,11lkh1;52>:&=41-;,23<<4553<eqe2-==257;,6453525w92%%&=B;&*1*<<:5125>1",
",,<>,3;:31242:,==;>;,2<:<<3<2---;>,-&>73641>>&224<468u7232&:2565>87>>-5554,2,:::,<<5>235$0+O,76;5658q8q42q8168d4:-123736<246852<",
"<>,42%,,5,,<=25;:>;;4$4;1<>6>*,:,14:*,3,1<,;;<2355w0wtwe33%<512320p3*;655031*<1,<=:,-3-%0@$+yy77q0u5uq54rdyssdiy;-u6369r8w009512",
"::133471=:-:=9:2:=-83263<27=,1122342-22:;>-;;24178yeuq9957#;,<11>43375358i6<51<3527==--5<@$&%6249yet5zstyityrper70eiyi8e0ta9611<",
"><443w4,3@&*-3>>&71<<1779q$-8>2,&;;;&643=-;=&284e0w983q54%*,>>;-:,>==@379r60w699463;-ew68%&&&94780pifpi0fpiyet00q.890rfiy5047211",
"-><3146476$#<*-;-@66663662q622:-21>194625&=&3886we64334>-;<256<<*<;==&-85yereww61>>:4878*&:1;=2245riir72we009r89+Ooo9reqd17<944>",
";333678wrqw#1><>-%#58rqiwq062,=$<1458i08q##&67q6e<521<>1<,,176;1=::<>-*&>3iitt<,<5<30743==1>;-<340et57;wwq88886@##@++q9rt0a7<1>:",
"1<3467wie41&==>2=$&=31puty72,,>:>;899uwr00+@89yet>1:>:><341<9*1;=>>23&=,>02,-:>>,<27642<;-2<3;<22000204>51573r<&&*%%$#7y9t56e942",
"=:,2687712-;:,53:1;-*<,357512<,<5712134539qe9qre>-:-21>5=,36=:,>==<1>:31,>;;-%$<3677w32*<,237-,-121;23<>232<<4%=-;-==:;8539tw31-",
"2;336875>::,=::py00:;2933231,<;>,-455<2;821;:<:==*&551805mpy,<>>->64fd3<<5<#$$35784e4>::<,<>431;<31,1<,:2<<;;-:23:,>>:;&66f8411<",
"-29557r;*1<;,5iq9q89t4:<<1<:<;=,;>,,=>:>>->>*-*$%%68456wratap,,:-;9tiiyd366:%66ewq47<<1%>e>1t51,<,::1,-;,,<:2>,>224<,-;%&>:6671,",
",=*670:-1<324361eyq76$&>:<;-;>1<>331;5,<<241,&=@+98wwwepq7w090,-;>gttyrrq<13<9qde4><:&*,7588e2,:35217322154>,::<224133191<;%<<<:",
"=3545e*134<3:8yq93666-&ps3,33*31185644$<<47:,4$Xweetrr0t3rq88=&&;8s880e0wuu8;2t41>1*&&42e5uu6<>:2734gyt5wst3,:-34678799r-<2-7,;&",
",4328$*61551008r53463*aeiyus,;<,12389:365957q79iysu916669453<-<;76w809699w88q2><17<-=44rd4a3,::,e95gqw26q8e2>*>2<6q9ea93t554&8<>",
">:-,>$60799989wr8532;8u8irri,:11iqr848qqqq5e812>i:=534332122=>;-3<w5021452r3*-,<>:>;%wryreir>=-0w18w888966y9=;>4569usitrr39q6=,:",
"sar,18t<rtt8584<>28286qe90e8e-23w<69778w0e4wi61;:>45,1,,:>>>;>>>;441<-21113::,22<>423590q,w;=-24>813<253,42,>,3,549isttq6883@&1d",
"ayura.6>77005121214>11457764q,<4652<7w75289wue31>>:-;--=212,-2>,:4*:><>::>,;<<6448341<-:rtp<-&::<,:<2612>2,,>:1>69uaie9e944%**pp",
"re0poO#41666>,>>22;:-*1232,475=25,><23>225t0002<:$*&*&463365423>;,<45>1211<114994e8;52>&$=-;$;,,>>>2>4;,*:><;62485ur0292631*;iaw"
};
