/* XPM */
static char *wall4[] = {
/* columns rows colors chars-per-pixel */
"64 64 218 2 ",
"   c #2C170B",
".  c #351C0E",
"X  c #3C200F",
"o  c #30221A",
"O  c #33241B",
"+  c #34241B",
"@  c #34302D",
"#  c #3C342E",
"$  c #3C3A37",
"%  c #402210",
"&  c #482612",
"*  c #40281A",
"=  c #452A1B",
"-  c #4B2B18",
";  c #4B2F1F",
":  c #532C15",
">  c #512E19",
",  c #4B301F",
"<  c #5C3118",
"1  c #63351A",
"2  c #6E3A1C",
"3  c #733D1D",
"4  c #423229",
"5  c #4C372B",
"6  c #4C382B",
"7  c #4F392C",
"8  c #573623",
"9  c #543726",
"0  c #5A3824",
"q  c #533C2E",
"w  c #5C3E2D",
"e  c #4A3B32",
"r  c #7B411F",
"t  c #53443B",
"y  c #58463C",
"u  c #59483D",
"i  c #62412E",
"p  c #64412C",
"a  c #6B452E",
"s  c #744328",
"d  c #744428",
"f  c #7D492A",
"g  c #674C3B",
"h  c #744C35",
"j  c #7D5239",
"k  c #434442",
"l  c #464542",
"z  c #484643",
"x  c #534D48",
"c  c #584E48",
"v  c #49504E",
"b  c #5D524B",
"n  c #4F5C59",
"m  c #5A5856",
"M  c #5E5B57",
"N  c #675042",
"B  c #61554C",
"V  c #755846",
"C  c #7A5B47",
"Z  c #745D4F",
"A  c #7C5F4D",
"S  c #685C54",
"D  c #67605A",
"F  c #6F645C",
"G  c #796354",
"H  c #75675D",
"J  c #78695F",
"K  c #5C6360",
"L  c #656563",
"P  c #696A67",
"I  c #6C6B68",
"U  c #696F6D",
"Y  c #75716D",
"T  c #7C7C7A",
"R  c #884823",
"E  c #865539",
"W  c #82573E",
"Q  c #85573C",
"!  c #8B583B",
"~  c #905634",
"^  c #9A5B37",
"/  c #905F43",
"(  c #80604C",
")  c #8F6248",
"_  c #996345",
"`  c #9D6C4F",
"'  c #806553",
"]  c #806B5D",
"[  c #876E5F",
"{  c #996E56",
"}  c #926E58",
"|  c #987159",
" . c #A56B49",
".. c #A16D4F",
"X. c #AC6E4B",
"o. c #A37155",
"O. c #A47256",
"+. c #AE7859",
"@. c #B07A5B",
"#. c #B07B5E",
"$. c #B27D5F",
"%. c #867264",
"&. c #8C7B6F",
"*. c #907563",
"=. c #867B76",
"-. c #8C7A70",
";. c #827C79",
":. c #977F76",
">. c #AE7C60",
",. c #B47F61",
"<. c #72827F",
"1. c #BB805D",
"2. c #BE815E",
"3. c #9C806E",
"4. c #81807F",
"5. c #958275",
"6. c #9E8574",
"7. c #90847E",
"8. c #9F8C7F",
"9. c #B38063",
"0. c #BF896A",
"q. c #A78976",
"w. c #A98A77",
"e. c #A08A7B",
"r. c #A38D7E",
"t. c #B28872",
"y. c #B28A77",
"u. c #BC8B72",
"i. c #C08766",
"p. c #C0896A",
"a. c #CF9472",
"s. c #7A8987",
"d. c #7F928F",
"f. c #828380",
"g. c #868381",
"h. c #818483",
"j. c #878682",
"k. c #8A8783",
"l. c #8E8783",
"z. c #848A89",
"x. c #8B8988",
"c. c #978A84",
"v. c #9C8B81",
"b. c #80938F",
"n. c #8F908E",
"m. c #809390",
"M. c #839693",
"N. c #859794",
"B. c #8D9995",
"V. c #959492",
"C. c #9D9C9A",
"Z. c #A18F82",
"A. c #A88D80",
"S. c #AD9584",
"D. c #AE998A",
"F. c #8DA29F",
"G. c #A0A19F",
"H. c #B3A297",
"J. c #BCA595",
"K. c #BBA599",
"L. c #B8A79D",
"P. c #8FA4A1",
"I. c #90A4A1",
"U. c #93A7A4",
"Y. c #97AEAA",
"T. c #98AFAB",
"R. c #9CAEAB",
"E. c #A5A3A1",
"W. c #A5A7A7",
"Q. c #A7ABAA",
"!. c #A7AFAD",
"~. c #BEADA1",
"^. c #A4B6B3",
"/. c #AABBB8",
"(. c #ADBBB8",
"). c #ACBDBA",
"_. c #AEBFBC",
"`. c #BCBBB9",
"'. c #C09B89",
"]. c #CB9F8B",
"[. c #CAA18C",
"{. c #CCA38F",
"}. c #D8AC96",
"|. c #C1AEA3",
" X c #C9ACA1",
".X c #CEAEA0",
"XX c #C9B7AD",
"oX c #C9B8AD",
"OX c #C0BBB8",
"+X c #CDC1B9",
"@X c #D7C2B9",
"#X c #D2C5BD",
"$X c #DDC8BF",
"%X c #E1C1B2",
"&X c #BDC3C1",
"*X c #C3CECC",
"=X c #CFCECD",
"-X c #D5C9C1",
";X c #D9CFCA",
":X c #DBD3CE",
">X c #D0D4D3",
",X c #D0D8D7",
"<X c #D3DBDA",
"1X c #D3DCDA",
"2X c #D4DCDA",
"3X c #E9D2C9",
"4X c #E0D7D2",
"5X c #E1D8D3",
"6X c #E5D8D3",
"7X c #F0E3DD",
"8X c #E1E4E3",
"9X c #E1E6E5",
"0X c #E8E3E0",
"qX c #EBE6E3",
"wX c #E3E8E7",
"eX c #F1F2F1",
"rX c #F5F3F1",
"tX c #F2F4F3",
/* pixels */
"Y.P.F.J.D.Y.oX_._.Y.P % R d ^ ..X.@.2.~.K.~.XX!.J.J.J.5X-XqX:X5X:X-X+X-X+X-X!.q.w.q.w.H.| *.X...~ / ~ h 1 9 Y.T.Y.J.J.J.p.F.M.I.",
"m.d.b.0.D.J.J._.*XT.# h 1 / ~ .. .J j.E.J.K.&X_.!.Y._.XXwX5XwX5X2X-X*X&X=X&XE.!.q.{.1.@. .@. .^  .^ h 2 h f B.Y.T.J.T.a.0.>.<.<.",
"H c { >.a.T.a.2XY.T.V & h f ..X.f.j.f.j.!._.!.XXoXJ.oX0X-XrX5X5X-X2X*X&X-X;XXXK.a.w.H.w.6. .@. ...d / d 2 8 T.B.T.T.Y.J.a.>.{ H ",
"0.0.a.a.J.T.T.Y.T.Y.$ 1 h d .. .X.1.k.!.K.&XoX~.J.oXJ.-X5X5XqX2X>X2X8X*X>X*X!.J.!.q.B.1.| 1.| *.^ / 2 h 1 Z Y.T.Y.T.J.a.a.a.>.>.",
"J.a.J.J.J.J.T.Y.T.T.q ; R h ~ .. .@.1.{.}.oXXXoX!._._.5X2XqXwX<X2X<X2X*X*X-XK.!.w.~.q.6.1.@. ...~ 2 ~ 2 h = B.Y.T.Y.T.a.J.a.a.J.",
"J.J.a.T.J.T.Y.T.Y.T.# h 1 R ~ ^ @.2.i.2.{.}.+X}.oXa.5X}.5X0XqXqX5X2X-X>X5X+XXX!.J.w.q.| f.| Y | ..~ h 1 h V B.Y.T.J.T.T.T.T.J.J.",
"Y.T.Y.T.Y.T.Y.T.B.Y.M % h d /  .@.1.w.q.K.+XoX&XoX2XXX5X%XqX5XwX5XqX3X5X>X-X+X2.~.1.@.1.@. .X. .^ h R h 2 $ j.B.Y.T.Y.T.Y.T.Y.T.",
"B.Y.B.Y.B.Y.T.Y.B.H   1 2 h ^ *.| f.j.!.K.+X}.}.}.oX-X-X2X5XwX1XwXqXqX-X2X-XE.J.k.!.2.@.2.@. ...~ / d h d a j.k.B.T.T.Y.T.Y.T.Y.",
"$ # # l # $ z k = 4 1 ; r W  .X.1.| G.K.!.K.+XoX!.-X*X-X*X-X2X5XwXeX5X:X-X:X].~.1.i.1.@.1.X. .X...^ / 1 h - k y k # + # = $ # $ ",
"* M * $ # P # # 8 & ; 2 h ^ *. .@.1.{.1.{.}.].J._.&X-X-X*X2X<XwXtXwX<X2X*X`.&Xk.G.w.6. .6. .6. ...~ f d 2 h > e O M o $ o $ * $ ",
"V = Z 7 M # P # 9 - h - W E X. .X.'.2.~.K.~.}.~.J.*XXX-X}.5X0XqXtXrX8X*X>X*X!.q.i.1.X.1.| 6.X...X.W ~ h d 9 d = V + M + M O Z * ",
"c.E Z E C [ B P > , & h d W  .@.1.i.1.K.J.K.!.}.~.}.-X}.5X-XwXwXtXqXwX-X5X+XK.~.1.i.1.6.q.6. .X. .^ h 2 h f 9 5 M b M b Z V f E ",
" XA.| ] q.] j.P - ; d & ~ f ..X.'.2.{.1.{.}.~.J._.XX_.>X-XqX5XrXrXeXwX>X-X>XJ.k.q.w.f.| 6.X... ...d ..d h - > 8 J P J P } P y.OX",
"V.L.1.w.q.w.f.J 4 % ; s h ~ ..1.X.1.2.{.].{.}.~.}.oX-X-X5X2XwXtXtXwXeX5X>XK.!.q.6.1.@. .X. .^ ..^ ..f h s h - t q.f.j.k.1.k.v.V.",
"U I r.q.B.q.B.j.X - 2 ; f N ^ .. .@.1.~.J.K.a.a.a.-X&X5X*XwXwXtXtXtX0X-X;X-XK.H.2.'.X.6. .*.~ ..~ h ~ 2 d > W u f.k.B.j.S.J.5.s.",
"m { 3.6.w.f.j.f.* ; % h p < ~ X.@.X.@.2.~.a.~.J._.XX2X_.2X*XwXtXtXtXwX2X<X&X_.!.Y.k.q.J q.J Y Q / r N d h d 9 i k.Y.k.B.J.e.>.K ",
"` $.1.S.q.k.q.J @ & h & / d /  .6.q.6.q.w.a.a.~.a.oX}.5X-XqX5XtXqXtX<X2X2X*X*X_.!.J.~.1.@. ...~ 3 j 3 h f 9 0 t j.B.Y.S.J.a.a.{ ",
"i.2.S.w.B.q.B.} $ - & d 2 / R D Q *.} 6.1.S.J.~.J.oXXX*X>X2XtXwXtXwXwX-X2X-XoXXXoXa.a.~.2.6. ...j D 1 h d f 8 7 B.k.B.a.B.a.a.a.",
"i.1.w.q.w.6.k.Y = ; 1 ; d h ~ .. .X.1.2.H.w.!.Y.!.XX_.XX2X<XwXqXqXeX5X>X-X2XoXoXXXoXJ.S.J.w.1.X.*.2 / 2 h - W i B.j.B.a.w.a.a.i.",
"2.S.q.B.1.i.q.Y 8 > - 2 h f / ~ *. .@.1.S.J.w.a.J.~.oX&X1X2XwXwXtXwX5X2X5X-XXXoX~.K.~.w.6.1.6. ...~ 2 s 2 N 0 t w.B.q.S.J.i.a.i.",
"a.w.6.w.S.2.f.} e - h % ' d ^ ~ ^ 6.2.i.2.B.J.B.J._.J.*X-X2X5XtXtXtXwX1X2X*X&X_.!.j.E.q.| H.X.*.X.W ~ N p e 8 w 1.k.a.w.S.a.S.a.",
"i.q.i.q.i.1.w.} = ; > N f / ~ .. .@.1.2.a.2.~.a.~.a.oX}.5X3XqXqXrXqX5X-X5X:X-X+XoX!.q.6.1.6. .@. .^ d f N f 9 8 @.q.S.J.S.a.a.a.",
"2.S.2.S.1.S.q.*.- 9 d & d f / ^ @.2.i.1.i.a.i.a.J.J._.XX*XwXwXtXqXtX5X2X-X2X-X-X}.oX~.2.H.X.@. ...E ..d W - ! i 2.B.w.B.J.J.a.i.",
"1.B.q.w.1.w.f.Q e > , 1 h ~ .. .@.1.2.J.w.!.J.!.J._.XX*X*X2X<XwXtXwXwX*X2X*X2X*X*XXX~.J.S.1.X. .X...f W f W - 9 1.B.J.w.J.J.S.2.",
"S.w.B.q.B.q.6.j > - 2 ; R h ^ .. .@.1.i.1.S.a.oXa.}.+X-X5XqXqXrXwXwXwX5X5X-X5XXX_.!.J.~.q.6.1.@. ...~ f d > 9 0 6.k.B.a.S.a.S.a.",
"2.1.2.B.k.B.X.*.- ; - h d .. .^ } X.'.2.~.w.!.XX+XXX*X-XwX<XwXeXtXwX1X2X5X2X-X-X}.~.a.2.1.w.6.X...^ W d W d 9 8 @.J.w.a.2.S.a.S.",
"1.i.1.S.J.w.1.Q - & h & h d ..~ *. .@.1.w.J.K.~.}.&X*X2X<XtXwXtXwXtX<XwX-X5X&XoX+X}.{.a.i.1.@.1.X.E ^ h f 9 f 9 1.B.J.i.a.a.a.w.",
"i.2.i.a.B.J.6.j ; - ; d 2 d ^ ..X.*.X.H.q.~.J.~.XXoXXX-X5X5XwXqXtXqXwX5XwX-X%X}.}.a.oX~.w.S.2.6.} 6.E W d W 8 0 1.k.B.a.S.a.i.a.",
"i.a.i.a.J.a.| ' & ; 1 4 j N ~ .. .| 1.2.~.w.~.J.!.XX&X-X2XwXwXtXwXwXwXwX2X*X-X*XXXoXa.S.a.w.a.w.1.C ..f W - 9 i S.J.S.a.a.a.a.~.",
"%X{.a.i.J.S.q.*.- & - 2 h R / ^ ..1.S.1.S.a.S.a.K.XX-X>X5X2X5XwXqXwX<X2X5X*XXX-X+XoXoXJ.S.J.B.Y.f. .W E f d > w w.B.J.i.a.a.}.%X",
"4X%Xa.a.S.a.f.Q ; - h - h d ^  .X.@.2.i.2.{.1.!.J.!.XX*X-XwX5XwXtXtXwX5X5X-X-X}.}.a.}.a.a.a.2.S.X.)  .W d ; d w q.k.J.a.i.a.#X<X",
"(.|.J.a.J.a.w.~ & 4 & h f ' j Y } 6.1.i.q.k.J.k.!._.&X*XwX5X2X5XwX5X2X<X2X*X*X*X_._.J.oXa.S.a.@. .X.E f h f 9 0 f.Y.S.a.a.a.U.R.",
"N.Z.J.S.a.S.q.' - ; d ; ~ f  .X.*.| f.q.S.J.B.a.~.J.oX-X5X8X5XwXqXtX5XwX*X*X*X*X_._.J.2.{.2.@.X.@. ...d h - > 8 w.B.w.S.a.p.8.M.",
"-.>.a.2.a.a.6.Q ; > ; d W ~ .. .@.1.X.1.w.!.w.!.Y.!.XX*X<X2XwXwX<XwX<X2XwX-X&X-X+XXX~.1.i.1.X. .X...f h 2 h - w q.B.J.S.a.0.>.&.",
"{ 0.S.a.i.a.S.~ ; - 2 - f W X...X.@.1.@.1.i.a.].a.oX&X*X>XwXwX1XwXwXwX<X2X<X*X_.K.~.w.H.2.6.} @. .W ~ h d & d 0 f.w.S.a.i.a.>.{ ",
"a.a.a.a.2.S.w.*.- ; - h d W  .X. .X.'.2.{.2.{.a.{.}.%X%XqX5XqX5X2XwX2X2X1X*X*X&XXX~.1.2.1.| 6.X...X.W d h d ; 8 6.J.2.a.a.J.a.0.",
"a.J.a.i.a.i.1.Q - & N = ' f .. ... .6.1.S.q.w.a.oX+X-X5X5XwX<XwX<XwX<X5X-X5X+X}.~.a.~.1.S.1.@. .@.E X.d 2 ; > 9 w.S.a.S.a.J.a.a.",
"a.a.S.2.S.2.6.} ; - 4 d f ~ ^ ..X.@.X.@.1.S.J.~.J.oX}.-X3X5XqX5XwX5XwX*X*XXX_.J.oXJ.a.a.2.S.2.@. ...d h d h - > q.w.i.J.a.a.a.a.",
"a.a.J.a.2.a.X.' > ; f ; d h  .@. .@.1.2.a.2.{.a.~.oX&X-X5X5X2X*X2X5X5X>XoX_.oXoXJ._.J.S.J.S.1.X. .f / 2 h > h - B.J.i.J.a.a.a.a.",
"a.J.a.S.a.i. .*.- & - 2 d f ..X.@. .@.1.i.a.i.a.].}.-X+X-X5X5X2X5X2X5X*X_._.J.J.J.J.~.J.S.2.i.1...~ h d 2 d > e k.B.a.S.a.a.a.J.",
"a.a.a.J.i.2.6.Q ; % h - ..E .. .X.1.2.6.2.~.a.~.}.~.}.-X%X5X-X2X*X2X2XoXoXoXoXa.S.a.S.a.w.1.2.@.X...R h 1 ; - 9 J.B.a.2.a.a.a.a.",
"J.a.a.a.a.a.@. .> - & h f .. ... .6.q.S.q.w.a.oX~.oX+X%X5X%X5X%X5X-X*XXX3Xa.J.~.a.S.2.S.1.6.1.@. .^ d 2 d 2 ; 0 B.Y.S.a.J.a.J.a.",
"a.S.a.S.a.i.1.6.- ; d ; d f ~ ^ *.| 6.2.S.1.i.a.~.XX_.XX*X5X2X2X2XwX*X2XXXoXa.S.a.2.a.2.6.X.6.X.*.d / 1 h - W 8 k.J.J.S.a.S.J.J.",
"a.J.J.i.a.2.a.w.; & ; 2 h d / ~ .. .| q.w.!.w.!.J.~.oX-X%X5X<X2X<X2X5X*X2XT.!.J.B.Y.B.q.6.1.6.} Q ~ 2 h 2 h - t Y.B.a.S.a.w.a.a.",
"i.J.S.a.i.1.i.1.; % 2 - R h ^ / ^ .. .@.1.i.a.i.a.}.}.%X:X7XqX5X2XwX2X-X_.J.J.a.a.~.2.6.2.6. ...~ h ~ h 1 & d 7 B.k.S.J.i.a.S.a.",
"{.a.2.a.2.6.w.6.> ; % h 1 / ~ .. .X.1.2.S.a.~.J.oXXX_.-XwX5XwX5XwXwX2X*X-X_.J.J.a.i.a.i.1.X. .^ ..^ h 2 h 1 ; y B.q.w.a.2.{.].{.",
"$X[.1.i.1.S.q.| - & h & h 2 / ~ @.1.S.Y.B.J.J.a.}.~.oX-X5XqX5XrXqXqX-X-X}.}.a.J.S.J.S.J.S.q.6. ...d ^ d < 4 f k k.f.q.S.1..X@X6X",
"S.u.t.2.6.w.f. .; % ; d h ~ R  .X.@.2.B.Y.B.J.oXa.oX}.*X5X2XtXwXtX1X2X*X*XY.T.J.T.J.J.a.2.S.2.@.X...d h 1 h - k j.| q.2.O.,.n.C.",
"T #.9.1.@.q.| q.> ; 2 ; r h ~ .. .@.1.2.a.J.~.J.~.}.oX%X5XqXwXrXqX3X%X%XoXoXJ.J.J.S.J.B.q.S.q.| } ^ / 2 h & ; 6 f.q.6.1.@.+.F T ",
"S %.2.6. .6.} f.- ; % 2 d R / ^ ..X.6.1.S.J.S.J.J.a.oX}.5XqX7XqXqX5X-X-XXX_.J.T.J.J.B.w.S.2.@. ...~ h d h d & 5 J f.w.6.X.o.A L ",
"_ @.1.X.1.| *.J 9 & h % N d /  .X.q.k.B.k.B.Y.!.J.oXXX*X-XwX5XqX5XwX*X*X*XoX_.J.S.a.S.a.S.1.|  .Q N R h 1 ; d e H f.q.J  .X.G ( ",
"*.} *. .P } *.} > - & h 2 h ^ .. .S.1.S.a.J.a.a.a.oXoXoXwX5XqX5XqX-X-XXX-X}.J.!.J.S.J.B.q.S.q.6. .*.d 2 d 2 ; = Y J f.} Z ~ *.~ ",
"Q V a M J M a M - ; 1 ; r 2 ~ ^ 1.2.i.a.i.a.a.a.oXJ._.XX*X5X2XtX2XwXoX2XXX-Xa.a.a.a.a.2.a.2.@.X...f / d h % h - g V q M Q M a M ",
"p Z V M b q p < 9 > ; 2 h ~ / ~ @.1.i.a.2.a.J.~.J.oXa.oX3X5X7X5XqX-X}.oX-X_._.Y.B.J.S.J.B.q.6.q.|  .f h 2 h > e b M p M p M p a ",
"x = x = 7.o g.. 9 - h % 2 d ^ / X.@.1.i.a.i.a.J.a.J.a.5X:XqX5XqX*X5X_.<X_.XXT.J.T.J.T.B.k.B.w.6. .W ~ h d & E 7 V # x.O N * x o ",
"n n z.l.Q.W.W.W.4.T . N 1 / ~ .. .X.1.2.S.J.S.J.S.J.oX-XqX-XqX-X*XXX_._.-X-Xa.S.a.S.1.S.1.|  .Q *.^ h 2 h d w B h.n h.n n n n v ",
"Y._._.*X*XwX*XwX_.E.d & / 2 / ^ .. .@.1.S.a.J.J.J.!.oX2X-XwX-XwX_._.XX2XXX-Xa.a.{.w.S.w.6. ... ...~ / d f 8 w.>X2X&X_._.Y.T.J.T.",
"a.a.a.oXqX}.0X-XwX_.;.1 h ~ R ~ X.@.2.i.a.i.a.J.a.oX}.%X3X3X3X-X8X_._.oX>XXX!.J.S.q.w.q.| 6.| *.^ ..d h d A.-X2X5X%X}.oXoXa.a.a.",
"a.a.}.a.oX3X}.5X*XwXa ; 2 h ~ .. .@.q.S.J.J.a.J.~.J.oX5X2XqX*X*X*X_._.-XoX!.w.!.w.S.q.6.1.@. .@. .f ~ 2 h 0 >X1X2X%X}.J.a.a.a.a.",
"a.}.a.}.a.oXJ._.<X_.- 2 d 2 / ^ @.2.i.1.S.a.J.J.J.J.oX-XqX>XqX&X*X*X_.&X_.!.J.S.J.w.q.w.f.| 6. ...~ h : N :.2X*X*X-Xa.T.a.}.a.}.",
"XXoXa.a.a.a.oXT._.Y.c.% / d .. .@.1.2.a.2.{.a.~.J.oX}.5X-XwX-X*XXX*X&X`.!.w.!.q.f.q.f.q.6. .^  .^ h R N 2 =._.*X_.-Xa.J.a.a.J.oX",
"tX*XwX}.J.J.J._.*X_.X d 2 / ^ .. .@.1.i.a.S.a.J.J.oX&X-X8X5XeX*X&X-X&X-X~.1.K.1.w.H.w.6.X.*. ...~ / 1 2 1 f >X_.2XoXa.J.a.XXwX*X",
"2XwX*XwXa.T.a.*X_.*X: ; 1 h ~ ^  .| H.w.~.w.~.J.!.J.-X3X5X7X5X7X5X:X-X:XG.!.j.!.q.B.q.| 1.| *.^ ..f / 1 h 8 _.*X_.a.a.a.a.wX_.wX",
"9X*X9X).a.T.a._._.T.@ 2 h f .. .@. .@.1.].a.K.~.J.~.oX>XqX2XqX>X-X>X-X`.-XE.!.k.G.w.f.q.f.} *. ...~ 2 d 2 Z Y._.Y.J.a.J.a.^.,X/."
};
