/* XPM */
static char *wall2[] = {
/* columns rows colors chars-per-pixel */
"256 256 256 2 ",
"   c #1B0602",
".  c #1B0904",
"X  c #180A07",
"o  c #1D1007",
"O  c #1C120D",
"+  c #1D1410",
"@  c #220702",
"#  c #230A03",
"$  c #2B0B04",
"%  c #230D0A",
"&  c #2B0C08",
"*  c #330C04",
"=  c #3B0D03",
"-  c #330D08",
";  c #24130C",
":  c #2C140B",
">  c #29160C",
",  c #391105",
"<  c #34140C",
"1  c #3C140B",
"2  c #34190E",
"3  c #3C1A0E",
"4  c #241413",
"5  c #2C1415",
"6  c #261A12",
"7  c #2B1C12",
"8  c #2D191A",
"9  c #331614",
"0  c #3A1613",
"q  c #341C13",
"w  c #3B1C13",
"e  c #331B1B",
"r  c #3C1D1B",
"t  c #3C220F",
"y  c #2D2016",
"u  c #332316",
"i  c #3C2215",
"p  c #35241C",
"a  c #3C241B",
"s  c #3A281A",
"d  c #3C291C",
"f  c #361F20",
"g  c #372222",
"h  c #3D2222",
"j  c #3C2B22",
"k  c #3C332E",
"l  c #430D04",
"z  c #4B0D03",
"x  c #550E03",
"c  c #431205",
"v  c #4C1305",
"b  c #43150B",
"n  c #4B150A",
"m  c #431A0D",
"M  c #4D1A0D",
"N  c #531406",
"B  c #5C1405",
"V  c #581807",
"C  c #531B0C",
"Z  c #5B1C0C",
"A  c #431D13",
"S  c #4B1D13",
"D  c #471C19",
"F  c #531E12",
"G  c #5A1E14",
"H  c #661706",
"J  c #631C0A",
"K  c #6B1D0B",
"L  c #761B08",
"P  c #651C10",
"I  c #5B210E",
"U  c #442216",
"Y  c #4C2315",
"T  c #452917",
"R  c #43251B",
"E  c #4C251A",
"W  c #442B1C",
"Q  c #4D2B1D",
"!  c #532315",
"~  c #5B2314",
"^  c #582917",
"/  c #53251A",
"(  c #5B261A",
")  c #532B1C",
"_  c #5C2B1C",
"`  c #46301D",
"'  c #4B311E",
"]  c #53311F",
"[  c #5D301E",
"{  c #5A3B1D",
"}  c #68210D",
"|  c #78230B",
" . c #632414",
".. c #6B2514",
"X. c #682917",
"o. c #63261A",
"O. c #632C1C",
"+. c #6B2C1C",
"@. c #772915",
"#. c #732C1B",
"$. c #63311E",
"%. c #6B321E",
"&. c #68391B",
"*. c #73321D",
"=. c #7B341C",
"-. c #451F21",
";. c #432424",
":. c #4B2523",
">. c #442D23",
",. c #4D2D22",
"<. c #462729",
"1. c #4C2B2B",
"2. c #532D22",
"3. c #5B2D22",
"4. c #572929",
"5. c #453126",
"6. c #4E3223",
"7. c #463329",
"8. c #4B342A",
"9. c #4D392E",
"0. c #533324",
"q. c #5C3424",
"w. c #553926",
"e. c #5C3926",
"r. c #53352A",
"t. c #5C3629",
"y. c #54392D",
"u. c #5D3A2B",
"i. c #4B2E31",
"p. c #582E32",
"a. c #4D3234",
"s. c #4C3A33",
"d. c #593336",
"f. c #543C32",
"g. c #5B3E32",
"h. c #632D22",
"j. c #682E25",
"k. c #742E23",
"l. c #633324",
"z. c #6B3423",
"x. c #633926",
"c. c #6C3926",
"v. c #633529",
"b. c #6B3529",
"n. c #633C2B",
"m. c #6B3C2B",
"M. c #733523",
"N. c #7B3523",
"B. c #733A25",
"V. c #7B3B25",
"C. c #753629",
"Z. c #733C2B",
"A. c #7B3D2B",
"S. c #633E31",
"D. c #6A3E31",
"F. c #643639",
"G. c #753E31",
"H. c #70471D",
"J. c #5B402B",
"K. c #564135",
"L. c #5C4335",
"P. c #5D4539",
"I. c #5C473A",
"U. c #664724",
"Y. c #684B23",
"T. c #64412E",
"R. c #6B422E",
"E. c #73422D",
"W. c #7B422C",
"Q. c #79482D",
"!. c #72542F",
"~. c #644232",
"^. c #6C4433",
"/. c #6D4935",
"(. c #624639",
"). c #684738",
"_. c #634A3C",
"`. c #6C4A3B",
"'. c #724533",
"]. c #7B4532",
"[. c #734A35",
"{. c #7B4B35",
"}. c #754639",
"|. c #744B39",
" X c #7B4D3A",
".X c #775239",
"XX c #7C523C",
"oX c #5A3C42",
"OX c #673D41",
"+X c #4D4746",
"@X c #684C42",
"#X c #754844",
"$X c #6C5343",
"%X c #6A5545",
"&X c #7C5342",
"*X c #765948",
"=X c #6A5655",
"-X c #795D52",
";X c #7B624D",
":X c #7C6355",
">X c #871C08",
",X c #87250B",
"<X c #96280C",
"1X c #842B15",
"2X c #86341B",
"3X c #95371A",
"4X c #A63613",
"5X c #863A27",
"6X c #833C24",
"7X c #913C26",
"8X c #A53B22",
"9X c #A34818",
"0X c #83432C",
"qX c #89462B",
"wX c #96462A",
"eX c #905629",
"rX c #834432",
"tX c #834B33",
"yX c #864A37",
"uX c #8B4A33",
"iX c #944B35",
"pX c #82533C",
"aX c #8A5339",
"sX c #84593E",
"dX c #8A5A3E",
"fX c #985538",
"gX c #A84D2C",
"hX c #A5593A",
"jX c #8E6B2D",
"kX c #AC6639",
"lX c #C16334",
"zX c #835542",
"xX c #845B43",
"cX c #8B5C43",
"vX c #87554B",
"bX c #895A48",
"nX c #945B46",
"mX c #A55B44",
"MX c #8C6244",
"NX c #8B634A",
"BX c #966649",
"VX c #856859",
"CX c #996A54",
"ZX c #957252",
"AX c #9C7455",
"SX c #A86C4F",
"DX c #A57757",
"FX c #907366",
"GX c #97776A",
"HX c #A77A67",
"JX c #AD835B",
"KX c #9C826F",
"LX c #AF8973",
"PX c #C58F6B",
"IX c #B29A87",
"UX c #C8A48B",
/* pixels */
">.X.N l B l B H H N l B H = c * = z B N N V N x z l z B z l z * = * $ $ z x l < n l ~ T a F A E :.~ O.Q W 0.w.E / T m.q.M._ _ ~ U 9 5 < 5 3 < 5 7 r U q : q T 7 7 e g h j W R r 6 y 7 p g e g e e e u W _ _ c._ _ ] $.c.l.x.O.V c = $ * * q _ Y E ' ! $.%.^ U ] [.0XV.5.m.W ! O.G ! U ! C 3 u g e ! _ l.x.m.[.V.M.A.V.( _ E _ E h s d u Y ^ s e E d 0.j e s Y R w w 3 r 1.) g 8.p u m = v = v z B H = = 9 0.6.u d Z z < = l N * = * , - $ , l # * z * l * $ * = * * * l N x l x Y _ ( l.( m.~ _ 0.0.j ' >.>.Q <.) w.%XP.l.6.7.Q ",
"u BX1XH <XL K @.@.=.V.=.2X5X0X+.m.qX2X5XqXwX@.1X5X| 1X1X#. .2XC * ,X@.@.7X3XV.=.3X7XmXSXCXSXfXfXMXCXBXnXLXBXBXVXCXDXCXnXSXyXyXD D Z.l._ 3.t.3.r.S.n.A.~.t.^.$Xh.q.).^.$X$X*X&Xw.w.6.Q P._.S._.E W `.T.n.XXR.R.[.sXdXdXxXaX=.@.=.1X1XB.Q.E.[.sXXX!.dXpXBXjXdXdXY n.JXMX XDXXX{.0X6XqXA.5XM.'.pX^.n.{.rXbXCXAXAXDXDXDXSXSXBX[.BX) 6.zX^.R.[..XR.R.XXXXXX/.^.[.u.~.m.n.n.F.}.|._._.xXtX#.~ L J L * H ,X| K ^.zXBXzXpXuX7X#.0XW.W.V.qXqXA.uXZ.uX0X+.X.*.M.2X,X>X,Xz L J ~ *.6XW.*.V.tXtXdXBXxXZXdXNXNXMXMXXX%X&XL.^.dXbXFXE.m.|.f.2 ",
"8 xX_ M #._ O.0XM.E.W.E.W./ A._ r.=.B.=.E.M.*.B.E.*.#.o.q.O.l.N * H B  .@.1X/ #.@.X.*.{.'..X XcXZ.XXXXHXHXDXBX:XyXZ.3.h.rX XA.S U g.a R ) ,.2.r.>.,.P.y.5.0.r.6.2.K.y.w.f.y.y.W Q Q 0.f.~.z.r.e p P.9.w.R._ T.XXR.R..X0X..Z J ..} =.`.P.n.W R.R.E.R.R.!.m./.^.u 0.BXR 5.R.0.y.{.E.V.V.m.[.w.pXn.W l.'.pXsXNXMXMXBXBXMXcXpXtXpXY 0.|.0.W 0.U.w.n.T.y.f.t.t.$.R Q ) ) Q R 6.^.^.a.~.l.>.R H ~ } * B K Z A w.w.n.n.z.%.$.q.o.X.$._ *.N.z.%.[ l.) _ ) / q.$.*.qX@.# H x M ~ W.R.*.+.E.H.[.tX'.sX{..XsXXX~.f._.8.r.v.z._._.Z.E Q 5.O ",
"e  X*.wXiXq.q.{.pXQ.l.rXz.A tXm.B.W.*.B.M.V.W.=.A.V.c.HXCXc.M.v * >XJ gX7X..( #.%.O.+.+.o.Z.aX X'.pXxXCX[.dXpXl.].yXr.SXmXG.mXU E r.i CX&X,.) _ q.q.0.E 0.^.y.0.t.T.w.a.1.r.L.w.Y Q 2.IXFXR.f.7 u L.6.LXBXR.R.B.z.B.H.} X...} } Z R._./.r.Q R.x.^.T.!.UXGXq.) 5 d xX/ LXHX;.8.R.'.'.n.R.'.q.0Xq.h.B.T.|.xXMXBXxXBXMXdXUXHXB.MXE 6.|.e.KXVX] 0.n.n.5.9.w.7.E R Q 0.q.2.:.,.[.R.7.x.T.<.HXFXy.u.: ..1XX.LXVXw.n.t.n.o.l.z._ V.o._ V.V.l.M.M.z.z.x.c.n.c.LXnXV.K $ K M ! SXBXB.E.c.{.E.]. X[..XxX|.XX/.f._.f.T.R.~._.@X^.LX}.,.8.4 ",
"3 [.2.iXt.A.r.`.dXE.z.M.l.3.Z.O.N.#.+.+.*.W.Q.B.Q.Q.E BXt.Z.#.m * ,XZ 5XE %.z.&.5XO.#...o.V.].E.^.vXGX&X XMXMXrXrX}.m.nXz.l.mXA U c./ zXr.3.E U q.l.l.) n.XX'._ l./.^.r.8.r.w.w.2.Q 0.:X9.m.n.q i t.U -Xf.) 6.O.M.[.{.=.@.@... .! R./.sXT.r.T.t.u.~.B.cXl.} B * * c._ &Xy.T 5.q.E.r.) E.q.>.e.,.rXpXm.^.sXMXAXxXdXpX[.VX}.l.pXh e.R.T.:Xf.W 0.^.^.9.r.r.1.0.0.q.r.0.2.0.u.xX[.r.m.q.].VX X5.~.8 Z. XC.DX X3.l.l.q.n.z.V.m.0Xz.q.m.M.z.X.B.m.l.x.q.) M.zXA.z.~ # H C +.XX^.) l.0XqXtXtXXXl.M./.|.|.|.n.Z._.P.$X/.T.r.(.*X1.E ) : ",
"i n.S R 6.0.f.u.].^.r.3.].^.r.E B.0XA.W.qXeXtX=.N.H.i 3 ~ ~ L N $ @.C m S _ uXdXE.z.....#.#.+.%.+.7X&Xx.[.^.XXzXxX'. Xq.q./ rXu.A Z.E A ) a Q ) 0.) q.q.Q R.n.2.:.0.f.u.l.w.t.>.Y E >.W s q.n.e i n.w e T W ~.0.$.M..XtXX.=./ $./ .XXXXXP.e.w.6.0.r.) Y I V B * c =.:.i W T 5.W q.q.] x.x.6.>.0.E.|.R.^.|.XXVXXXZ.|.7.0.0.l.MX0.f.(.6.W s ) R.^.y.9.n.r.0.2.q.t.S.n.a.r.r.f.6.y.^.y.w.0.d 5.~.u  XBXm.l.l.e.R.$.$.q.x.q.2.V.].n.j.( ! ! z.q.v.q.O.$.) _ i _ Y @ L O.Q e.Q q.c.l.V.tXMXXXu.'.R.Z.^.XX[.e.u.f.^.|.w.6.f.u.s t.8.; ",
"r v.A ! r.m.m.r.m.W.0.;.E.t.8.2.].aX].A.uXuXqXN.B.#.A D ~ M ..~ 9 dXc.w S Z.pXE.m.E.*. .*.+.+.c.N.o._ [. X_.^.XXZ.t.yXZ.m.^.Z.,.r S.2./ W ) c.t.w.t.2.q.) H.^.j.q.w.w.e.T.u.y.>.r.r.,.U >./.m.d j T.R.0.' L././.R.[.zXE.$.W.c.0Xm.Q.MXdXR.r.t.0.t.w.t.Y ! X.} , v } ,.a ' ^.x.r.w.z.) W m.u.0.w.'.pX^. XpX[.sXE.A.B.w.6.R.R.MX) _ _ ) U T [ c.m.r.t.x.Q x.,.2.u.P.S.y.<.6.f.f.n.|.P.~.w.6.r.^.7 }.xX^.z.e.^.{.A.$.z._ q.Y Z.n.n.m._ ) $.l.l.$.O.$.$.$.! 0.z.[ @ | M.c.e.$.z.R.q.c.m.W.pXn.W.[.#.z.m.Z.x.Y T.n._ ,.y.3.I.f.e.r.2 ",
"g b._ y.g.r.r.c.W.E.r.>.{.S.6.t.N.M.z.'.dXiXqX5X0X#.U F *.l.N.) 2 nX[.'.{.pX[.V.M.5X2X#.#. .o.z.rXM.^ C.b.n.}.}.nXt.^.].b.c.Z.0 r S.,.h.2.E c.Z.~.Z.r.0.^ x.T.Z.R.^.^.m.t.t.n.t.r.q._ Y n.$XXX>.' ^.T.r.[.XX[.XXdXdXsX{.=.2XuXtX/.XXMXE.0.q.r.t.t.n.T.w.[ _ o.* v | _ r.^.`./.|.E.l.[ r.E.E.~.u.pXXXn.[.dXpX|.A.'.[.f.^.{.R.V.c v ~ Y ! 2.l.r.q.Q 2.) 0.u.2.2.n._. X^.t.^.^.P.XX/.u.n./.6.j ^.7 zXBXn.'.R.~.E.tXB.B.q.l.$.n.^.t.t.m.l.m.( Y _ O.z.z.l.l.^.qXq.@ ( q.0.R.B.q.q.m.W.sXsXE.M.pXzX{.$XXXpX{.( T.6.E E 7.P.L.P.y.>.O ",
"a *Xf.1.m.2.0.R. X{.Z.m.W.t.4./ M.].'.XXfXdXuX0XN._ / ! l.z.V.E e BXpXpXpXpXpXpXV.rX6X6XN.N.#.#.uX0XM.C.R.Z.OX}.yX(.^.z./ Z.W.a r m.,.q._ Y n.c.m.^.u.t.( v.n.v.T.n./.m.n.w.f.0.,.q.E E y.^.(.e >.|.~.~..X[.n.^.0XpXtXdXV.tXqX6X[.XX{.R.t.r.0.q.w.0.0.n.q.q.z.< v uX_ ).`.m.t.u.m.c.m.E.tX^.n.~.tX~.L.'.dXsX.X|.[.T.u.^.R.%.=.c v Z C 2._ ) ) ) ,._ l.T.u.t.q.^.^.^.^.n._.P.w./.$X5.>.u.f.r.`.6 @XBX^.r.R.^.{.rXm.R.q._ x.R.^.n.e.w.e.~ [ / _ ~ q.q.q.q.,.+.)   O._ q.n.W.x.q.Q.tX'.c.l.{.XXR.NX.Xc.m.`.,.2.:.2.E 1.L.P.K.*XP.g ",
"h }.(.y.R.|.(.l.r.t.(.~.z.q.4._ 0XA.C. X{.V.0XM.B._ ) _ c.l.V.Y i SXdXuXMXpXMXdXyXz.M.*.#.V.Z.l.Z.M.m.z.l.G. X$X^.^.D.q.0.}. Xw e Z.E :.2.Q t.z.D.g.t.v.b.|.T.n.r.0.n.R.^.r.6.8.0.w.w.w.K.T.f.e 7.&XT./.R.T./.R.V.cXdXW.*.0Xc.W.T.XXE.] E ,.,.r.t.0.E u.6.2.x.* ! tXL.(.T.m.0.q.w.0.>.T.tXT.~.t.^.{.T.~.{.XXXX|.|.n.w.q.( $.B., v o./ q._ E q.I B l.t.l.q.t.S.^.n.^.^.^.f.u.f.q.(.P.f.y.r.>.n.6 ^.zX}.n.[.R.pXpXZ.z.v.m.^.R.n.0.e.w.0.3.l.) z.( _ l._ ! R l.) # +.q.0.w.%.q.E $.V.R.R.E.z..X^.[.P.XX|.y.<.,.,.q./ ,.).%X~.^.f.8 ",
">. Xw.^.^.D._.].l.L.t.r.l.t.u.u.W.Z.l._ v.q.[ R ( ^ [ E [ _ A.) s SXXXR.R.[.'.z.O.X.~  .%.z.k.M.O.X.+.) Q r.#X$X/.^.T.e.P.D.G.r e Z.R a >.2.b.l.u.f.r.r.K.~.m.[.^.^.n.m.e.9.f.y.t.u.f.f.6.r.8.g s.}.q.T.T.) e.l.H.xXXXl.E.tXY x.T.tXH.] / Q Q 2.0.0.w.Q 0.~.l.* N c.5.g.q.t.l.c.l.x.l.n.c.t.n.~.].m.R.~.n.^./.n.[.u.! r.o.O.c.= Z } C ! ~ ) c.~ Y E :.T.u.t.t.^.E.[.~.n.f.[.^.8.P.f.8.u.9.h y.6 b.xX_.l.0.0.m.'.v.6.q.|.XXn.[.n.m.l.n.m.c.+.$.l.O.z._ $.O._ _ @ O.n.E S X.q.) $.B.c. Xm.m.R.~.R.^.XX^./ T ) q.t.n.f.m.'.^.g.,.; ",
";.}.n.^.D.3.v.[.^.u.r.n.^.v.t.d.^.3.O.O.q.l._ q.l.q.q.w.l.r.R.) s CX'.E.[.}.'.V.~ +.~ N.q.l.o.k.#.#.5X6X/ _ h.l.m. X^.m.G._.bXR r z.2.q.q.2.l.v._ ) 9.t.3.q.z.}.^.[.^.T.m.e._ 2._ /.L.f.<.K.L.p >.-X;XL.u.w.E 0.c.E.'.E.W.W.T.c.c.W.Z._ 0.Q Q Y q.0.2.,.r.t.m.$ N V.r.t.,.r.l.m.e.T.q.m.q.n.c.].c.c./.R.y.u.}.^.T.y.) _ u._ #.= C | C Z M ! r.( Y / 0.E.t.c.n.n.m.c.q.m.q.m.~.6.L.8.7.f.f.y.T.6 *X$XL.2./ 2.^.rX^.n.t.pX[.n.^.0.q.^.'.n.l.c.z.! ) _ ) O.q.q.q.# ~ q.0.! ! q.E ) %.o. .[ l.m.^.[.^.xX'.2.R 0.q.q.x.n.[.XX^.^.w.; ",
"d  X^.n.n.^.h.m.^.n._.n.E.n.d.D ^ ^ q.2.4.E E v.'.x.l.m.m.u.j.A E SXZ.V. X{.+.3.0.o.X.5X*.X.^ j.C.#.7X7X^ +.N.M.Z.}.n.h.G.D.yXU w '.w._ ) E ( _ _ _ q.v.t.l.S.~.t.f.r.2.t.t.0.E E Q f.t.<.w.n.e >._.P.`.t.0./ e.[.c.B.Z.W.tXn.R.n.W.W.$.Q Q ) R q.q.r.q.0.0.t.& v [.L.t.r.0.x.w.6.w.w.w.l.c.c.z.c.E.W./.Z.n.L.^.[.L.n.%.l.( ..* B +.! _ Z / ! ! 6.] 0.m.2.2.t.t.r.n.c.x.r.q.q.6.I.K.f.y.w.n.^.6 VXzXn.Q >.,. X^.n.T.n.MXcX X^.n.0.q.l.~.P.b.^ ) R 2.q.q.2.q.t.# O.E ) ) A R Q ) z.~ ! ! ~ ~ n.t.2.t.{.y.R W ,.E 0.n.L.[.x.^.w.6 ",
"u &X}.l.m.v.j.}.XXP.^.[.m.q./ E 2.^ _ / _ ) ) m.W.v.[. Xv.3.j.E ) DX}.z.].[.z.l.m.( O.*.+.o.! ( j.A.l.l.j.+.M.n.m.^.g.p.OXq.A.r w c.r.,.>.5.r.q.q.n./ / 6.,.,.t.,.j.q.y.w.0.w.t.2.w.0.n.0.6.f.7 ;.K.' P._.7.E q.q.[ O.^.c.W.t.n.n.R.W.$./ W R Q 2.2.r.n.t.6.t.& N pX>.0.n.,.E W r.6.t.K.n.'.XXc.c.l.m.t.R.^.P.`.XX).l.v.$.+.V.* B l.A ) _ ~ q.0.) ) w.t.0.,.n.n.q.n.r.r.2.r.0.,.f.7.f.^.t.n.^.8 zXcX^.Z.x.h.}.E.r.Z.m. XzXzXzXT.n.q.v.S.P.~./ 3.2.0.q.$._ q.q.&  ./ 0.0.S ) ) E [ q./ ! ! _ r.t.2.l.n.3.R >.>.) l.v.n.{.m.u.5.4 ",
"f S.j.l.^._ j.~.^.R.D.'.~.n.q.( n.v.z./ l.S.~.u.^.P.n.D.t.w.v.>.e CXZ.'.'.+.v.n.0./ n.Z.O.z.O.z.l.pXZ.+.b.l.q.P.(.^.t.d.L.0.bXi W xXw.0.r.Y 0.T._ w.w.r.Q R E :.E m.y.w.e.' T.y.m.m.E L.t.w.K.u 7.n.R r.$X7.Q w._ T x.R.q.n.) 0.q.n.q.) R R :.R R 0.w.w.:.r.0.& N dXW ~.y.1.n.q.W 6.r.r.q.XX[.m.c.$.w.u.t./.(.u.`.~.m.x.q.l.M.* v #.~ +.I _ r.5.Q r.r.w.t.t.t.r.t.n.q.q.,.2.,.:.6.r.f.u.r.n.~.6  XBX X X'.V.rXA.O.M.m.z.m. XNXzX[.m.m.].3.t.q.v.q.q._ O._ O._ # ~ ~ _ / E Y 2.Q _ l._ ~ _ %.l.T._ _ ) _ Q y.3.t._ ^ l.pX'.z.q.4 ",
"<.yX^.^.'.b.q.P.1.n.^.m.n.n.b.j.'.^.^.b.n.~.~.^.T.^.h.2.t.m.^.p e }.q.v.[.m.m._ 0./ q.b.v.m.q.^.n.Z.M.h.3.Z.'././.g.g.L.S.D.vXr.i Z._ n.) E 0.e.0.) ( l._ ,.2.b.y./.~.w.0.w.t.w.[.T.Q r.T.r.~.p >._.a.r.P.7.6.0.e.q.R.XX).(.0.[ :.Q Q Y R Q Q R U 0.0.Q W W U @ v yXt.n.u.S.n.e.0.0.r.w.q.^.R.R.$.e.^.~.t.g.t.u.(.~.n.r.~ o.z.$ v #._ ( S Q 1.>.8.y.t.r.r.t.r.r.t.n.q.q.0.,.2.,.r.y.a._./.t.L.4  XBXzX X XR.Z.l.O.z.2.h.l.]. X^.m.z.q.^ l.v.q.v.^.n._ l.q.0.! @ _ q.2.) Q Q :.Q ! l.O.O.^ ! ) w.) E Y 2.,.:.q.f.a Y l.].b.b.}.u ",
"O.aX[.R.j.c.n.^.n.^.~.n.t.S.u.g.S.b.^.~.t.S.^.}.^.n.'.^.t.l. X<.e [.~.n.'.c.z.~ ( F z.n.) r.0.r.(.C.O.j.q.c.'.n.t.n.u.^.}._ l.a < z.Y n.>.r.t.n.3.E R E ) l.q.^.^.m.L.r.0.t.0.q.m.R.t.q.n.w.T.e p _.T.u.0.I.0.e.T.n.w.R.P.P.r.0.) ) ) ! R R :.Q R / Q W 1.,.S @ l &Xt.w.r.w.w.v.q.0.e.d.n.(.t.u.0.w.t.0.t.u.L.u.r.y.q.E 2./ z.$ v O.! Y m ,.r.r.y.r.r.t.r.t.q.r.q.w.,.0.,.<.q.,.0.6.7.y.^.~.^.+ ^.&X$XzX[.^. XA.$.$._ z.Z.z.m.b.m.z./ ~ Z.n.m.n.n.2._ q.n.n.! @ I n.t.q.Q R 3 A S ) E / [ S S _ / A -.r.t.2.r.w.Q :.f./.P.OXn.5 ",
"r ].'.n.v.z.~.n.q.u.f.n.3.t.r.u.^.].Z.u.u.t.u.^.[.[.[.'.n.r.^.W e BX}.S.k.o.X.X.! F ~ _ h.n.m.S.m. Xh.l.t.^.'.:X X_.*XVXl.M.Z.h q Z.Q 2.Q E ) / n.v.E 4.,.n.l.^.^.r.P.~.0.w.w.e.T.T.Q y.w.6.f.u j I.~./.w.I.0.0.e.q.f.T.w.u.r.5.Q Q Q ) R 0 q a R ,.,.,.,.,.U   * `.0.>.5.<.W ,.0.2.) r.~._.P.n.0.0.) 6.u.t.F.u.u.8.y.E E 2.l.$ v +.! ! ! 6.r.u.y.r.r.t.t.r.,.r.r.) E Q <.0.r.0.,.,.f.w.0.w.n.4 D.zX XXX XzXzXZ.z.z.j.z.A.Z.Z.Z.V.W.m.M.rXZ.z.l._ 2.q.q.q.m.r.@ Z t.x.l.) A 3 Y Y D D U 0./ Q t.l.>.E E 2.0.8.0.r.f.L.(.~.^.2.; ",
"W &Xr.~.^.l.3.3.:./ _.~.g.q.y.r.~.'.'.^.^.l.E.m.m.m.l.^. X^.}.E e xXf.o.o.G P z.G F / q.n.v.^.y.m. XxX X@X$X XvXbX&X X#X~.g. X5.7 z./ Y / 6.2./ t.(.>.q.4.r.9.v.f.f.$X^.t.r.m.) w.E Q e.w.W f.u >._.K.I.f.L.w.w.5.w.y.f.6.5.w.r.w.6.:.Q R q q a R ,.r.q.1.a 2   c `.r.[ 2.,.0.W 0.0.W r.T.n.I._.P.r.~.~.~.t.u.u.~.u.y.E Y q.m.$ N #.F ~ O.) y.g.u.y.6.t.r.E R W ,.2.2.E ,.0.,.r.0.r.r.6.0.n.T.4 '.zX X X X[.[.l.l.c.Z.A.q.c.v.M.].].A.A.W.c.z.z.m.t.q.l.r.q.2.@  .t.r.q.U 3 Y U A ) 0.T w.0.r ,.0.Q ,.r.0.n.3.T E f.P.I.P.^.u.6 ",
"0.zXy.r.,.L.^.L.K.n.P.f.t.^.T.n.n.[.zX XR.q.l.q.0.q.v.P.^.n.m.s : yXr._ _ ~ G q.l.! S 2._ l.^.b.XX&X X-X%XP.h.F._._.&X^.^.r.}.p > Z.E 0.i a.,./ E 2.6.;.a n.7.E 8.7.u.8.r.n.q._ q.t.0.f.f.6.8.y ;.(.8.f.y.I.,.r.r.f.f.t.w.0.w.w.r.0.Q Q Q U i :.R u a a W R U . , ~.E q.v.v.w.,.0.,.:.t./.(.~.@X^.n.|.~.t.t.[.n.u.n.g.t.3.n.z.$ C  .E _ n.l.S.y.t.y.t.t.0.i <.R W ,.E W :.r.,.q.q.2.y.r.6.t.w.4  X X}.S.^.^.[.t.z.c.Z.A.m.l.X.W.W.}.W.'.m.m.W.n.N.R.q.r.) q./ @ z.^.) U S w S A U 2.2.0.T.q.R E E >.<.r.0.r._ ) E f.K.L.^.^.T.6 ",
"c.BX^.,.R S.P.n.F.b.l.g.D.~.T._.v. XXX'.l.! / U q.f.p.F.t.w.n.h 5  Xr.O.+.h.G h.3.^ ! q.o.j.Z.'.pXzX X X[.Z.j.c.#X%X$Xf.^.m.C.>.u }.0.y.r R Y ,.6.E 0.6.h 2.) >.0.6.y.7.y.n.0.6.n.n.w.f.r.5.8.u >.y.5.8.7.P.2.,.u.L.n.u.t.0.e.n.n.n.r.r.q.) / ) Q R R ,.0.<.C   = q.,.2.q.l.q.q.r.:.0.^.}.(.^.$X).n.n.t.n.q.n.u.n.t.u.f.r._ m.$ n ~ A / 0.u.^.n.r.0.u.q.) R ,.W R R R i R Q R 2.0.0.w.6.h >.1.O ^.NX`.P.f.^.[.m.v.n.q.c.c.2._ v.m.^.^.t.n.n.m.m.m.o._ l.q.q.) # c.t.T 2.) A S F E D E ) 3.R A ) ;.,.n.2.a 0./ / y.[.q.P.R.v.T.7 ",
"V.DXS.) 0.i.r.n.u.r.t.u.n.n.n.^.^.|.{.'.^.n.^.n.w.F.f.2.v.r.0.U 9 N./ +.z.X.F _ b.v.l.3.M. X[.^.[.C.yX XZ.].b.}.`.&X}.l.'.S.P.d 9 C.R E W R Y 6.w.q.t.2.6.E t.r.t.0.r.t.t.t.n.n.q.n.x.q.^ 0.t.u d |.w.f.P.P.r.0.y.f.n.r.y.e.l.l.z.^.n.q.q.q.) Q :.R t.r.<.:.1   , l.u.q.q.x.n.,.:.q.^.^.^.P.n.P._.~.t.q.n.n.r.r.t.n.w.d.f.2.%.$ b l.b E ) 0.6.2.u.~.~.0.) R ,.,.a U i i q a i R 6.6.,.>.d >.0.4  X X^.(.n.n.m.A.Z.c.R.c.z.0./ n.m.R.n.^.q.q.2.q.$.~ G ( ( O./ @ ( r.:.Q ) U ) _ Q E 3.,.r.0.Y ) ) ,.:.:.7.2.Q Q n.2.r.L./.^.n.6 ",
"h.fXq.r.y.Q d.6.f.y.f.t.t.u.q.q.^. X^.m. X}.^.S.t.n.a.1./ :.E : # o.3.o.l.V.q._ b.l.q.n.m.z.m.C.S.h. X[. X X^._.D.n.p.^.^.F.G.j q m.i w.g.,.<.>.0.( :.r.r.6.f.f.n._ w.q.,.5.y.q.t.3.q.q./ n.n.q ' [.t.@XP.L.e.r.f.y.w.y./.^.T.x.n.n.^.l.x.) Q Q R q.m.w.,.1.Q @ v u.2.Q E _ q.t.r.t.'.^.n._._.f.S.[.~.n.t.v.n.n.n.t.t.r.6.r.z.$ M O.n ) 2.) ,.6.r.r.1.r.W D R W R U w i i r i r r.0.T :.r.6.r.4 zX X^.^.n.R.c.l.B.z.z.z._ ) z.l.n.w.2.q.l.l./ _ q./ F C Z _ 2.  ! r.,.R 0 0 [ E A 3.d.r.7.t.3.3.2.q.D Q Q ) r.t.y.r.y.E 0.3.0.4 ",
"~ 2X) 2.r.q.~.y.8.f.r.y.n.v.n.d.}. X^._.}.^.t.n.v.m.^.0.Y <.t.9   J q.z.z.z.b.M.M.Z.( q.q.2.l.C.b.Z.&X}. X[.#X$X~.r.t.@Xb./ f.7.e n.Q E :.:.i.j <.d.s.f.1.a.f.d.y.w._ _ _ Q q._ / 2.n.T.n.w.y.e I.&XI.P.8.f.r.6.f.8.0.t./.[.[.R.T.T.t.2.v.q.2.2.:.r.0.r.).f.6.# c g.E ) Q 0.4.n.^.n.q.~.~.`.^._.oX(.^.t.r.q.t.T.t.0.u.u.9.>.^.* M X.b w ;.U :.,.1.6.6.6.0.R R R i E W R R D W r.a.5.;.>.>.a.^.4 bXzXn.}.t.Q q.q.t.z.z._ ( z.E.E.b.l.l.3.z.*.F _ ~ o.~ H J ( _ @ C :.E U Y 0 Y S G ) y._.7.,.:.) ,.2.2.d.:.w.r.~.y.f.w.K.~.n.E % ",
"v 1X^ t.r.r.~.OXu.y.n.y.l.g.(.S.@Xn.n.n.n.^.^.'.v.^.v.l.E Y _ < @ #.O.O.( ( O.V.V.A.c.z.o.l.R.W.V. XxXC.p./.}.&Xf.u./.f.y.l.m.a w m.y.j a R 1.3.:.P.f.g.1.y.P.F.r.2._ q.2.i.3._ 1.g.m.l.^.t./ e E [.I.(.y.L.f.w.t.r.u.n.^. X|.|.^.u.2.2.,.q.q.q.,.,.>.a.f.L.>.# c &X0.Q Q q.n.^.^.R.t.0.t.u.y.y.L.P.}.^.n.n.S.t.0.0.,.0.P.y.t.$ M X.m w :.R W 0.6.6.8.1.6.) ,.a a :.,.R R ,.y.n.P.r.<.>.6.a.L.6 BXpXq.r.n.q.^.q.3.l.+.2.z.M.A.V.V.$.O.+.~ +.o.~ G P Z n S ~ _   v Y A U U R ! ( _ 2.y.u.y.,.R Y :.E >.8.3.0.y.T.q.3.0.f.~.~.w.$ ",
"L >X_ q.r.r.r.u.y.1.r.r.g.g.n.^.L.L.v.[.~.n.[.u.3.t.U 0._ / m.1 $ 2Xj.m._ O.v.z.c.c.z.c._ X.c.j.M.yXxXA.G. Xf.f.f.v.~.(.u.t. Xh e T.0.8.0.q.P.S.2.h.0.2./ ) P.f.r.2.w.q.g.a./ 2.P.$X^.3.q.F.n.u 7.b./ n.f.f.g.^.t.n.P.^.[.|./.(.u.q.0.2.2.q.q.R 0.q.1.7.f.L.q.# n $X2.,.r.q.^.'.^.^.q.6.t.u.0.r.P.P.}./.^.n.q.q.t.,.R ,.(.).~.# N @.S E E ,.0.0.,.y.r.r.0.0.n.0.,.r.>.,.>.f.L.L.(.^.0.>.y.w.u.4 cX'.v.[.'.z.v.q.q.! _ E 3.M.l._ l.G  . .~ ~ #.X.~ Z ~ $.S M !   V _ Y Y U U S / 3./ ,.,.) ,.) 3.Q D R ,.e.~.y.0.9.<.>.,.y.r.0.* ",
"B L r.r.2.r.r.Q R >.1.6.t.r.>.8.~.P.n.P.^.^.3.E 0.0.S s s W n.<   #.2.d.2.3.l.z.m.O.) / E ~ o.c.z.C.zX XXXb.0.n.u.n.^.m.n.0.}.>.4 5.a j ) ,.P.,.E 2.2.4.r.6.oXr.,.6.y._ v.(.1.Q ,.~.(./ q.q.q.p 7.t.r.y.f.L.t.I.L.e.n.n.^./.(.t.q.n.^.t.q.q.E R q.n.r.a.s.P.O.# N $Xa.,.,.r.n.v.m.^.v.n.r.y.d.oXf.T._.n.(.K.t.m.v.R t.u.g.q.r.@ c z.S ! ) D ,.,.0.r.>.0.r.6.r.r.,.0.>.E >.y.i.a.n.^.r.8.5.0.t.4 A.'.q. X'.Z.c.2.E S q.o./ _ / O.O.P P Z o. . .J Z V ~ G N C M   Z F m S A :.) 2.2.Y 0.:.) / ,.r.) _ <.>.6._.r.:.,._ r.t.f.S.,.# ",
"c @.Y hXvX,.r.>.>.<.6.E q.6.W R r.a.q.n.n.m.^.r.0.Q 6.CX*XW a.0 l 2X,.nXiX) q.q.c.O.S ! ) S U E O.l.y.m.}.D.n.P.f.f.w.HXVX>.^.j 4 y.>.GXvXa.2.4.Q 2.y.r.3.f.6.0.r.L.S.' ,.f.r.r.2.y.0.LXvX0.r.9 7.L.f.LXFXf.0.r.f.t.l.0.y.T.n.q.R.'.n.2.2.t.v.2.2.,.r.LXFX7.! @ c Z.(.HXzX,.0.q.^.R.n.t.t.1.g.@Xg.n.P.~.P._.(.2.q.t.t.HXVXE /   = _ ! mXtXR 0.,.1.<.>.r.r.1.y.t.W R ;.R ;.y.f.r.t.t.r.KXVXD D O Z. X^.LXGXq.l.~ ! _ l.~ S F n C ..n  .G +._ ....G C  .8X| c N @ H ! Z gXA.D E 2./ U 2.2._ ) Q ,./ E :.;.6.a.6.9.w./ ^.LXVX,.,.% ",
"T N.S 7X,.) U R Q r.2.) 2.:.Y U ) v.u.[.^.x.E.2.R 0./ nXoXt.f.i J 6X0.yXG ,.,.n.q.) A Y Y ! ! G +.XX$X~. XP.8.^.^.^.f.FXs.w.^.j 8 f.e :Xs.f.:.f.d.q.t./ E ,.,.Q f.8.d.f.w.y.y.n.y.t.r.vXr.4.,.e >.(.L.FXI.8.>.' y.y.0.0.r.t.r.t.'.m.q.2.2.2.`.q.q.Q r.:X+X8.2.@ c Z.r.:Xs.6.t.Z.^.z.2.y.d.E t.n.n.^.u.n._._.P.w.0.:.g.VXr.w Z @ * Y ! ].q.i 0.r.] 0.u.y.r.0.~.r.r d W ;.>.C.l.f.^.f.0.-Xg.h 3.O zX'.pXFXG.R q.l.z.%.G S S C F ~ Z B Z Y o.P +.z.~ S L @.n * l   V M _ A.) 3 i :.) R R ,.Q r.,.3.3.D R E 0.,.r.r./ / T.&Xy.A 2.6 ",
"W n./ 3 m 1 b E ) ) Q 2.E A D ) h.3.2.n.m.) O.2.S ) :.a Q 1.}.2 v @.E 0 b R l.b.q.) 3 3 S F ~ ~ Z c.].}.[.q.F.D.~.^.F.h h 5. Xg 8 oXg 8 i >.f.L.q.2.q.Q Q 0.w.0.w.t.6.1.W Q E :.1.f.>.;.g r E 5 j @Xs.5.p 5.6.5.r.8.,.Q W R R n.q.Q 0.0.2.q.m.q.2.q.>.g e 9.Q @ v ) w a g ,.u.t.~.t.6.f.r.t.t.g._./.f.r.L.K.f.L.q.0.>.W < 3 / @ * ! < w > i Q 6.0.y.g.1.r.r.u.0.a a R ,.,.~.q.r.f.f.5.i e 0.n.o M.].w.q.w ) l.z.( _ Y m m n n Z n S M ~ M C n l m ! v c $ m M   v M 1 1 : b U W 2.S S 0 R ! S E S T W R r.,.,.>.T r.' T 8 ,.,.4 ",
"e }.w.Q U C ( F.S.t.~ ~ / ) ) _ l.l.b.m.$.+.O.z.j.A.~.:.<._ *.- $ <X+.F M %.#.O.#.#.Z M Z  .F Z Z ..].XXpX}.}.`.}.}.^.t.q.R.zXj 8 @Xi.f i d.9.n.n.w.e.t.t.l./ E e.^.T.0.w.0.) E r.t.f.Q E q.q.u j g.f.5.8.L.r.w.2.,.,.) r.n.u.^.t.,.n.n.q.q.).t.r.d.P.7.a.P.3.@ , o.Q R >.L.~.L.`.).K.g.S.^.t.u.K._.$XL.(.$X@X$Xt.(.L.S M F B # = l.0.A A ) _ ~.^.~.t.2.u.u.l.q.u.q._ l.r.^.t.m.m.r.2.r r.t.y.. L ,XB C ~ z.c.z.%.( ) S  .} J L ~ C C C Z M V v v F v l v N n   v v M 1 n A S Y ,.Y ! Y ,.) S S m A <.) f.y.r.6.>.t.T.6.,.t.0.4 ",
">.h 7 e 7 & - $ $ < 9 * * < : : 2 b 1 3 1 , 3 A 0 M m 1 b < c * * v * * l * - 1 < < * $ * * * $ $ b b W <.j g h a e f p e e d y 8 a g y f j 5 5 f 9 9 r i i w q r U s i ` W W ;.j 0 r p 9 7 e e j p d p d j 8 u e 0 q 3 U q ;.s.Q A i w w 0.t.A w R j j 5.j U $ c c < < 2 q e 3 U 2 < < 3 3 1 m a 7.r.5.6.7.9.5.;.a A < * $ = @ * : , < 9 < 1 3 3 < 9 9 w 0 < < i w < < q a f h a j e 7 p 8 ; % v = * = < - 3 U S 1 - , = 1 * - * - * - = * * , = = = * * * * @ = $ $ $ 1 * < < w q 9 < : q 0 % & : 9 u u w : 5 u h 5.i h s h 6 ",
"u g e 7 2 - l * # # # # $ = = z x N z l z x x x v v c * * = = - - $ @ # @ # $ # @ = l # @ # @ = l = # $ Y w Y A e i 4 : 4 4 < 6 r.O.e j <.l.! S S C 3 8 9 A w w ^ ~ ~ O.%.R.%.l.|.u.q h u e e ) 8.>.' d W 0., - * l * = l z = - b c * z V H B v N z M _ g g : * v * $ $ = * z = $ $ * * * N v B x +.m.O.m.R.[.l.K H N $ * V = = $ @ c = , , v , = v B , c , * N x N * =  .E ~ ) r.l.s w h u A w c l $ $ * x x v v x l $ $ = $ # z B x x x x x x x c $ $ $ $ * B = * = * * = l = , v * l z B l $ = * $ C ~ ~ N z N C ( O.u ;.;.7 ",
"a zX_.0.y.E _ [ E q.q./ m.E.X.=.0X2X0X#...fXeXwXwX3X3X| | 1XqXB - ,X| ..O.%.B.#.=.qXqXq.+...! 0XN.6Xz.tXMXMXcXdX XpXT.T.n.[.zX7 E JX[.yXbXcXrXnXiXhXwXC.V.5X7X5XgX9XgXgXgXDXJXDXLXDX7XBXnXcXBXz.r.AXMX XbXZXZ.XX}.aX XW.#.5XG.n.xX].'.BXJXBXhXfXgX3X| qX-X-XzXu v.SXN.@.,X#.7XW.l.7XgX5X8XgX8XgXwXgXJXDXLXLXJXDX4X<X<XL L <X9XN N | H | +...0X0X+.5XMXbXcXiXiXgXwXkXdX0XSXBXSXDXVXtX X&XxX^.'.4 O.L K L } tXW.wXfXgX=.o.#.<X=.V.4X4X9X,X<X,X,X,X<X<X| | H | L x ,X<X3X=.#.fXwX1XaXwXQ.2XiXBXM.G A.+.m.fXqXqXfX0XnXfX5XBXcXCX[.4 ",
"e T.' U U r >.y.a.) O.>.5.~.n.l.} } %.} *.{.Z.| ..%.=. .Y Y m.c # H c v v b M M / *.X.U W R U ) x.x.0.0.R.E.z.x.0.l.0.' W f.v.4 U hXe.t.m.h.j.Z.A.{.!.M._ Z.Z.k.5Xz.7X6X7XuXfXjXwXtXZ.'.b.y.^.( >.*Xm.r.8.R.l.T.r.c.t.c.X.j.t.,.^./ ) sXMXNXcXE.Q.W._ _ q._.@Xp r.bXP.u.,.q.z.l.) *.V.l.z.qXB.6XqXaXMXcXZXBXBXdX=.=.=.! C ..@.N K | M F ! ~ _ 0.w.R.sXn.^.~.t.'.6XZ.|.R.W.MXxXpX~.^.L._.Q n.f.; l.*.A A ) ~.v.c.x.q.M.~ ! l.~ ) =.%.=.| 2X@.K @.| H N B v N V z @.*.=.) ! qX{.{.m.m.q.R.5XE.m.^ ~ R r.E.E...].n.m.m.2.E.x.m.l.4 ",
"7 w.E GX:XE r >.>.U ! Q ,.x.y.^.x.x.&.%.B.*.@.V.+.W.0XSXwXy.q.N $ B c 8X2Xn M M Y X.O.Y U Y q.$.c.e.M.c.tX{.m.e.5.Q Q HX-X>.2.> Y kXq.LXnX .k.wX6XM.5X5Xz.rX5XV.uXV.7X0XwXaXiXwXqX{.'.DXnX2.[.l.W '.R.LXvXR.T.E.r.) ,.n.X.c.^.t._ ) 3.tXdXZXMX|.l.n.q.DXGXP._.u a.&Xw.UXGX2.c.{.m.z.W.W.'.aXR.tXQ.pXCXBXcXMXBXuX0X0X=.hXqX! ~ l N ..~ iXrX/ n.m.t.B.dX^.^.[.n.[.W.$.tX#.pXNXxXXX@XT.r.KX*X8.f.4 ~ ..! LX*XE ~.tXz.+.c.%.F M X.[ W.tXaXqXqXE.*.| | Z K 9X| c V z | v.V.PXVXaX}.{.e.) ;.q.V.tX}.u.O.<.6.{.{.A.Z.c.0.0.f.HXVX0.0.O ",
"7 0.h -X1.Y u e i S ) R W $.r.x.q.f.XXXXXXW.cXXX[.*X.XFXr.f.T c $ J , A.M m m ! I O.) ! X.+.$.H.W.T.R.{.qX#.B.] 0.6.<.:X8.U 0.; w dX0.VXf.q.z.5XV.7XA.N.2XA.iXC.V.7XwXV.wXaXtXcXBX Xl.zXr.Q }.o.;.(._ zX,.2.f.[.t.6.1.w.q.m.v.~.q.r.^.pXuXdXNX XT.z.'.GX_.L.(.u y.|.6.GX|.n.Z.V.m.M.0Xm.V.fXW.A.l./.BXBXpXzXMXqXB.q.=.qXm.! ..* v #.%.].) U 0.n.q.R..Xn.R.{.[.W.B.z.Q.M.cXpXXX_.@X6.t.-X@X6.n.4 J K o.=Xf.i ~.XX{.'.l.S ( [ =.O.[.ZXZX{.{.6X@.1X1XI M.<XV = K z L C #.cX(.x.R.m.x.>.Q l.E.{.~.y.^.) 2.Z.E.c.V.c.0.,.r.-Xf.W 2.4 ",
"6 r.Y 4 2 e W i R R D i w ! E T ) 6.T.[.W..X.X*X$X*X(.p 0.>.) < # %.3 < < < A ! M O./ 0.=.%.x.E.W.m.e.w.H.#.V.0.1.,.h u 7 u r.4 8 '.' u 1.2.A.l.O.[.v._ l.w.E.l.j.N.Z.k.0X7XqXiXdX].R.l.Y Q ^._ d xXl.e : E ^.P.r.a.f.y.2.2.t.0.q.,.n.].aXT.pXpXpXMX^.T.w.K.`.y r.xXw.r./ w. XM.q.q.z.O.m.uXm.m.n.^.{.cXcXMXdXtX0.q.$.R ! $.=.* Z ].E A w ,.q.m.n.B.n.,.m.m.m.%.Z.z.l.q.pXxX.X_.(.K.d g p 6.E # B J A W 5 W W.E.0.E.n.Q z./ ~ x./.MXXXR.W.2X2X@...| I U < b H l H I ! E 9 y.m.q.Q >.0.) 0.n.v.D ) 1.r.m.Z.q.Q.*.Z.m.:.Y 2 0.0.4 ",
"e ~.] i w i :.a ,.,.2.t w R / 0.q.) t.t.q.q.r.n.{..XE.,.R d.n., $ J )  .! Z ! ! ! $./ Y *.( x.dXR.A.R.r.[.t.m.e.r.>.>.<.>.<.w.4 5  Xt.d.:.j.iXM.E }.h.h.T.n.W.(.}.C.Z.V.7XqX=.A.C.M.z.q.w.n.XXQ p /.|.5.j 3./.T.9.9.f.r.6.,.2.q.] 0.q.z.Q.n.cXdXNXBXMX!.u.|.$Xg n.BXT.T.e.m.t.l.'.tX0XO.M.A.m.m.rX&X X^.}.&X^.R.Z.W.A.2.l.X.N.* V N.~ / q.x.R.n.2.c.n.2.W.R.x.m.x.Q.B.l.pX|.xX&Xr.g.f.>.L.VXP.. B ~ D a a r.W.^.S./.~.r.w.o.M.(..X&XXX{.W.1X=.*.Z } C c M ) c * H o.Y w R l.E.q.>.r.1.) q.S.u.,._ r.w.m.E.m.tXN.Z.V.m.#.2.q.0.O ",
"a ^.A s W W >.i a E / i u a R z.l.l.B.[ ! / t.r.{..XQ.e.:.,.L.w $ | Z @.O.V.#.#.M._ _ C P  .q.].T.[.A.n.tXT.B.y.t.w.t.r.n.t.(.5 r &X^.}.n.^.qX#.[. X( ~ R.[.rXM.V.6XW.wX7XW.l.z.C.M./ _ T.n.^.E j XXn.P.y.y.^.XXL.u._.f.f.9.2.0.q.t.n.m.XX^.MXMXBXMXBXZXXX}.XXp yXDX[. XXX'.2.n.}.pXtXB.M.l.x.0XW. XpXn.[. XXXv.0X0XW.l.q._ *.< V A.l.V.R.{.tX/.m.Z.0.R m.m.q.{.m.m.x.l.XX[.dX|._.$X$X$X-XP.2.< Z l.,.g.g.E  X'.~.q.<.6.y.(.q.(.`.MX.XV.W.2X@.6XB. .C C Z ! c * V Y A T 6.0.E.M.R g.a ) t.r.x.u.u.r.q._ +.q.5XZ.W.E.tXrX/ h.2.4 ",
"g ^.) >.E R R W q w R ,.R 0 a l.[ ! $./ ,.0.r./ e.q.R.m.:.Y y.W @ +.~ ..} *...X.O.m Z G ~ Z / _ 6.c.z.'.uXZ.z.0.q.n.q.E / t.j.7 5.BXt.^.q.[.zXn.^.n./ 4.t.n.[.l.2XC.z.N.=.].z.z.yXz._ ( [.~.n.E h }.f.^.7.f.XXXX[.(.^.L.u.0.Q 0.q.e.t.u./.@X*XXXcXMXNXxX[._.$Xg }.SX XpXXXZ.2.r.n.'.E.z.z.q.q.qXW.XXpXr.n.T.|.m.$.z.A.A.c.t.A.< V [.e.E.Z.{.{.n.x.R.[.q.2.) 0.E.l.l.x.c.sXXXsXXX`.L.f._.@X@XQ : V o.2.L.E 2.C. Xt.,.u.u.(. XxXXXxX[.m.~ @.Z.%.@.2X( ! ! C M b $ V / C ! ) l.pXm.r.d.r.r.,.>.0.u.l.m.t./ l.x.O.z.tXZ.rXMXn.C.,.o ",
"e n.] Q w U U R i i i :.Q R a $.) ! +.Y T E R :.c.t.q.e.R U 2.a $ +.M #.} +.=.o.0.r.R >.Q y.t./ E m.l.[.Q.M.^.r.t.n.0.W W 0.v.e Q CX[.}.n.S. X^.w.9.L.OXf.T. X}.q.^.V.n._ c.Z.z.].b.l.3.v.u.n.r d }.f.t.g.^.pX[.^./.|.L.0.r.r.w.t.e.L.P.|._.*X_.cXMXXXXX[.P.K.6 n.BX^.pX[.t.Q y.r.R.[.l.m.l.l.qXtXdXdXl.t.n.XX^.E.q.l.m.l.t.[.< B Z.q.W.n.tX.Xq.R.m.R.2.:.q.q.m.x.l.m.|.XX[.R.bX&X`._.P.t.$Xm.& J j.1.r.) l.^.[.T.n.u.~.y.(.XXXX`.[.W./ _ X.B.*...! / / q.! C   N C ! E Y O.dX^.L.r.0.Q 2.) ) ^ z.E.m.l.E.Z.B.z.A.M.V.dXm.S.W . ",
"q n.E R 9 R R R A 0 r W Q R i $.~ _ O.W R U D Q x.n.m.q.R R :.0 $ #.C B.m.%.%.! r.y.0.U >.8.j.Z i 6.n.T.m.l.u.t.y.w.w.w.0.n.^.e W bX^.T.^.^.R.n.u.t.F.E E [.[.[.n.n.^.n.^.z.c.z.A.M.j.l.m.S.4.8 W $Xr.y.t.[.W.R.XX^.$XL.f.6.L.L.$X_.K.~.$X$X%X_.&XxX$XxX_._.@X6 f.HX[.[.'.c.Y 0.q.n.n.2.l.m.l.0XaX{.0X0.w./.&XXX[.0.3.z.v.q.n.2 V [.q.E.T.z.c.R.R.t.t.Q 2.R.2.m.q.q.l.T.XXR.^.NXXX'.$XJ.u.t.0.$ K #Xr.q.D.c.[.m.v.t.n.u.n.T./.n.r.T.x.r.t.[ $.$._ ) C b M V ~ @ B Z ) ! _ B.0X`.t.,.E Q ) q.q.o.c.q.3._ *.$.z.c.k.#.c.0Xq.'.3.% ",
"r m.6.0.E E E U ! Y E R q.E a / E / $.r.2.D i R / ) Q R E U :.q $ V.! X.Y %./ / a.>.:.Y >._ J n ,.t.r.2.l.q.;.t.l./ q.n.x.m.'.e p -XS.7.t.n.n.[.OX^.f.t.q.Z.'.'.^.R.^.m.[. Xb.M.A. Xm._ l.f.b.r d `.f.r.8.|.[.n.^.R.q.r.f.e.~._.@XP.L._.XX(.*Xq.q.l.|.xX$X^.&Xy f.CX[.E.4.q.Q _ E 3.q.2.q.l.z.A.pX XW.l.n.}. X^.m.T.^.v.v.q.V.7 C ^.w.W.w.R.R.n.2.0.0.q.v.].{.l.) S.^.t.E.Z.g.xX'.[.$X2.,.0.q.# H *X%X/ _ m.|.~.q.,.E n.w.r.~.u.y.~.x.^.c.r.n.x.[ A S m A C ~ # H Z b ! [ z.*.g.y.>.W ) ) x.m.o.q.q./ l.B.) ..5XZ.N.z.#.( c.) O ",
"w m.Q W ,.q.t.) S / ) 0.e.) T t.y.W / S Q Q U S 2.R D i U U r.u $ =.Y ~ m Z S :.) U W W Q M Z >.) y.w.8.R.w.R E l.( e.T.e.x.[.h W BXT.n.F.n.[.[.^.n.f.t.[.}.yXm.S.q.}.^.n.[. X'. XpXm.OXq.w.n.w ;.F.y.,.oXXX[._ l.e.0.e.T.^.P.@X$X_._.&XMXn.*Xn.g.R./.XX/.[.`.e n.BX}.N.c.Z.q.m.q.q.m.n.n.m.^.}.rXXX0XO.^.XX/.^.l.r.^.c.) l.].< S [.q.R.r.l.R.n.n.q.q.t./.'./.w.~. X/.^.'.B.Z.XX X X'._ P.~./   K VX~.3./ c.Z.2.,.,.0.q.:.r.T.|.~.u.u.y.t.r.0.Q ) E / Y m ~ ~ $ N I S ! _ M.tXq.Q 7.>.W ) w.m.m.r.l.) l.E.R.B.N.z.k.c.h.! j.! O ",
"< O.W e R ,.W R R Q E R W W w.[.(.~ 0.w.t.2.D / q.W U w R U E 9 @ X.! ! ! P ! m ! ,.E S C x ~ 0.>.6.>.5.t.e.2.q.q./ 0.e.t.e.R.u ;.cXx.q.b.m.m.^.t.^.n.p.D.^. X'.'.F.v.n.u.S.[.}.b.z.m.F.q.0.r.: e ~.5.r.y.q.T.u.e.e.Q u.(.^.f._._._.$X`.&XXX&X_.`._.^.).n.t.XXy u.DX Xm.A.m.q.2.m.V.m.E.^.n.n.R.n.R.[.x.n.[.^.t.l.n.^.m.q.r.[.- ~  Xq.q.) O.q.q.x.q.~._.`.).%XL.P._.$X^.b.l./.[.^.l.( /.t.D.v.  B }.q.q.) ) ! r.2.,.q.t.n.~.T.T.y.r.T.u.~.r.>.E 0.q.) ) M S _ @ v ! ! Q E O.z.E Q 2.2.) r.r.x.x.q.q.q.x.'.[.n.'.z.c.C.c.k.k.S . ",
"w l.T R E E a R Y E E R R E e./.n.n.q.r.q.t.D E 0.Q i i U E / 7 @ +.! S S S Y Y Y 2.U w S C q.1.T W <.8.' ' >.0.2.r.t.n.^.n.[.u R pXn.n.}.^.n.~.9.|.`.n.n.~.'.'.q.f.p.(.4.q.[.].z.j.l.^.^.q.3.5 u f.6.i.r.) t.~.r.e.6.0.u.K.P.@X%X_.@X$X|.n._.I._._._.^.^.r.P.8 a.DX XZ.+.m.W.c.q.l.z.Z.^.w.x.n.m.R.}.R.R.[./.1.w.n.^.v.m.3.x.: !  X^ ^ ^ ( ) q.0.w._._.@X$X~.y.K.r.f.v.S..XL.t.~.3.l.u.E >.l.: Z 2.) q.q.T Q q.Q r.n.2.w.n.w.q.r.r.n.~.y.) 6.t.q.2.Y q.~ ! R   Z M S :.<.2.3.,.r.g.:.E 0.) ) T l.v.Z.Z.dX Xk.R.M.z.N.z.N.5Xo.% ",
"<.n.T W R A Q ] R E ) ) r.l.l.q.v.n.t.2.2.q.S R Q Y i R ) / U 5 # z.) Y D E / Y D 0.W W 0.m R i.E 0.w.r.5.E s W Q n.f.1.m.f.c.- , 6Xt.y.D.n.n.^./. Xh.l.y.f.^.n.i.r.u.y.3.m.R.A.}.u.l.R.T.6.) 8 g n.5.a.6.0.0.e.t.w.' 6.1.P.P._.@X_.$X$X$X@X_.L.I.*X_.^._.n.P.6 9.zX^.N.X.c.A.Z.q.z._ '.n.T.S.Z.^.w.n.q.l.n._.^.^.f.t.j.m.n.'.< ~ ^.! ^ E ^ 3.t.r.L.P._.$X^.P.K.f.r.f.q.`.n.3.n.~.v.].'.q.f.) & C y.0.q.E ,.q.q.2.w.q.0.r.t.t.q.0.u.~.t.0.q.r.r.u.q.! ! A E m   V n U E 2.l.) _ 0.6.,.0.0.A E 2.O.l.Z.Z.Z.A.W.rX'.#.+.C. X}.t.4 ",
"p v.y.>.a w w W :.,.W E T.[.t.r.0.w.w.t.w.0.T R R 0.:.,.:.r U 7 ; ) R U A E 2./ R R U 1 3 / R A ) 8.>.a Q W >.,.6.r.0.2.q.r.c.< = tXS t.R.R.[.n.m.m.v.^._ l.n.h.j.c.[.h.O.k.M.N.C.}.R.0.~.e.S.e i m.' y.W 6.w.w.w.0.W 0.Q 0.u._.@X(.).|.$X@X$X(._.L.T.[.`.f._.7 n. Xn.rXz.c.v.q.q.l.q. Xv.Z.R.^.n.0.T.( l.b.^.m._ j.yXZ.[.Z.A.& ~ [.E A Y Y ! 7.f.P._._._.^.P._.L.P.L.e.l.~ O.m.q.2.D.pXg.r.n.# o.&Xu.0.E q.q.0.,.q.r.:.q.n.t.r.w.n.u.2.t.) ) u.u.r.0.E S E n   C C M _ f.! ] 0.Q ,.>.R ,.,.E 0.~ z.m.m.( '.'. XW.j.m.^._ _ 3.6 ",
"< 2.y.W a w >.y.,.r.7.Q ^.^.n.n.y.K.u.w.R a :.w U r.n.n.:.0 R y 4 0.2 A w w Y 0.S m U R U S 1.j >.>.>.A Y A 0.r.E ,.w.t.r.q.].: * c.Y r.Q r.Z. Xx.R.t.t./ q.l.n.[. X XC.F.{. Xk.k.].3.t.^.^.^.e s T.5.6.6.6.T.n.w.r.0.6.r.u.5.L._.t.q./.|./._.n._._._.n.^.f.f.6 0.[.e. XM.B.c.n.c.q.^.`.}.'.m.n.n.n.R.q.l.'.|.l.3.j.C.'. X[.C.e g.^.0.,.0./ ) 0.,.L.@XL.T.u.t.(.u.n.q.q.O.o._ q.q.w.r.t.0.p.q.@ J ~.t.n.q.q.0.E R W ,.q.^.^.n.r.n.n.n.q.l.t.[ u.n.>.a Q _ ) E   v n M q._ Y r.n.Q ,.Q ,.T ,.) ) Z.M.z.m.]. X|.R.R.^.q.~ ~ 4.,.4 ",
"$ U >.7.1.>.,.E w R ) q.r.q.n.).M.l.L.,.S R W a R Q q.,.,.R W : 4 m.R 3 Y Y 0.S ! ! Y 0.F 0.5.d w i R a Y Q 2.R R x.t.0.T.q.! # * z.l.0.R ,.n.].R.[.n.t.e.r.t.n.^.j.}.Z.C.}.k.z.G.G.b.^.v.^.'.e i ~.` 5.,.t.^.n.r.y.0.' 9.r.Q u._.t.q.q.q.T._.n.n._.^.u.e.f.f.4 Q yXl.n.O.$.z.z.Z.Z.m.n.h.[.^.q.[.n.0.~.D.}. X3.3._ j.z.l.^.&X8 ,.m.W r.n.n.q.2.:.,.w.,.2.q.q.q.q.0.0.) l.R.3.2.0.t.t.t.S._ l.$ J q.r./.q.,.q.E Q 2.q.^.'.n.R.^.T.n.q.r.q._ q.^.R.] ) ,.0.Y E @ C ! U ! ~ ) q.n.) 0.r.0.0.r.q.~ z.c.G.l.^.^.m.^.t.t.) E U S A o ",
"# :.6.>.R Y E 3 w a Q 0.r.0.t.n.R.q.r.,.2.E R h h ,.0.W W W y.e O n.a < U 6.E 1 / Y b c R ,.R ,.W R T W w i r a W / E w.^.q.3.: * Z.u.2.) ) l._ v.E.'.n.n.t.t.t.t.~.R.^.D.m.M.k.C.C.m.n.v.^.[.e a T.0.' 7._.n.u.e.q.n.t.r.0.0.t.T.u.q.q.q.q.n.K.T.T.~.n.t.f._.7 w.uX0.l.~ +.$.c.Z.A.R.m.l.Z.n.m.'.q.2.t.[.].'.'.3.O._ j._ ,. X; R t.r.r.t.) n.t.q.) :.Q 0.0.0.r.0.0.0.2.q.q.x.q.Q 0.t.t.s.n.c.# o.c.) q.r.0.6.t.r.2.q.r.q.n._ z.h.q.r.0._ ) q.c.T.e.0.] 0.,.>.O / Q b S  .) ( ( 2.2.r.>.r.l.q.q.l.z.c.c.^.^.^.n.2.t.0.^ Y S b . ",
"$ r.Q E U U a a ,.0.t.q.q.m.t.v.3.2.0.E R ) ,.>.R <.5.>.<.<.9.7 % Z.a < 3 S n r U c A S A E _ r.T R R i r D i 0 i Q ] m.y.r.u.e * /.d.r.E 4.Z.^.B.T.R.u.n.d.t.j.b.^.n.n.h.b.l.m.v.[.F.^.[.'.^.w j f.Q 6.j 9.w.w.w.n.T.R.u.~.~._._.w.u.q.) 3.q.) ) w.r.q.) t.t.6 E '.Y E ~ _ F ~ z.].[.t.x.m.R.m.n.n.t.0.n.l.b.b.^.z.n.3.q.u.}.6 R ^.q.u.n.S ,.e.'.v.:.) q.0.2.q.0.Q :.2.q.) 0.2.,.0.y.~.T.l. .$ J x.0.u.y.0.w.w.Q Q 0.l.x.v.3.q.v.2.) 2.2.) e.n.q.q.r.2.6.0.r.O m._ M ! o.Q 0.2.) 1.>.>.>.r.v.x.Z.Z.Z.c.c.t.c.q.E t.w.A :.E 3 o ",
"$ E U / Q A U ,.2.t.u.u.h./ Q t.0.t.w.E R R W W ,.y.r.r.a.>.>.: @ n.R 1 R 3 w 3 m U m Y w d D ) R 0.W q q r R w R T / 2.7.>.t.5 - tXr.0.2.n.z.Z.R.R.D.^.P.:.2.r.p.u.^.OX3._ 4.9.n.t.u.n.n.^.'.e u n.5.0.6.7.y.n./.R.u.n.L.u.n.P.u.e.^.e./ E ) 0.) 0.2.2.) y.r.4 0.cX,.>._ _ +.F.c. X[.R.Z.R.'.R.q.x.m.t.2.b.z.h.l.j.q.m.b.m.^.7 8.(.^.t.r.A ,.,.q.n.2.:.) 0.0.0.t.t.q.E 2.0.E w 2.0.y.u.t.l.+.$ J M.t.u.1.>.:.0.r.,.2.0.q.n.n.n.n.Q ! Q ) ~ x.l.0.2.r.,.>.>.w.4 '.q.~ S E ) 2.4.U 5.6.p.y.m.].m.z.A.Z.l.q.l.c.t.r.1.6.A w / r.o ",
"$ E Q E U R R q.r.0.0.t.n.2.E W 0.,.) Y 1.1.w W 5.y.f.9.8.<.E < # ) r i c 3 U U R w R R S W a 0.>.W T i R <.R w r 0 a W ' r.n.6 r '.0.6.q.z.v.b.c.+.m.&XF.4.3.p.4.p.OXf.4.p.u.d.S.f.y.n.n.m.n.u i K.w.f.9.5.y.~.T.n.t.T.K.f.y.T.^.~.K.u.q.2.2.2.) 2.2.T ,.E y.8 r.-Xa.n.^.[. X&X}.^.w.l.R.l.:.^.m.) n.~ ) l.j.( Z.l.:.3.l._ j.8 y.bX~.Q 0.E R 0.,.0.q.l.q.q.t.q.Q 2.q.Q 0.m.0.2.q.q.0.9.)  .( $ J X.! t.5.y.,.,.,.2.0.Q q.n.q.q.u.R 0 3 Y / 2.r.e.q.t.r.w.Q Q O '.m.! Y m i 4.0.R 5.p.t.n.v.M.m.Z.c.t.q.t.m.m.E ,.0.a w D R :.o ",
"$ ,.a.D A R R Y Q 0.,.t.n.q.W R E w A R :.>.w E >.j 9.5.>.i :.: @ t.R W 5.8.0.Y 6.6.) E S >.,.2.,.E i r R r.Q r w w ,.r R E m.e s {.<.,.z.z.l.b.^.z.'.'.m.,.r.v.q.n.n.S.b.~.v.3.h.3.n.v.n.n.R.i W _.w.T.K.6.f.g._.^.T.P.f.9.f.$X_.P.n.~.q.2.q.q.) q.r.2.t.0.r.6 w.zXr.d.v.D.^.&X[.l.r.t.n.D.t.t.[.[.m.( ! ( b.h.c.b.3.3.l.z.M.5 '.bX) q.q.,./ 2.t.t.m.m.m.n.0.q.) E T q.q.n.3.n.u.q.t.9.^ ~  .= V } U q.r.~.u.,.R T Q 2.q.q.r.0.L.0.A E U :.q.n.n.n.^.n.r.S M . +.G U A A U _ W Q r.r.r.0.m.Z.m.m.r.t.q.l.l.r.:.,.4.>.Q i R r . ",
"$ S 6.a 9 >.Q Q :.6.2.t.t.t.r.,.R w A E ,.i W f.9.q q w q W ) * # n.:.a r :.A a >.d 6.,.>.a W ) Q E a a r 2.W a R W Q i Y R r.7 = 6X2.1.n.v.S.c.O.~ z.c.$.Y Q / F.n.D.^.D.f.3.3.OXP.n.n.Z.m.'.s r.xXt.[.~.f.f.K.|..X^.^.~.9._.|._.(.n.n.n.q.0.q.q.q.0.2.r.w.f.4 ) 5Xm.m.[.#X^.#Xn.n.n.q.n.^.Z.'.c.R.m.) _ m.t.E Q _ 3.l.z.z.C.q Z c.S ! Q / 2.q.n.t.R.^.m.n.0.q.n.q.) q.v.n.q.n.n.^.^.t.C  ...* J J ~ _ 7.6.~.~.u.t.,.Q q.q.v.q.n.q.Y _ Q Q q.q.^.n.n.~.6.U Y @ } o.A Y Y _ _ Q 1.t.t.1.,.n.j.l.y.y.u.q.r.) D :.Q T R a R Q i . ",
"$ M 0.y.r.>.>.6.A W ,.E E A Q y.E R 9 R g.y.y.f.i.R >.;.R / A :   / 3 3 w w R j 5.8.a.Q a q q w W R R i 0 i i R W W R a D i >.: * j.:.R d.d.u.q.n.( ~ O.q.E 0.q.R.e.t.n.p.p.r.p.3.#Xn.l. Xb.].s u.:XP.~.0.t.~.^.T.e.^.~.^.f.}.|._.P.K.q.q.q.0.0.q.t.r.0.>.0.3.4 0.C.l.x.n.`.`.w.q.t.w.n.T.[.'.n.q.n.l._ v.n.0.D U 3.3.h.z.z.Z.: v *._ S 3.w.w.w.t.t.n.'.^.n.n.n.t.q.q.q.m.n.n.t.n.T.n.( ~ ..J # J J n _ n.u.(.(.^.^.n.n.^.v._ 2.l.2.E ) 2.E 2.q.[.n.r.u.) S m @ H X.~ U ~ ~ 0.w.n.n.^.0.1.w.n.,.,.l.t.r.r.>.,.<.,.:.a r W >.<   ",
"* ~ S >.8.T r >.E 0.,.,.W : p R E A w w ;.f.y.r.8.S ,.6.m U M $ # l.A 0 U R ;.>.>.>.R r r w r R i 0 i r w 0 0 i R D D w 5 0 W o * ..:.6.r.a.d.2.2.l.E / ! F l.~.n.q.h.~ _ f.2.3.( g.n.2.n.n.].g 6.bXT.f.w.8.T.n.^.n.T.T.^.w.f.^._.~.t.q.x.q.2.2.q.t.,.a r r.2.4 w.pX3._ h.^.}.t.q.0.0.q.^.n.T.t.l./ Y O.n.n.j./ _ q.,.3.3.j.Z.% c K Y U 2.q.w.o.^ / n.n.q.2.e.l.n.q.q.0.2.q.n.t.t._ ) O.%.Z B # K K M q._ q.u.y.t.n.q.n.m.l.3.F./ :.U S 2.:.0.n.^.^.J.r./ ( Z # K L O.) q.'.t.O.^.u.[.t.t.w.f.E D 0.Q 0.r.:.1.E ) T >.,.5.r.1   ",
"= Z 0 CX:Xf.,.0.>.w.n.0.,.R d q R r.R r <.y.q.S S F / mX1Xb M $   h.;.NX}.>.a Q T 6.>.a U W i ,.R r D 0 w r U U W 0 q nX|.w 1.4 *  .D HXNXr.r.E 0._ S ^ ) _ ) ^.c.w.w.o.l.S.d.d.n.d.) CXVXw.|.u 5.|.^.GX:Xh 8.u.n.^.m.'.[.^.^.L.^.^.q.q.n.q.0.q.q.r.;.GX:Xr.S.; Q zXR.HXVX4.d.n.0.r.w.t.n.t.n.q.( ) _ :._ m.}.S.h.v.b.HXvX( {.: C z.n 3X0Xq.rXz.'.G.^.2.w.2.v.R.v.q.0.,.2.0.0.r.t.2.o.hXfXC H $ J | $.hXW.A t.r.q.t.n.q.h._ 3.n.,.Q 0 3 i E n.n.O.2.y.nXuXY M # L ..#.SXbXn.n.t.'.m.q.S.~.F.n.1.r.1.0.0.r.y.r.6.1.Q m.GX$XE S # ",
"* N < &XK.9.p Q ,.E 0.0.w.K.>.U E r.r.7.L._ ! S F F ! wX/ C A $ # C 9 -Xs.5.d Q 0.a.>.r.Q E R 6.1.a W R R R R R Q 2.W *Xa.d >.: = K ) nXv.,.y.x.z.q.v.q.z.q.R n.n.n.n.l.h.t.^.oXt.r.r.VXK.<.u.7 5.~.w.VXK.d ` w.m.T.R.R.^.^. XL.^._.g.w.q.q.~.m.n.y.w.:Xs.W P.4 Q pXm.FXL.;.r.t.6.6.0.r.n.m.n.t.n.n.q.r.3.j.n.l.( / o.zXS.E ].@ n z.Z qXl.l.v.n.n.n.^.zXXXt.n.m.v.E Q Q S S ,.0.t.r.( #.o.M V $ K K  .@.U 3 ! 2.n.q.l.q.q._ z.v.E T Q R U R 2.t.v.E y.XX_ w ~ $ L ~ ..W.5.r q._ 3.^.^.n.~.^.f.r.S.y.1.) q.S.g.y.8.R ] Z.0 A m   ",
", K A < >.d u a ;.) E W 6.r.w.n.r.w U 0.M b m ! C M < # < = S & #  .< % 5 ;.>.T r.8.>.6.>.>.W >.W r 0 i a a i >.r.8.d 6 ; 9 / & * K R < A 1.q.W 2.0.n.,.a W 0.f.t.T.w.w.7.<.S.OXf.i.:.r e j n.e 6.}.` j ;.W 1.w.n.^.^.T.n.n.P.f.f.a.P.L.g.f.f.t.w.P.7.h p E r.4 <.}.,.2.E 0.w.w.6.>.a.d.q.w.f.q.g.n.E 2.q.m.n.q.! Z c c w 0.].# V @.V G A ! R.x._ T.w.t.n.[.t.2.6.W R Q A S W W E ! Y w 1 ^ K $ Z } c = * n F 2.g.3.q.f.g.~.~.q.R A A w w i a r.w.y.>.a 7 U v $ K ! E T 2 0.y.v.2.0.w.f.^.(.8.<.y.t.t.l.r.r.L.~.n.:.< & * , S @ ",
"= J = U r.0.0.0.U l.0.Y ) 0.w.n.0.R U C M b b n m C b 1 b C C $   L n m w / r.r.2.) ) 6.y.8.y.9.r.>.0.a.1.>.y.P.y.q._ m A M ~ $ * Z.~ c P %.v.O.l.u.~.`.~ Y @X^.T.^.P.@X#Xt.#X^.(.oX9.t.f.}.&Xe ' zXf.f.g.w.n.^._./.XX$XXX XXXg.~.(.|.zX&X(.s.g.P./.[.5.y.3.w.; ,.}.l.n.m. X^. X^.}.#X}.[.}.p.M.b.&X X X[.3.~ F P #.o.M Z ..N.# H 4X| N I ..*. .z.z.n.n.T.XXt.0.q.,.Q R w :.M 1 1 A a.6.t.H K * H K v c b ! ^ _ ~.}.b.P.*X`.S.q.3.S D Q E r.~.~./.m.F Y q._ C # K J O.) ( A. X Xq.n.t.oXL.L.t.y.`.(.].pX*X].v.q.c.O.! 1 c V V @ ",
", * ; 7 7 > u d 3 < < e e e 9 i e 2 , * $ # * * $ - - $ * * * $   $ $ $ & & < < : $ : : % : : : % % 5 : ; ; # $ & $ $ & $ $ $ $ = = * * * = < - , w : : : : < 7 8 h h h D h u e h r e h h g h u h g g e 7 6 u p u d j ;.d p u p d W d j g e g g p g y e u e q ; E i 2 i a >.W d 7 i h 8 7 i T r 9 h >.<.r * = 1 1 , * = = * c = N = c c b v v 1 1 1 A U U R j 0 2 9 ; : : $ @ # $ * j j i = = c v , = * * * , q g j g >.P.7.R r 9 < < & & 9 3 < - * * * * $ $ $ N c = = = U ,.W 5.5.h g > * < 8 e 9 >.<.U U A 1 1 = * * - * - - ",
"K v Y T r 9 ! W c = = D <._ ~ E 3 l * = = * * = = H H l z v B c v - $ - - * = = c H B B N v N c * l * v H H H N B B B B B c B H B v v c v x l $ $ z = * N b * c c.n.5.>.;.0.;.h l.O.O.l.x.W g u 6.` s E o.Y w s $.B.l.Q _ >.d h ;.;.;.6.O.$.z.c.V.%.( O.O.~ ~ Y o.Y Y T ;.u 0.0.h w s y u o.z.E E ` W s R * = = * x B = l z N V V V V B N v H N H K B V v V V c * N = V H H B x H H } Z B c H H N , * = c c 3 p d ' d W 0.;.j i c = & & 5 q q 6 , v l l v * # * N = * = x E p d e.x.0.U l < 2 b l , c v H H H H H B x H H H B = ",
"= 3XSXqX7XiXBX7X1XM...wXCXBXBXpX%.G Z H H Z J K L 3XgX2XL 3X9XN - ,X@.=.L | L 0XqXwXwXwXuXqXnXtXW.wX=.wXwXwX8X2X3X4X4XwX3X<X4XL H 4X,X<X3X1X2X+.~ X.O.c.'.l.O.B.CXBXXXtXtXMXzX XfXcXNXzXpXn.T.6 0.CX XnXcXpXcXBXJXJXSXnXbXNXxXcXAXzX|.zXcXcXAXDXDXkXDXDXSXJXJX3 Y hXA.pXcXBXBXCX}.[. XpXBXCXBX[.yXpXpXXXpXV.#.#.#.L >X#.@.<X9X= <XlX7XgXwXwXhXgXmXkXfXfXNXNXDXfX6XkX3X4X9X4X3X2X3X<X9X3X,XK <Xx } ,XV O.=..X*X$X&XXX[..X|. X$X^.aX'.q.@X(./.P.L.MXE.W.z.V._ ) # ,XO.m.W.0Xv.`.&XdXcX_.S.|.&X$XVX*X'.|.XXBXaXdXwXMXqX@.3X6X1XH @ ",
"$ 6XyX#.V.z.iXM. .@.l.l.}. XrX) W C A b 3 n ~ n m ..@.F  .@.wXc $ L Z ..o.Y / ~ %.c.B.W.E.~.[.l.! +.Y ! X.#.=.X...=.#.| } K <XB B ,XK L L L | R U R 6.r.e.Y E ) .X!.L.f.^./.r.0.R.R.[.R.T.W 0.2 U XXt.rXW.0.^.^.{.pXT.^.l.l.^.XX Xn.~.f.'.A.}.XXpX.XfXMXpXiXkX8 D uXl.V.E.zXpX^.t.R.t.u.[.tX!.l.x.m.R.x.n.~ O.~ C } ..M v } | $ >X<XG ..O.m.W.^.~.`.*XMX*XK.[.*X`.dX'.Z.2X6X=.X.=.2X@.~ C V ,Xz V } C $.e.T.R.f.f.T.w.y.r.6.P.f.^._ R 7.9.y.>.a T.T._ u.w.r.6.% B E r.m.z.2.y.f.n.%X_.r.K.y.r.l.q.r.e.w..X[.&.E.Q.] $.*.} | B   ",
"1 wXm.PXSXz.0X+. .L ! ,.'.cXA.q.h./ M ! Y n Z ^ ! ....mXwX..#.b * | A hXuXq.u.y.q.'.E.aXdX(.c.x.z.V./ X.*.#.#.o.*.2X=.kX9XK | z B | K JXqX ...Y ^ ] r.<.c.t.<.r.{.XXn.P..X[.n.P.^.^._.LXVX;.0.6 g zXS.LXCXQ w.y.sXMX[.T.[./.[.[.f./.XXn.}.dXaXA.m.^.dXUXDXB.fX2 w rXT.HXCXx.rXn.n.|.T.n.n.V.R.,.0.F.^.R.m.m.! _ / $.*.gX7X .J $ >X3XM.SXfXn.dX&XV.5XMXcX{.~.E.n.XXMXpXyXMXiX*.+.V.#.5XDX3XC 1X* B I ) LXGXT.n.f.^.y.y.u./.v.^.n.{.[.>.y.f.<.j d n.n.t.LXVX5.r.% X.) ~.LXNXi r.}./.&XbX^.%Xt.Q w.0.0.x.u.{.W.%.R.R.T M.wX5XJ B @ ",
"S gXn.SX~.X.) O. .X.n n / {.A.~ M <.E m ~ U U F ! ( ) wX! M X.E , @.U nXr.u.2.q.u.E.'.pXXX'.'.O.l.B.z.V.@.=...X.=.6X*.qX@.| | v B | C 3XS Z  .F l.t.r.2.$.t.y.^.c.[.t.L.T.T.t._.^.T.f.FXf.u ;.; 7.&X0.HX}.) t.^.XXkXdX'.pX'. XMX^.q.cX^.].cXtXpXfXc...CXK.[ tX3 L.AX^.GX Xx.[.6.w./.u.t.r.) x.n.t.n.l.m.v.m.! ! ~ ! _ V.3.C J $ L 2XM.zXpX(.&X&X*XtXE.W.'.n.Z.~.E.BXzX XcXtXV.M.qX#.*.iXO.C @.= Z ) ) FXP.J.R.t.^.7.7.t.'.P.u.l.A.M.E r.y.R a >.O.Q T.VXI.p r.6 A.! [.fX2.e q.^.R.rX].xX&X_.P.x./ T _ t.e.c.l.x.m.d E m.) C +.: ",
"q wXl.Y ~ b  ...%.c.l.S A B.qXl.) E 0./ 3 ! ! Y C A U m A ! 6XE - #.W i R 6.Z.E.'.XX{.cX[.~.L.y.l.+.q.W.0X=.~ z.o.V.X.m m J | B B L V N c J %.! r./ ( _ t.q.y.E.E.{.^.`.^.n.n.f.f.d.0.;.u u W 7 w.bXQ O.$.U 3.[.}.cXBXpXdX XpXBXXXZ.rX].].XXA.6XW.A.+._ w O.qXr L.dXe.n.^.'.0Xw.p.w.w.q.n.z.Z.t.q.~.t.m.l._ ~ / ~ q.Y U S S P $ V V.2.! >.g.$X`.~.|.XX{.m.x.~.|.`. X X X XtXv.W.W.5X+.! A o.1Xz Z r.j d u w.L.y.J.7.a ,.l.n.f.v.Z.j.>.y.1.<.>.1.u.,.i 5.u d 8.4 b.r.8.*X6.f.2.3.u.yXVXXXT.P.`.x.W Q ) U ) l.l.( e.8.T A : x.z.o ",
"S wXm.~ V  . .X.J o._ S Y G N.n.l._ t.q.E [ q.) l.! ! Q Y X.W.w * 7Xl.) 0.[.`.Q y.E.}.pX'.XX~.2.^ '.t.%.Q...~ A.M.V.$.! ! @.1XB B ,XH J  .B.X.! A D ! E ,.u.y.l.l.R.~.`.I.L.OXf.n.t.(.d.1.0.0.7 x.BXl.M.B.x.e.~.pXMXBXfXtXXXxXpXzX X Xb.[.'.XXwXM.pXfX0X$.pXdXj ;.fXA.C.zXuXA.n.w.t.0.n.n.m.R.w.r.n.w.v.o.o. .) ! +.q.Y Y ( ..* V A.l.^ v.).|.].3.&XrXn.Z.n.|.&X&X&X X`.`.V.B.#.z.B.l.q.z.V.#.z X.L.6.w.w.x.~.y.f.y.Q 2.g.9.y.l.z.m.r.8.1.5.r.5.w.Q >.5.W Q 6.4  X[.3.z.E.XXL.g.[.R.MXW._ Q /.t.S Y E < R q.n.E.z.) { x.0.E.X.. ",
"~ BXrXo.M...( ~ O.G ! M ~ E O.3._ v.D.2.t.c.q.~ c.Z.W._ / x.A.R - wXl.n.`.'.n.r.t.[.R.m.L.n.m.w.^.) q.w.*.$.Q.0XqXV.*.+.X...1XN B 3X..$.%.%.J  .S A m T 6.<.6.E.{..X_.f.K.n.f.n.f.d >.7.f.f.K.7 w.pX,.'.'.n.^.^.{.|.jXBXaX&XsXpXXX}.}.3.}.[.}.fX XtXfXiXE.tXxXu i {.[.yXcXBXpX|.e.T.e.n.n.0.R.6.0.q.0.l.r.~ S ~ z.+.z./ S / *.< B yXZ.m.}.b.C.}.g.0X6X^.XX~.~.`.`.|.(._._._.{.*.{.m.c.c.E.Q.=.l  .^.6.e.e..X`.u.y.P.9.8.>.8.y./.m.q.P.8.6.r.r.6./ ,.0.r.f.g.r.6 ZX].z.b.c.q._.g.c.j.H.6XM.Q J.0.E ) U E E 1.^.{.^ ^ +.Z.l.'._ . ",
"E hXk.G ...._ O.O.o.~ ~ X.~ *._ o.3._ v.) n.l.( l.W.Z.l.l.q.].Y c fXn.~.[. Xu.q.n.{.}.'.w.] q.0.w.) / E ^.%.E.0X6Xc.+.+.X.X.@.x B ,X..V.X...X.( S C E 0.r.~.t.m.[.XXL.P.T.f.y.i.t.0.W >.a.9.K.6 d [._ tX{.Z.^.^.cX XdXkXcX^.[.}.pX Xn.(.^.P.[.cXc.k.0XcX X{.|.7 5.pXm.}.MXNXzXpX[.0.q.n.n.x.R.t.t.}.n.q.0.,.S o.c.n.n.2.A z.E.3 H iXj.Z.[.v.l.v.~.z. XuX^.n.`.`.(.`.`.`.(.~.^.l.z.0.x.c.[ n.*.l $.P.6.T.6.n.T.f.f.P.,.r.y.7.,./.^.r.y.a.6.8.1.5.6.w.,.r.f.P.y.4 NXzXT.[.[.P.P.t.W.3.l.*.~ 2.v.Y ! S S E <.n.XX[._ _ ( _ / m.~ # ",
"w BX{.O.M.O.z._ F ! ! Y S ~ +.t.l.2.S E 0.n.n./ ,.n.c.3.z.n.tX/ , SX`.^.`.`.~.n.n.'.m.x.0.q.l.x.x.0.0.R.^.W.z.m.A.%.!  .#...@.x v ,X..E.O.} J b R w.0.) 2.r.0.0.y.^.y.f.y.9.8.8.n.~.t.f.f.u.T.7 / dXz.pX'.z.[.R.fXMXaXBXzX}.[.pXfXiXn.l.'.^.[.pXE.M.0X X|.dXA.; 0.CXXX{.dXxX[.xXxXn.e.w.n.R.m.t.n./.r.0._ 6.R ) n.v.q.r.r.T.`.& N iX2.n.n.q.3.n.n.[.[. Xn.t.[.}.~.~.`. X~.}.R.y.[ m.q._ [ $.m.l T..Xy.T.6.L.K.7.9.f.r.8.K.6.5.~.L.L.r.5.r.8.>.8.r.6.>.>.) 2.6.6 ZXxX^.pX~.(.y.r.XX^.2.E Y ,.E E ~ ( w :.Q v.M.l.n.l.O.T.0.A.~ . ",
"w nXA.c.m.c.z.o.~ ~ S E ! +.+.Y E S A ) 3.z.t.t.n.t.l.Q ) l.rXE , CXn.w.).L.n.y.n.E.v.r.>.0.l.r.q.6.<.y.z.} l.q.+.X.M X.@.@.1Xc z 3X..z.O.( ~ r.2.q.[ / W <.] x.~.n.y.w.a.w.t.t.w.0.P.L.u.(.t.7 / 5Xq.A.x.W.XX}.aXpX XcXXX}.pX X}.A.R.w.u.D.n.[.|.R.R.A.n.pXXXp P.xX[.rX{.pX0XzXXX_.T.w.q.R.W.S.@X$X(./.l.q.>.r.c.E.r.0.w.y.u.$ ! ).E t.n.t.l. Xz.G.^.^.[.^.^.^.~.~.S.g.y.{.'.m.q.c.0.,.l.m.].- u._.T.f.y.J.0.R y.y.9.,.y.0.<.w.f.>.>.q W <.D 8.,.W >.>.w.0.r.4 yX X^.&Xu.t.u.2.W.n.,.0.t.t.q.0.T ) R Q D <.q.3.(.,.~ ^.w.M.{ O ",
"S wXA.N.uX'.j.O.~ 2.3._ ) ~ j.E E R A Y ) l.l.q.S.c.l.^ c.W.uXA < BXc.m.'.u.m.^.l.x.m.u.0 W ) W r.y.d 0.~.O.H ~ '.V. .X.#.@.=.c c 1X@.H @.r.n.~.t.t.n./ ! 0.t.0.u.0.1.y.w.6.r.8.r.T.L.>.y.P.P.u E  Xl.V.A.dX[.|.aX^. X X^.^.^.r.[.[.^.^.~.t.d.^.^.|.{.|.R.{.XXk P.XX^.'. XxXA. X^.n._.~.n.R.zX Xt.e.,.) l.^.r.r.u.6.t.k.m.^.Z.; ~ &X( l.c.q.q.^.V.'.].^.^.'.~.^.S.~.~.S.g.`. X^.j.).L.E ( ^.M.* ) _.W f.P.r.t.T.,.<.y.f.r.` 6.0.5.>.a >.r.r.6.>.<.j f.>.r.u.T.4 yX`.).XXn.u.t.q.E.u.,.2.0.2.n.0.W U U E q.2.) 3.v.3.j.l.2.l. .% ",
"Y qXM.k.z.l.) l.q.6.,.E r.v.z.3.( Y ) 0._ T.0.R.m.( $.c.aXtXuXD -  Xr.^.'.t.^.'.n.'.q.) E S ) S.v.r.>.q.y.r.X.H z.W.+. .@.@.@.= = | } X.} ~ r.t.R 0.0.U Y ) u.(.I.6.f.f.f.7.>.6.L.^.y.7.f.8.K.u Q pXl.Z.{.pX^.^.pX X^.R.}.OXn.q. XpXD.D.}.w.(.F.^.[.XX^.m. XzXp 5.bX^. XNX XrX Xm.e.y. XT.XX^.n.'.^.^.R.l.m.n.0.y.6.r.n.{.].Z.< / {.F n.n.q.r.S.].}.^.^.u.S.~.}.}.^.S.u.g.F.(.(.l.`.`.y.y.t.D.$ ^ n.Y y.f.8.2.P.t.>.>.f.K.Q T.r.>.a.7.1.W 6.7.,.,.W 6.>.>.5.>.% z.R.S.^.m.n._ u.{.n.6.r.Q ) q.Q ) ) 2.2.E E ! _ _ / +.^ 6.R.( O ",
"w wX[.B.c.c.v.'.x.! ~ S >.t.n.q.Q Q t.T.c.^.w.l.n.S z.n.tXE.A.< < bX2.u.y.t.^.E.l.m.q.) Q ) 3.m.r.q.>.0.>.2.z.X.~ m.O./ _ +.M.= = K n I o.} l.w.,.r.q.0.T.^.t.(._.$X_.K.%XP.' 6.,.2.r.a.0.w.r.8 1. Xl.R.m. X^.^.|.}.T.R.^.}.[.w.uXE.b. X X'. X^.^.|.{.n.^.pXzXu 6.BX^.'.'.R.XX^.0.r.^.&X$Xn.q.^.R.[.XXpXZ.Z.n.n.l.u.y.y.E.'.m.< l..X^ t.n.t.r.y.~.].].].t.t.~.~.^.~.~.^. Xv.S.~.v.`.3.3.3.O.O.# 2.L.r.9.n.9.a 8.a.r.8.f.f.y.^.f.8.,.<.5.>.,.<.,.5.>.:.>.j 8.R   ( ~.z.n.t.t.2.t.l.Q 0.2.1.r.q.R _ T.0.p.S / 2./ ~ ,.n.t.y.[.l.o ",
"M.SXpX}.XX[.n.^.^._ l.) _ x.m.0.r.0.q.u.^.n.w.n.^.].c.W.W.l.^.q &  X<.t.u.b.E.m.x.m.l._ ) w.m.u.R t.L.r.) / '.( I O.z.l.l.~ @.* * C b ~  .~ _ u.0.q.m.u.q.q.r.r.9.I.I.f.f.P.w.W A E 0.n.n.t.w.7 Y  Xq.c.m.[.^.XX^.v.j.G.^.}.^.[.pXpXA.[.^.^. X XT. XpX X^.^.[.u K.BX[.^. X XXX_.0.n.^.$X_.t.n.XX XXXzXpXc.E.Z.}.l.x.n.0.r.u.t.: #.NXq.n.t.^.^.u.^.].]. X^.n.n.u.~.~.~. X X X|.&X&X~.r.2.Q 2.3.@ Q 2.>.9.f.9.8.9.a.9.f.y.j 1.L.8.1.a.a 5.y.<.;.w r <.<.>.;.K.6.  ^ `.q.q.2.r.,.r.E U ,.2.,.t.t.2.) t.R / ,.Y / / _ q.x.u.t.x.) O ",
"3 qX'.B.XXT.m.'.}.~.6.Q n.B.m.t.w.r.u.~.L.f._ v.[.pXQ.$.c.c.W.< - *X:.2.p.n.Z.].q.0.2._ q.q.l.r.q.u.`.~.m.) m.B.%.$.^ $.! ! ~ $ $ M , C Z F F ( ) r.R.0.r.x.y.n.K.r.P._.9._.f.W W l.w.e.l.t.T.e E  Xm.B.x.^.^./.^.q.h.'. X^.c.].rX X[.pX_.^.[.}.}.[.XXXX^.n.pXy t.BX^. XxX'.XXXXT. X|._.n.^./.dXxX[. XXXc.c.Z.yXm.m.u.r.q.q.'.4 _ zX2.n.u.n.^.u.^.^.S.^.^.^.~.[.tX X].^.&X XXXC.b.b.l.3.2._ g.@ E r.s.7.f.7.9.f.s.8.8.f.9.j f.E ;.<.;.,.y.1.,.-.r a a 1.R s.6.@ j.n.S ) 2.2.0.2.Q R R Y ,.u.~.,.t.m.E / 2.2.q.r.0.w.r.L.) 0.! % ",
"= 2Xz.B.R.O.E.'.(.y.w.r.r.<.0.r.6.n.[. X'.t.0.2.m.v.Z._ r.3.m.3 < zXq.,.1.6.l.}.c.0.) O.l.q.q.w.r.d.f.^.[.R.m._  Xz.E o.) C Z : * B 3 S C S M / u.q.v.x.r.u.6.6.L.l.^.%X0.P.f.r.;.Q e.w.w.r.n.e w n.l.m.x.l.^.n.^.^.l.n.^.n._ 5XZ.rXrX X}. X^.^. X^.n.^.}.|.cXe t.BXz.XXpX X[.zXxXzXzXXX[.[. XdXzX'.pXuXpX XrXnXyXc.n.p.x.^.`.; / bXn.^.^.t.`.t.~.^.^.[.].^.~.^.~. X'.].{.j.Z.j.l.l.v.h.v.v.~.# Y 2.K.7.a.5.f.L.n.y.y.f.K.r.f.>.<.6.,.2.,.>.<.>.a ;.>.a.1.7.>.@ S.w.:.2.2.0.3.r.U Q 2.E E R ,.E ( q.R R W E q.t.r.1.r.n.2.q.0.; ",
"G wX].E.l.z.n.l.P.n.L.g.K.9.>.' t.^.^.m.'.m.[.t.T.|.T.] ) 0.~.q & `.2.q.t.r.n.w.Z.m.l.l.Z.Z.w.l.n.u.d.'.}.].E.m.c.l./ ! E Y C * * G 1 b m Y n :.Q r.t.t.`.(.n.6.f.T._.*Xf.t.n.P.5.T w.l.n.w.0.2 h m.0.0.Q l.m.R.'.t.n.d.t.n.n.m.C.'.pXrXiXzX}./. X~.n.Z.zXv.XXy n.BX^. XpXpX^. XcXXX^.^.S.n.^.xX^.^. X|.'. X}.zXpX'.m.m.'.^.'.: ! &Xr.~.~.t.y.2.t.t.u.^.|.}.^.u.t.~.}.].l.l.b.3.3.l.3.3.h.v.&X$ Q P.a.9.7.5.5.<.f.~.r.t.u.y.t.6.r.h.3.2.R >.y.5.>.j a.f.,.r.,.@ n./ R ,.R R 0.e.S A 0.E Q 2.6.E 2.,.,.E R E q.u.0.u.m.t.u.R.Q # ",
"( hXuX#.+. X XR.S.d.n.S.[.^.t.h.l.n. X Xm.r.}.A.v.^.n.) w.2.}.e 9 ]._ c.'.[.T.E ) ) c.E.c.E.z.Z.].^.l.E.R.).^.c.~.0.E / / ) / & * B v C m C 1 U A R <.0.r._.%XL.S._._.(.P.w.K.%X%Xw.r._ l.e.e.w T  Xr.e.w.0.T. X^.n.^.D.S.^.^.S.m.x.^. XpXzX^.#XzX X^.'.xXz. Xu f.zX[. X|.[.[. X&X}._.*X_.P.^./.|.xXXXXXR.[.[.e.l.^.[.T.^.S.$X6 y.bX8.y.S.r.~.n.y.y.~.}.u.~.|.~.^.^.Z.n.h.l.l.v.b.2.E h.v.q.*X& >.s.k 9.1.a a.8.,.u.f.S.,.6.u.y.r.h.b.m.y.,.y.>.>.7.7.f.h s.,.  _ 0.! q.2.R W ) E R Q a t.3.2.,.2.6.W W W E r.w.y.L.r.:.y.L.7.; ",
"9 V.5Xk.E.pXxX}.t.y.6.r.q.n.T.n.[.n.}. XXXP.m.m.n.n.n.l.z.Y Z.e 5 rXq.n.^.'.[.q./ E z.c.c.c.r.E.^.m.n.^.^.`.oX(._ ) ) n.+.! ~ # * B b C C F b C A R W 0.r.r.y.f.s.f.u.w.t.6.6.L._.q.w.q.e.w.^.w E  XQ T.(.,.0.n.n.[.[.n.[. X[.D.^.R.~.^.^.'.^.}.^. Xv.b.C.h.zXu 8.&Xn.^.T./.T.}.^.$X@X*X/.L.^.f.[.XX[.^.T.T.e.n.m.rX Xm.[.R.^.6 n.bXn.L.S.u.}.^.y.S./.~.u.0.S.n.].[.r.n.+.M.( / h./ r ,.u.p.$X# Y 6.5.a.s.a.a.f.,.f.~.L.r.r.u.q.3.3.n.n.L.q.f.a.9.7.j 5.7.a.1.  z.q.) v.Q W Q R W 2.2.,.t.R Q W W ,.a i R Q ] u.r.y.9.7.1.f.9.o ",
"r 5X XN.v.[.}.[.^.[.n.a.r.8.0.u.^.n.n.^. Xn.0.0.e.e.6.t.q.E [.h y zXw.w.u.w.0.l.l.l.t.n.Z.R.t.n.n.t.t.r.q.g.~.d.y._ r.2._ / ! : $ z - C n Y D / q i R y.d.I.5.5.s.a.f.t.w.t.n.0.y.T.l.e.0.t.n.u Y n.Q l.n.) l.n.n.n.t.n.'.^.}.}.[.^.m.^. X'. XXX^.&Xl.^.#X^. Xp y.pXt.XX X'.^. X X@X(.^.n._.P.@X|. X^.^.w.R.R.[.].'.'.Z.A. X X7 ^.&Xf.P.2.~. Xv.E 2.}.~.n.t.t.b.m.n.q.q.v.n.( / l.3.r.1.D.q.(.# Y y.>.8.5.7.k s.r.0.2.2.0.w.K.Q q.t.w.L.(.8.R W 7.j >.7.a.f.,.@ B.n.q.q./ 2.E A ,.2.0.t.w.6.r.0.,.>.W R R W >.y.u.L.g.8.a 9.r.o ",
"r rX'.m.j.'. X X^.[. X^.n.f.n.w.n.^.^.n.^.v.] _ 0.1.T ! 0.6.^.j y xXw.q.T.q.0.r.W 0.0.n.Z.c.l./ l.t.v.) E r.g.i.6.g.1.2.2.E _ : * B b b , A Y E a q ,.s.L.P.f.y.9.oXf.w.r.w.e.n.t.0._ 0.w.0.u.e Y n.r.T.^.w.n.^.T.n.w.n.T.^.~.^.^.n.^.n.'. XcXzX&X|.n.^.|. X}.p u.zXn. XXX}.}. X[.[.|.(.^.^.`.[.^.^.^.n.e.A.[.'.n.n.[.^.^.n.^.7 w.#Xf.P.2.2.b.A.t.:.r.0.t.r.2.S.^.r.t.u.t.n.n.n.S./ ! n.D.'.^.4 R E i K.,.5.<.5.>.,.f.t.w.Q 5.>._ q.f.L._.r.p p 5.j 7.7.9.a.R @ Z.v.q.n.R.m.) ) 2.,.m.q.t.<.,.2.2.,.R ,.>.R 6.r.u.u.Q ,.E 2.>.o ",
"* tXj.R.j. X^.~.^.n.^. X^.[.R.u.t.t.^.t.q.j.m.e.n.Q :._ l.U j.;.u bXt.^.v.] / q.r.q.E / l._ 2.q.l._ l.c./ Q q.,.a 1.y.0.2.D 2.6 $ l 1 S A < U D p.s.a.r.r.f.f.,.f.I.f.f.6.u.y.n.K.6.q.x.n.0.0.u Y  XT.R.n.T.^.^.T.T.l.t.S.^.L.}.(.^.~.~.[.[.[.^.^.P.~.^.~.^./.e u.cXT.n.}.[.|.|.^.u.L.P.^.^.n.^.^.^.^.^.n.^. XpX[.XX{.[.n.w.^.7 t. Xf.^.f.4.v.3.S.t.2._ ( ,.2.2.u.S.t.^.^.l.t.t.t.q.q. X}.m.u.5 r.f.0.t.E E n.K.y.7.6.r.6.6.6.8.y.y.r.K.L.f.>.7.9.5.j y 5.j >.@ pX^.q.e.l.n.S ! S U t.3.2.S ,.,.r.y.W R >.6.r.5.r.q.E ) ) E <   ",
"1 nX X}.[.n.l.0.T.R.'.^.t.^.^. X[.^.T.w.m.O.'. X^.q.0./ ^.n.z.A 5 A.m.R.O.O./ l.n.2./ O._ / / n.b.O.z.c.l._ ) ) r.1.r.6.q.:.,.< $ n 0 D ! Y Y 1.d.n.P.f.r.q.P.2.,.f.@XP.K.e.e.u.y.r.r.w.e.w.w.w E iXm.A.[.[.[.}.n.[.^.t.^.^.S.D.n.L.~.^.'.[.Z.n.^.^.^.^.y.L.`.e y.XXu.e.[. X|.[.[.[.P.&X^.T.n.~.^.^.~.~.T.^.XX X XxXR.A.l.m.[.8 n.bXr.OXg.L._.(.^.'.D.h.v.~.h./ u.^.n.u.,.2.t.u.p.2.2.).&Xr.v.8 f.L.r.7.r E y.f.9.r.8.7.7.<.5.f.0.6.2.s.5.>.7.5.7.5.j j 5.6.Q   c./.n.q._ E q.S S 4.n._ 2./ ,.2.0.0.6.>.r.,.2.g.t.r.,.,.b 3 < . ",
": }.n.R.R.0.z.n.c.'. X X|.XX^.R.n.[.}.n.R.n.Z. X_ v.m.q.^.^. X;.8 '.q.l.l.n.E l.z.l.E / / Y ) n.l.l.2.l.n.) ) _ u.2.w.g.m.t._ - $ M 3 / Y q.~ l.F 0.@X_.L.f.f.f.w.y.d.%X@Xw.0.w.r.>.<.) 0.e.T.7 / cXZ.{. XZ.^.`.^.^.^.^.[.}.[.^.^.g.f.^.^.}. X[.D.S.n.n.b.~ l.p r.zXT.m.[. X X}.XX^.u.|.[.^.n.n.^.^.^.n.}.pX XXX[. X'.[.n.e.^.6 R.nXt.(.D._.@X(.G.].S.l.'.XX^.^.}.}.n.3./ :.3.b.t.2.t.g.S.n.(.6 8.p.;.f.,.2.n.u.f.r.a.>.i.f.>.:.K.r.r.8.<.>.f.s.a.7.5.7.9.8.a   B.n.y.u.t.Y Q E u.^.,.<.0.Q Q 0.6.>.,.6.6.0.5.Q U ,.U U 3 b 2   ",
"9 n.1._ e.w.t.n.e.^. X X X'.R.R.n.n.~.~.^.n.R.m.n.m.^._ v.^.&X>.e }.t.t.y.f.6.) 0.2.) R R R Y n.t.q.z.c.z./ 2.l.) E ) n.y.2.~ < @ m 3 Q Q Y ! l.u.) OXP.w.f.9.5.y.w.n._.u.n.u.r.r.5.r.0.w.n.w.e ' zX'.rX'.R.^.[.n.n.^.^.^.^.).{. X^.(./.^.^.[.^.[.^.^.v.q.( _ * 2.XXn.m.|.[.XX[.^.^.^.^.^.^.^.[.^.^.|.XXT.|.pXzX[. X X|.n.t.^.e R.bXf.(.^.n.).^.`.v.`.).^.v.v.~.l.u.u./ / E / ( t.n.^.t.r.^.`.6 ,.n.6.f.f.n.^.~.u.r.5.6.,.9.K.L.~.y.f.W 5.7.s.K.s.a.5.h 7.a d   O.! ,.y.u.r.E R w.q.,.,.W R r.r.) r.,.5.y.u.6.>.w R < w b A : . ",
"7 w.0.0.m.6.0.q.x.l.R.R.c.! ) 0.) r.n.n.m.v.m.m.q.z.n.l.m.q.^.;.8 zX,.0.f.a.Q a :.U / E _ l.) l.q.l.m.c.l.q.r.E 2.) r.r.5.5._ - $ C A U Y m U R r.) ,.>.L.P.f.W 3.0.u.}.u.f.6.w.w.6.f.>.t.Q 0.g W cX'.|.m.^.n.^.^.T.T.^.[.[.^.m.^.[. Xn.t.n.n.t.^.^.3.~ ! ( o.* v ].t.^.^.^.XX}.^.^.}.^.^.^.T.^.}. X*X XT. XXXxX[.pXn.n.n.e.^.7 n.BXw.y.1.^.*X'.}.M.M. X X`.).~.2.y.r.y.u.q.v.r.n.S.p.Z.u.g.^.8 y.T.w._.p r.T.) ( E U <.R >.>.r.) E W R >.<.>.y.f.f.7.j j >.W    ._ E K.y.6.>.,.) w.E r.0.E r.e.,.8.5.5.) ,.,.W N v w U A b 3 . ",
"i '.0.HXVXl.) R.R.B.R.l.j.X.l.l.h.Z.R.'.[.^.[.b.( j.l.LXGXw.w.g 8 c.6.LXVXE a R / a w A ) _ _ l.n.c.m.m.B.n.r.E R R :.LX-X>.A # $ Z S nXA.m Y U Y R E / r.P.y.6.Q Q 0.u.m./.0.w.T.0.0.GXVX0.u.7 U XX XLXCXT.m.^.T.^.^.}.D.[.{. X^.^.[.^.^.n.u.u.t.^._ hX7XV B * v N.^.LXGX^.[.}.~.n.~./.^.~.^.^.^.}.[. X}.}.zXXX'.[.R.LXGXt.|.e S.NXq.HX-Xn.}.3.R.A.V. X&X{./.).$Xg.,.t.q.2.E 3.F.^.^.LXGXa.q.; a.7.y.FX-Xp 5.a E i W Q q R W D Y Y T 0.r.8.>.7.8.j L.KX}.>.m   J S n.HXVXW R >.u.1.W Q >.E 2.' 0.) 0.r.2.m M M m v V iXG.3 <.4 ",
"w rX] VXa.O.l.^.R. X X( O.n.n.w.v.R.^.'.^.n.n.v.v.n.-.VXP.<.t.5.8 n.d VXs.Q R _ 0.S Y Y R / / q.t.q.z.Z.W.Q.[ 2.) t.>.VXf.a S $ # ! Y rXE m T Y ) ) w.) q.L.e.0.7.0.T.q.2.0.0.w.u.w.0.VXK.w.T.e S '.n.HX X_ R.^.n.n.^. X^.^.^.n.n.}.^.P.[.T.^.~.(.f.l.5X( v J * v | m.VXzXt.'.[.n.u.~./.T.x.[.XX X^.}.xX X X X X|.T.n.FX_.<.^.8 g.bX~.VXK.1.^.3.z.].A.].{.).S.`.Z.2.q.3.(.y.2.4.g.~.w.-Xg.U l.@ 6.5.>.:XK.g 2.E i T q T / T i R W A U 6.Q W >.5.r.d 7.@Xa 9 1   J n S *Xs.u >.g.L.y.0.6.W A S A W l.Y E A M M ~ S S v +.;.9 d O ",
"e n.W u w E O.) q.3.w.Q 7.T E f.T.n.R.^.t.' w._ _ v.T U w U Z.' 6 '.,.e u ;.0.1.q.) ! / / Q v.u.n._ l.n.v.v.q.Q ,.r.8.u 5 < 3.* # b < < 2 m / ] r.) ] >.w.T.' Q w.' u.y.E 0.w.n.t.r.6.a a W Y * c | / W ) 0.l.'.m.w.n.^.~.t.r.r.r.n.^.[.[.^.^.xXVX&Xn.M 0 ! L * c L Y W 0.n.'.'.[.^.(.[. XR.XXzXzX[.[.XX[.[.[. X}._.0.<.W 0.^.8 r.NXf.h i ^. XZ.z.z.M.C.S.`.`.l.~ +.~ ! l.z.j.r.D F.,.0 q m Z @ l ,.g 8 7 d 6.w.W ;.>.>.8.6.T Y W Q ] 8.f.j >.>.8.>.6 : ; 2 ,   J Z m u 6 p 1.L.R y.>.R U m A U A E W A m c M ~ n l w u 6 s p o ",
"6 ^.6.<.6.e.0.t.m.^ 3.n.>.Y O.w.q._ w.t.t.~ [.t.R.].b.c.m. XdX5.7 cXt.d.W Y q.>.y.r.) O.! Y q.m.[.n.c.z.l.Q t.r.5.0.y._ Y ~ #.- $ F A m U / 0.n.T.W W W T.^.t.0.^.e.w.8.e.n.~.}.T.(.^.Q r.2.C = c L N b r.~ m.].pX'.[.[.^.^.n.n.^.@X&X&X&XxXbXCXcXbXA.V V H | = v 3X! l.^. X[.'.XX[.[.zX XR. XzXpXuXpXdXrX}. X X}.^.[.u.n.^.}.6 f.%XS._.}.yXM.yXN.V.V.bXcX2XV.m.z.N.=.X.Z o. .3.O.K *.! C M K # = Y 5.h j h s i i W W r.t.w.6.U 0.e.r.f.7.>.>.;.r.5.a 2 1 A 1   J V / Y / q.2.,.:.a.U R W Q ! w.E E U Y n M } N C _ u.0.' r.h . ",
"a i 2 u 7 8 7 7 A D i w 3 : ; w w : 5 7 w < 2 q w w A r 9 w d U Q W e q $ $ < & : ; < 9 : $ < < : : i q 9 9 e r 3 3 < < * * = - * $ $ = < & & < 2 9 # 7 d d u w d u u d u i u j y u a 7 > # $ * * * $ $ $ * - * = Y h E s g 8 e r.r.<.>.a.P.K.K.e >., = * = = c N l m Q >.<.>.7.w.) W 0.E a j 0.' E >.' ;.E d ;.;.d W W w u d i e.W h u p 2 q < = 3 9 9 < < 1 * < 1 < $ $ - < 1 = l = * = - = * $ . + e 6 4 O O 4 ; 4 e : 7 7 6 6 6 6 y 4 y 6 8 7 7 7 % $ * $ @ * * * * * - < - < < * = & # $ < - < * * $ < * * & d a 9 7 u 7 4 ",
"2.*.l.z.E A A ! l./ T O.) e w %.+.%.E z.%.O.o.M.+. .+.X.D %.O.+.qXR.Q V N c N v c c v c - - v N c v v m R w 3  .K H l H H H B l L x l B x l l = * l * 9 W r.W 6.w./ m n r / W W.0.W 6.a * = = * , * V B V B H J ..B.Z.Y.B.x.x.l.l.R.n.x.w.e.w.w.e.~ c v c B .. .%.hXBXxX^.u./.xXpX[.^.&X[.t.f.XX{.XXXXaX0X[.!..XE.R.B.B.w.%.U.W.m.t.,.W 3 l c = * l = < - = 1 < 1 , * * * * * z z x l x x l v * L ) r.0X^.0.5.Q n.n.E 6.l.w.v.q.M.W Q 5.h 0.Q B.e.<.>.;.M c c = V c L K H B J H H L H H H H H H B H H K B H V N c.rXq.] r.e.O.~ ",
": rX[.^.t.t.m.}.iXC.[.R.zXXXrXfXfXaX].fXDXgXgXBXqXpXpXyX[.kXhXZ.! CXiX,XL | X.%.m.*.#.%.0.x.].=.5X0XW.cX X}.*XCXqX5X3X3X2X3X9XN B >XZ H Z Z B | K  .S ! ^.^.e.'.zX X].]. X'.'.BXpX XpXR.K } | = c } | ,X,X<X,X3X9XAXAXdXdXcXZXNX|.XX$XxXxXNXbX&XXXqX=.*.@.B.CXE T.UXAXMXxXxXCXFXAX;X-XVX;XxXNXAXDXLXDXDXJXDXJXZXAXAX;XMXXXMXDX) [.cX~.z.m.*. .+.G #.~ n.m.^.x.q.G J ~ F ~ G Z L L >X| ,XK H L $ ,XiXG.MXpX&X&XzXbXBXpXzXCXbXAXBXBXBXBXbX X X&XBXAXbXzX X&XN.} # L 1X,X3XwX1XiXhXSX8XkXhX7X1XwX5X1X1X| 1X=.,X| 0XBXJXBXBX].].A.: ",
"S W.l.z.E a Y r.R.m.T.' n.l.O.E.#.V.R.pXdXiXN.N.5XE.) l.l.l.fX$.m pXm.@.@.! _  ._ _ _ x.q.0.x.x.) _ 3.l.n.F.$X*X^.c.qX6X+.V.6Xc z H b K o.S A S o.O./ Y e.^.q.^.^.n.n.`.^.n.l.n.0.l.l.T.[ / C $ w w.%.*.| | | | =.MXjXsXQ.A.U..XT.n.f.y.~.T./.|.J | J  .! ^ T.i XXBX~.FX:XL.|.$X}./.P.I.f.[.XXxXxXBXxXxXxXxXXX$XxX&XL./.u.R.CXW n. X2.O.r.0.,.E S r.,.S ! ! M c l 3 3 1 A S Z ( ~ K @...V } K @ Z.Z.v.CXn.y.u.}.(.[.q.,.^.^.}. X X}.w.t.^.n.(.~.n.t.a.0.r.,.R   B Z  .qX#.+.E.{.W.uX2X6XE.V.W.z.l.I Z  .}  .c.|.[.XX|.[.Q 0.` ; ",
"q aXR.LXVX) i d.q.^ E Q Y c.r.Z.Q.iXM.qX0X0XqX%.w.x.F SXiXc.7X0.! cXm.PX0XO.~ q.! q.l.'.pXT.l.h.x.F.n.x.v.r.pXBX[.W.Q.LXnXG .., l K n gXpXE 2.$._ z.2.4.0.[.n.q.0.^.[.XXt.l.l.n.x.l.x.LXGX0._ e >._.~.JXDX#.| @.0XMXMXjXsXrXdXXX[./.~.~.^.T.|.{.%.*.$.kXV.2.[.i  XCX^.IXIXt.$X&X_.@X@X_.~.XX^./.xXMX&XMXXXMXNX%XI.^.T.LXGXu.BXs q.^._ hX&XW 6.1.>./ ! n ~ M F D A m A Y _ !  ...F J =.8X1X~ Z # zX].bXUXHXw.f.^.[.'.g.^.(.L.`.}. X X'. XzX}.^.n.P.n. XLXVXE t.# } S 2XDXDX{.aXH.tXBX7X=.N.dXaX'.^.z.'.#..._ [.AXMXMX{.GX:XE 0.: ",
"w pX+.7XA.E 0.m.q.~ / t.( M.l.B.iXjX7XdXeXV.0X! 0.'.V.hX2.q.uX5._ MX_ CXw._ ! O./ l.l.l.l.R.e.l.l.h.XX[.n.>.Q.V.A.E.z.DX8.C =.1 = @.m 0XR 3 q.z.$.$./ 2.3.m.l.E ,.r.m.^.0._ _ R.l.O._ nXD.n.n.h 5.&Xe.VXm.%.%.V.dXNXZXjXMX!.MXT.T.f.9.K.f.K.[.W.x.*.$.qXE 6.[.w _.VXT.LXAXw.P.%X_._./.P.f.XXL._..XxX*XbXxXxXNX;X$X~.T.FXP.j ;Xu e.q.! rX6.p >.>.,.2.E ) ) R A R A U W E :.W M.X.P G +.6XS n #.+  X&X^.JX_.q.u.^.^.}.^.|._.S.^./.}. X X}. X~.^.n. X X XFXf.E t.% o.q.c.DX}.E.W.wXfXgXhX7X5X5XuXR.}.`.(.~ ^ Y E.AXXXuXW.VXa.s ) : ",
"Y {.~ N } Y ] / q._ h.2.E 5X( B.qXqX0XM.V.'.fXQ h.m.n.) ' 0.cX0.O.BXz.Y 7 U _ ) Q 0.0.l.n.e.z.l.l.l.^.}.[.^.E.V.pX{.M.! % F 5X- = 6XY ! w w O.O.[ z.l.) _ _ E / >.q.'.^.O.w.) ! U ~ ! m b ) ^.h u.&X6.] ] R.{.{.XXMXjXdXjX.XjXT.y.w.r.r.f.L.P.L.T.V._ w q w./.Y XXCXT.U.!.T. X$XP.T.T.L.r.[./.`.XX;X$XxX;X|.NX%X@XI.5.5.W w.&Xu l.[.Y i 6 r ,.>.R D ,.r.R 1.>.R ;.,.>.1.,.6.m.~ #.*.Z v &  .!.4 }.'.1._ h t.^.[.[. X}. X Xt.^.`.F.^.^.^.S.t.3.3.}.^.r.0.h f.~.; 0XXXq.[ ^ W.A.qXaXmXBXwXiXaXaXm.x.`.y.^ +.$.E.pX[.iXR.U 2 w._ < ",
"( N. .X.%.q.x.) x.B.~ E R.qX].].V.qXiXM.m.#X'._ B.v.'.n.T.'.'./ Y cXR.'.x.$.$.n.0.O.n.e.^.n.R.R.l.l.v.'.m.^.MXE.{.0X+.O.9 +.E.& * ..E z.D ) Y Y / ~ E U Y R T ) Q t.[.R._ q./ ! U _ ~ ~ Z _ ^.P.t.$X~.^..XsXxXdXsXZXZXjXjXcXXXT.r.XXf.n.T.P.|.XXQ.0Xx.E r.T.[.E cXAX^.XXZX[.$X$X~.w.n._.t.|.^.`.XX|.[.*X&X XxX@X@X|.e.r.T.[.&Xw 0.|.,.T 0.%.,.r.2.:.r.r.t.r.,.:.;.R <.r.E R O.! M.X.+. .3 [ m.4  X X1.[.t.F.^.n.&XbX`.|.&X^.^.#X#X@X$X~.0.w.0.n.f.f.n.1.y.^._.% A.&XZ.z.B.W.tX7XA.N.aXfXuX'.pX{.XXBX~.| *.Z A.aX|.aXtX` m.'.t.< ",
"E W./ 0.m.c.m.'.l.) G ^ V.6X].].{.0XdXW.'.[.v.! l. XaXn.pXl.v.;.3 {.] B.W.c./ _ l.l.'.[.[.|.R.R.R.R.}. Xr.^.cX[.'.}.M.V.>.V.M.: v #.Y ! R ) l._ ! / S D Y 0.0.) ) 2.l.[.O.! ! U Y E / ~ ! l.xX8.>.bX[.|.NXdXMXsXMXAXAXAXZXMXT.K._._.(.t.t.(.MXMXxXdXXX~.^.^.|.e |.AX~.|.KX[.|.|./.P.L._.T.q.l.@X X$XxX/.|.|.T.|.&XxX{.(.sX.X&Xw n.XXn.q.[ q.w ,.Q E q.n.t.r.0.<.>.i e 6.2.,.~.q.2.( +.M.A ( e.4 XXOXs.^.( h.j.g.^.g.|.}. X@XP._. X^. Xn.T.n.~./.P.f.^.^.^.~.(.@ c.[.n.W.qX0XqX0XZ.6X5XaX0Xc. X X&Xm.q.I ( ! !.hXBXfXjXn.w.e.T.4 ",
"%. Xl.^.XXw.r.e._ Y F _ q.E.'.V.0XrX7XO.O._ t.<.) n.z.Y q.m.V.m = 2X~ *.m.n./ ) U ) l.v.q.e.x.q.m.g.(.L.a.|.'.0.}.pX].V.y.0XE.& 1 6X/ 2.D 3 / / m S E E Q n.z.2.E E _ v.2.M U U ) ) ) ! Y  X&Xa 6.&X~.|.MXxXXXXXsXMXZXZXBXxX_.P._.L.y.n.T.^.XXMX|.XX.Xf././.$Xq XXZXu.-XAX|.[..X$X|./.^.^.n.n.@X%X.XxX|././._.(.XXXX|.XX$X.X-Xp w._.7.u.u.1.:.R ;.Q q.e.t.t.w.R h h a >.<.t.m.w.) x.O.O.0  .c.; L.F.2.T.2.Q _ p.t.j.2.^.(.@X_.|.[.^. Xn.w.^.u.g._.n.'.&X^.n.~ # ^.~.F.^.0X0XqX6XW.eXH.W.0XR.|.`.m.~.l.x.o.x.Q.hXaXfXeXR.m.R.R.: ",
"' $Xt.n.[.w.^.^.q.e.l.R.l.! o.#.G l.l.w.n.|.3.5.5.W Q >.>.( S A = 8XM.=.0X{.) R R >.>.7.y.r.0.0.r.5.0.n.g.|.R.w.y.A.E.l.,.E.m.: - ~ E O.S R Q Y Y R D ,.,.,.,.E R R R ) Y A ) ) E :.Q ~ ( xX^.j r.bX^./.MXsXxXMXjXZXjXjXNX&X|./.f.9.7.f.P.P.XXxX.Xw.T.f.n._._.2 _.-X_.:X;X.X^.&XXXP.`.|.^.[.|.|./..X[./.|.$Xm.u.n.^.n._._.$X%Xu ' ^.6.t.|.[.v.0.2.0.2.2.q.w.r.,.W r.1.,.>.t.0.W U E.].( A %.%.# K ^.4.'.q.:./ j.m. X[.'.n.L.Z.].}.}.rXq.3.n.w.,.^.^.1.~. X'.l.% ~ ).n.m.qXV.B.=.B.6X5XtXfXm.c.(.0.0.q.l.l.x.aXjXA.Q tXE.m.n.n.: ",
">.nXP.e.^.R.R.[.n.e.R.l.q.! _ m.t.n.R.0.w.n./ E Q W w.T.] E t.3 = qXz.E.A.( ,.0.r.Q 0.y.y.6.8._.y.0.0.^.f.T.l.0.] x.{.x.;.O.m.: * ..Y ~ 0.E Y ) ^ U E 0.,.2.R / _ / ) ~ M M R :.Q U E ~ ! pX&Xj 5.xXL.T.MXXXXXsXxXMXXXXXxX`.P.P.n.y.f.f.9.7.^.XX.Xf.^.T.y.t.^.e y.VX@XXXbX.X}.XXXXn././.~./._./.K.~.z.XX|././.^.^./.^.(.`._.%Xi 0.^.r.r.^.q.w.n.R.l.r.q.r.2.2.E A ,.,.Q Q u.0.1.) ] q.w.) +.l.. V Z.r.m.t.E 3.G.^. XaXA.C.].C.C.m.n.'.n.[.n.0.n.`.n.a.i.S.n.3.# q.#Xb.l.A.+.#.N.B.M.E.Q.N.o.~ r.6.W ] ) $.m.6XqX0Xl.uX{.l.e.0.4 ",
"W MXe.0.l.O.m.q.~.t.e.w.l.r.^.^.XX[. X^.0.n.0.) 0.e.l.^.m.x.E.m = qXm.].M.l.^.(.2.0.t.y.~.t.g.(.0.5.n.n.t.x.x.0.R.}.'.n.>._ E.0 V M.A _ _ W / 0.E A U R 2.0.R / 2./ ) w.h.! A U i A Y / ! z.&X7.>.bX^.^.[.|.|.XXsXXXpXXXMX/. XXX^.w.(.^.f.i.~.XX^.P./.r.i.n.^.w VXKX^.$X&X^./.|.XXm.T.^.(.^.^.^.y._.'.|.~.^._.`.^.^.^.^.^._.*Xe 0.XXy.y.f.r.t.t.n.n.n.R.r.t.n.,.2.0.r.) 0.l.l.,.R ] q.0.2.( %.. J $Xf.l.3.3.m.m.m.v.}.C.Z.m.z.A.v.q. X'.m.n.w.(.S.n.9.0.S.`.L.@ ~ g.w.m.B.Z.B.tXz.c.m.z.@.o._ ,.2.>.d >.M %.x.z.B.l.W.x._ n.x.p ",
") BX'.x.l.R.R.+.0.n.r.m.XXXX&XNXC.v.:XrX^ q.Q / ] T.m.n.R.) q.>.$ 5Xl.E.m.x.^.`.[.L.^.^.L.(.(.f.9.f.n.n.v.z.R.T.^.[.m.'.r.q.m.q V A._ ) Q :.2.W D S R R ,.2.R E ! ) 0.w.0.) / _ ! _ q.) ~ ^ ^.7.W xXn.t.R..XXXXX|.R.[.[.XX/.|.|.L.L./.~.~.~./.[.^.L.^.f.a.n.^.u VXFXn.$X:X-X%XVXFX X/.%X/.}.|.`.^.|.|.^.^.}.^.^.|.XX^.u._._.*X8 6.}.q.3.r.3.t.Q w.w.t.q.t.^.^.q.r.q.r.,.E / t.1.T q.0.c.0.q.z.# | $Xn.n.p.m. X^.^.n.q.l.m.S _ bXC.t.XX'.^.R.'.^.y.w.f.F.^.(.t.# C q.g.n.B.A.A.V.E.%.z.+.+.[ r.~.q.0.0.>.2.~ l.l.$.Y V.x.e.q.t.; ",
"w fXQ.v.n.'.n.m.l.c.m.c.O.r._ Z. Xb.bXNXz.O.) q.0.w.t.n.^.0.m.>.$ M.2.m.'.n.`. X].m.m.^.L.L.,.~.L.L.^._ m.v.[.m.Z.q.x.aX[.m.pXR 1 ! 2.Y W E l.l._ / T 2.p.n.z.Y / _ m.^.t.h.) ) Y Y q.l._ +.}.f.6.$Xt./.|.^.[.XX[./..XR.T.f.y.S.(.|. X/.t.f.y.^.~.n.n._.^.n.(.u ~.VX@X*X%X_.-X;X&X*XL.Z.`._.T._.XXXXXX^..XXX X^./.|.^.L.$X_.$X6 >.^.y.t.) q.y.w.0.w.q.t.S.[.'.2.r.q.r.2.2.q.r.6.y.f.2.l.,.) / . } bX@X#Xn.F.}.[.:.q.h.l.n.~ l.zXA.q.}.}.n.'.'.m.n.[.^.f.^.'.v.; H b.3.3.B.~ v.W.W.z.B.z.Z.) Q u.r.>.Q [ ) r.x.m.w.l.x.m.l.^.0.; ",
"u iX Xl.T.E.n.'.C.M.c.l.[ q.( j.].XXzX].q.t.F.n.n.n.e.t.^.^.yXR - dXn.g.^.).[.^.).^.^.n.L.~.u.(.(.n.l.~ _ v.[.^.[.|.`.}.$XXXcX/ n _ T Q t.i l.c.) R U Y Y l.x.l.B.x.'.}.S.) ! Y / U ) _ ~ B.&XK.r.xXn.}./.n.~.|..X.X^.|.^.f.r.f._._.P.n.^._.T./.).|.P.[.[.~.n.u ^.VX@X_.$X_.F./.}.&X*X^. XL.d./.XX/.XX/.|.XX^.t.^.^.P.~.`.P.}.6 Q }.y.r.r.f.y.w.6.Q t.u.f.^.n.,.r.q.r.0.q.^._ 6.u.f.r.Q ) E 0.% }  Xf.f.R.n.F.D._ 3.m.^._ ~ ^.m.M._ ~.^.n.n.n.'. X X XzXn.E Q ; z.E p.l.c.q.) Z.E.z.l.l.x.E R 1.r.Q W n.v._ g.q.c.[.T.0.x.m.) ; ",
";.rXT.r.n.'.k.M.^.z.l.l.l.z./ h.D.$X.X^.~.t.^.m.^.'.l.0.[.[.zXW : 0Xm.n.~.^.[.m._ j.t._ g.u.~.^.$X[.n.R.z.n.R.^.[.$Xm.R.(.(. XU = l.R E n.R 2.0.R D Y R ) -X$X0.l.n.n.OXn.l.! Y ( $.z.z.c.^. Xs.0.zXn././.~.(.^.[./.T._.P.f.K._.^.f.y.n.P.S.u./.}./.}.XX[.n.n.e ;XGX^._.$X(./.XXXX[.VX.XXX^.|. X].( q.^.XX}.^.q.~.|.L.~.^.f.P.4 >.^.r.p.r.f.T.r.0.Q 0.f.n.n.n.2.Q Q 2.r.q.n.^.y.u.r.<.>.,.:.0.# G S.2.F.n.q.y.p.t.t.v.^.f.q.n.l.^.n.^.[.f.r.v.m.n.t.'. Xm./ w.; z.) r.b.q.2.q.^.Z.$.z.$._ W ,.r.r.u.t.m.u.2.r.u. XrXZ.0.n.h.2.4 ",
"u Z.n.n.'. Xm.v.r.l.q.3.h.n.l.3.u.m.`.&XyXm.t.~.[.^.l.0.R.^.zXW q cXq.3.j.~.`.`.t.2.g.q.n.t.v.y.t.r.t.m.R.m.R.t.t.~.T.R.D.^. X2 = Z./ :.R.q.W 2._ / / U v.VXVXn.q.d.u.u.q.l.~ ! m.T.S.n.m.^.^.>.r.MX^.~.(.T.T.L._.t.f.L.L.K._._._.P.^.(.r.f.T._. X}.|.XXl.T.^.5 *XVXK.L.@X@X$X%X$X`.$XFXFX$X X*X^.b.h.r.w.(.~.t.n.l.m.[.[.[.[.5 q.G.y.w.t.f.n.n.q.e.r.u.y.y.S.e.2.2.r.Q r.y.f.r.>.6.f.,.2.Q W % .. Xt.[.'.x.^.y.3.O.r.^.^.n.n.^.^.[.^.g.S.0.e.R.n.n.'.n.n.3.f.4 yXm.y.l.l._ +.c.z.z.l.O.[ ) r.r.0.y.n.].^.l.c.Z.m.x.m.l.q.m.>.O ",
"u {.e.6.^.'.m.x.2.^.Z.v.^ 3. Xl.Z.zXxXBXaXC.~.f.^.m.0.f.^.~. X<.i BXm.j.c.(.g.g.).P.L.y.t.).g.~.L.] x.m.R._ 0.t.n.m.'.[.).(.`.1 1 Z.( ! q.n.i / ) Y D U 0.zX.Xq.^.~.0.w.0.Q q.q.[.m.^.^.^. XXX7.6.XXt.T.t.w.n.P._.L.u.L.f.L.P._._.K.f.L.K.L.~.^.XX[./.|..X~.n.8 _.&Xf._.P.P.XX$X%X_.^.-XFX/.$X$X}._ L.u.L.`.P.u.f.m.'.^.^.[.pX: c %.E p.y.r.f.T.n.n.w.t.f.y.n.v.q.q.0.1.6.0.t.T ;.0.q.r.R R -.. @./.^.[.m.'.}.l.l.O.h.^. X^.^.^.v.'. X[.n.q.n.n.^.^.'.n.l.0.t.4  X[.q._ ^ ( O.[ l.l.) _ l.q.,.0.0.u.c.m.^.l._ m.x.) x.2.,.m.<.o ",
"e iXw.3.n.n.l.q.l.c.tXZ.~ q.S. X&XNXNXtX5X#.}.n.^.^.w.t.n.3.^.w i CXn.n.x.q.m._ t.L.u._ ~.[.~.'.[.g.n._ x.e.0.) n.^.'.R.f.L.&Xw M W.( Y ) m.Q Y Y ! _ Y 0.[.^.m.x.T.h.t.r.W 1.B.E.R.'.[.[. X X7.' |.~.^.m.n.f.n./.^.f.P.^.^.`.^.|.`.^.~.T.L.^.^.$X|.L.n./.P.S.8 =X:Xf.f.(.2.n.%X$X}.$X:X;X.X}.^.^.n.t.n.^.[.^./.^.~.L.P.P.~.Z.# v l.<.>.5.7.t.n.y.L.n.f.y.^.~.^.v.t.r.0./ Y 0.W ;.R / ,.a R r . +.@Xn.0.0.0.) u.g.n.Q ^.'.n.^.n.v.D.^.l.w.n.n.n.^.^.[.^.0.) f.+ R.Z.0.) / Y l.l.l.q./ U E ) 0.0.0.t.r._ Z.2.! O.l.0.q.,.E R.U o ",
"i rX0.0.x.l.0.:.c.l.].c.r.R. XxXXXbXbX'.M.M. X[.[.R.w.n.x.) [.h u BXT.c.( / v.^.l.~.n./ q.^.g.~.'.}.'.( q.n.t.l.n.T.q.v.y.~.$Xw b 0Xo.Y q.m.) ) ! Y U Y 2.].{.n.1.w.n.n.w._ l.Z.A.^.[.^.^.&X}.>.W |.f.n.n.n.n.w.Q T.S.n.S. X[.^.}.}.^.^.^.T.n.^.$XS.f.f.n.P.(.8 *X*X:.p.L.d.$X XXX[.:XGXXX^. X[.^.T.n.q.n.[.[.[.n.n.3.c.2.Q G # N n.>.>.>.r.w.t.w.y.y.f.T.^.m.^.t.d.6.' 6.E 0.r.E R R / R U R % X.@X`.).m.'.'.L.r.t.w.^.^.t.^.[.t.w.t.r.^.n.n.^.[.P.^.~.1./ u.O r.3.E _ ) ) G / ) x.l.0.e.n.n.,./ E 0.r.n.q.h.! ] E 0.q.0.q.Y o ",
"a pX/ E h.l.l.r.c.l.c.c.~.XXzXzX}.'.M.j.j.N. X XyX'.t.n.l.) '.W e &Xq.O._ q.n.^.^. X~.n.u.q.m.'.'.}.`.l.) _ _ _ l.q.0.6.,.r.(.q ~ z.Y ! m.q.U ) ) ! Y E E %.O.) _ 3.c.^.3.Z.m.l.[.^.R.'.[.XX}.>.>._.8.r.y.T.^.u.w.w.~.w.f./.^.m.~._.T.K.n.^.R.n.n.y.w.a.y.n.t.7 =X*X,.P.OXn._.P.^.&X-XFX^.R.[.[.|.[.n.r.q.m.m.t.q.l.! / Q E ~ @ c r.R <.>.5.;.6.t.w.n.~.(.t.^.^.e.e./ E 0.w.r.0.R U R r i U E . X.`.P. X'.'. X~.2.w.t.n.r.S.^.[.t.3.m.n.l.'.R.q.b.~.w.6.r.r.0.  Y 0.0.Q _ l.S Y w.n.0.n.^.n.q.2.o.2.z.l.q.r.r.,.E ) R R Q n.T o ",
"W fX) Q / o.o.r.n.x.x./.[.n.^. X X'.XXM.h.q.v.R.'.^.n.q.t.^. Xh 8 zXr.q.n.T.^.T.n.^.~.v.,.q.l.'.m.m.^.l.2.) 2.) l.2.0.r.y.u.).9 [ [.) q.q.Y Q :.Y U m :.:.) ) U ) x.m.l.) l.n.l.T.[.R.^.[._.y.h j &X7.a.T.r.T.n.y.w.u.y.7.t./.|.|.[.[.^.n.u.3.q.f.f.n.Q w.P.,.: @X&Xf.f.y.9.P.^.XXMX$X:X%X^.R.R.R.[.n.0.,.R.q.E m.m.2./ ,.S ) @ - t.j 0.<.6.7.r.t.t.y.n.n.t.y.m.x.x.e.0.0.5.6.) U Y R r R R >.. ..*X_.`.`.y.r.y.1.1.0.t.1.6.y.f.n.T.e.3.3.B.c.R.n.2.R 0.t.n.Q   ~ r.) l.v.X.( q.t./ 3.^.m.Q E [ M.^.n.z.2.,.r.q._ ) W W R q.w.6 ",
";. X0.2.) q.c.E q.n.x.u.^.r.^.[.D.^.~.O.m.q.w.n.n.e.R.^./.~.[.<.u BXn.n.^.^.u.w.^.R.[.v.q.'.m.'.|.~.~.q.q./ E T T E ) r.y.r._.< < m.Q R U A :.E R A A U ) ) E i _ n.n.e.n.e.n.l.v.R.m.[.t.L.K.j 5.XX8.9.y.6.5.0.Q 0.E W 6.^./.[.XXXX^.[.[.T.E r.(._.f.' r.y.w.5 I.bX@X$X_.^.[. XbXFXVXVX|.m.^.T.T.l.e.e.r.l.q.q.v.m.q.! 1.E ~ # 1 R.j <.>.r.d.w.f.r.5.,.q.2.2.q.Y ) q.n.t.6.0.Q R Y R R R R >..  . X).(.`.L.y.^.g.1.>.,.,.w.t.f.L.R.q.q.[.}.n.'.~.y.a.6.r.r.Y   ~ q.r.n.l.h.0.t.t.<.0.( ,.0.r.Q S.^.c.q.r.Q q.n.q.) ,.q.r.n.<.O ",
"s pXn.:.v.[.rXm.u.g.g.R.^.}.^.r.r.Z.E ,.m.l.m.n.w.t.n.n.^.t.[.g e  Xt.f.y.y.r.n.T.y.g.~.m.`.^.`.$X~.S.u.n.Q W W 2.r.Q w.g.y.@X1 c V.R A S F Y ) 3.A A Y ) 2.Q ! l.m.m.c.[.^.l./  .l._ n.r.(.n.j <.[.r.a.7.<.0.6.r.y.6.6.r.[.m. XXX|. X'. Xn.T.^.~./.S.f.P.q.) 6 (.*XP.:X:X;X*X:X:XVXxX&X&X0.y.u.m.l.l._ q.q.q.m.'.].n.2.,.0.m.# m n.>.>.9.r.>.r.8.r.r.a.:.) 2.) ) E ) t.q.0.w.Q W Y R E R R 0.# @.zXr.8.L.g.g.`.^.r.r.g.[.^.n.[. X X[.`.zXzX'.c.^.f.y.R 5.9.Q   n _ _ 0.z. X[.l.T.d.t.v.t.n.^.0.q.l.$./ 2.R 2.q.t.,.:.2.r.P.5.O ",
"E '.f.^.[.n.'.R.m.r.y.y.q.q.q.g.'.h.t.t.u._ n.n.y.r.0.t.[.^.u.p 6 $Xu.t.^.~. X^.L.(.r.~.~.}.[.T.|.*X`.n.r.r.6.l.^.n.l.b.S.y.`.w c j./ Y ) ^ S E / Y U E ) 2._ _ 0.3.n.c.v.v.) ( Z G x.^.t.[.}.j <.T.W 9.f.f.r.f.f.f.n.t.T.~.n.T.^.^.|.m.|.l.l.t.u.~.S.f.q.0.6.6 ^.-Xy.^.-X-X_.S.n.[.XX;XxXy.P.7.w.m.) 2.x.3.q.m.m.v.q.t.t./ +.% w.^.5.6.6.<.r.g.6.7.r.y.2.W ) 2.E :.t.r.w.6.f.y.y.,.] ' ' q.t.% z.-XL.L.`.).^.y.a.i.~.$X(.t.n.d.D.}. XA.V.A.M.z.c.t.n.v.r.7.6.# | F 2.l.~ m.n.Y G [.n.pX^.r.n.t./ 0.l._ ) :.R 2.E.n.m.F.n.^.r.+ ",
"d XX0.0. Xw.q.c.l.r.r.g.0.1.q.`.m.q.m.^.+.l.! ,.0.y.e.m.^.R.^.h 8 rXt.r.w.^.|.}.f.u.m.{. XXX^. X^.(.(.`.2.y.0.u.^.S.u.m.^.y.(.: l M._ _ e.o.G ) Y ! E U Y r.n.q.h.2.O.l.l.Q ) ~ M ! 0.T.e.^.^.<.r. Xr.8.a.9.K.6.y.f.0.y.t.f.^.T.^.^.m.v.w.T.(.y.6.y.f.8.Q ,.0.; ) 0X0.) Z ~.$X`.t.~.XX%XP.8.r.0.q.,.2.n.q.S l.q.h.E ,.w.2.n R.6 >.^.6.7.h <.a.y.y.r.d.w.0.0.:.E E ) p.0.Q r.w.e.T._ w.q.' e.u.4 [.bX~.`.`. X Xy.y.r.D.L.f.r.0.6.f.^.m.b.[.j._ z.j.3.h.v.q.,.L.  | _ _ O.j.h.^ q.1.n.r.t.t.r.f.r.p.r.v._ ,.E a D t.u.,.t.R.n.r.+ ",
"A 5Xn.E.l.b.j.z._ q.d.q.q.! / q.E / q.) / _ q.Q E 2.2.2.T.6. XW e '.6.w.^.T.f.y.t.`.`.'.'.R.[. Xn.F.~.(.g.v.y.n.y.t.n.^.}.r.(.- l 2X! O.z.Q A ) 0 Y ) Y q.^.n.h.l.,._ x.0.T E A A D R.R.n.T. X5.6.xXw.S.w.>.;.6.f.y.r.f.n.0.n.n.T.T.m.R.u.(.f.K.y.f.r.S.r.E G % x +.E q.! q.[.[.~._.P.L.L.h h <.q.Q ) ) 2.) ) 2.2.q.,.r./ S n.5 E ^.>.y.>.8.a.8.0.5.0.1.<.<.) E Y S ! / 0.0._ v.n.T._ x.Q t.n.O }.cXn.pXr.n.n.y.m.q.y.,.0.t.v.1.t.[.m.( '.h.z.m.h.2.y.A.^ Q y.@ H F q.6Xb.[.^ 2.,.) 2.r.y.6.<.0.d.0.E / / ) / :.p.t.d.~.9.y.W . ",
"= #.q.LXVXb.R.'.t.R.t.0./ U r.~.r.U S ~ 2.3.q.O.~ ! ~ hX}.E }.;.e zXn.LXVX^.t.T.n.(.[.'.v.'.pX XpX[.R.^.n.v.m.u.v.r.t.SXCXr.g.* z #.! SXNXq.T Y w E _ ( q.^.t.<.Q 1.3.n.w.l.q.S A ;.0.LXFXn.Z.;.W xXt.LXVX7.;.6.y.f.n.n.w.r.0.n.n./.n.n.n.9.6.r.0.8.6.GXVX6.0.@ x o. .4X5X! `.[.(._.L.@XP.<.r.u.) Q U w E ) q.3.E E 2.wXN.R (.; a t.t.GXVX<.7.8.0.r.<.<.<.0.w.! D ! S S U Y Y _ l.t.R.LXFX1.y.O rXpXC.GXVXQ r.y.m.y.r.0.1.q.t.0.0.R.'.l.].o._ t.n.t.}.GX*Xj y.. B / {.HXnXl.( ) w.~ ~ n.f.0.E 1.l.) ,.r.,.R ) j.t.r.zXGX*XR A   ",
"* @.n ].f./ ) 1.Y _ Y R 2.Y t.r.u.t.q.+.+._ _ ~ ~ o.Y tXr.^ n.d 6 ^.0.FXf.W t.n.^.}.n.S.[.m.'.$X).6.^.^.t.f.,.r.t.,.E zXs.<.8.9 v @.b &XL.y.w.q.t./ 2.6.r.L.L.7.5.w.n.w.0.l.Q i <.Q ;.FXP.w.T.u ` xXQ FX`.w.f.f.K.u.~.u.y.f.r.l.l.P.P.f.L.u.y.6.f.f.7.FXK.5./ @ B K v 1XO.Y u._.@X@XL.@X).n.n.q.W U Q T Q ) [ _ / S E V.Q R (.; >.9.;.:Xs.a r.6.7.a.5.w.w.w.w.U D E ) ! ! ^ U Q n.l.T.CXL.W w.4 B.[.h.CXK.E m.m.r.7.7.r.y.t.0.r.0.e.^.z.X. .0.0.m.w.^.VX8.w W   N ~ l.CXP.0.l.j.3.0.f.y.T.t.0.E l.v.u.0.R D ) 2.v.~.[.bXE m m   ",
"c L c # : R t.:.Q 0.0.l.q.q.u.^.n.0.r.O.! ~ ~ m A ! E a h Q ^.p 4 f.W e 6 1.n.f.y.n.^.[.[.t.n.~.y.Q Q r.n.n.n.L.t.r.0.a r A n.s 1.pXQ r w q.x.c.n.2.l._ r.^.[.n.n.m.Z.l.0.t.0.6.T w.Q :.E 2.[.;._ pXt.' W l. X^.^.R.^._.g.f.y.r.r.n.f.r.f.t.E y.r.f.7.p 9 S o.# V L l b A q.~.P._.y.r.u.^.^.! q.m.~.t.P.S.0./ E _ 2.3 & & U l.6 h n.W e 6 p 8.' ,.8.w.n.n.6.W w D D Y U U 2.q.,.e.l.e.Y 3 Y 0.O Z.{.E 3 e w.n.n.7.6.r.<.0.t.5.0.5.6.n.R.l.S Q t.n.6.W a e Q W   H j.Y 3 3 Q e.l.E a.8.>.0.0.6.Q E h 1.g.>.R >.>.0.q.T 9 : H ,   ",
"v L V m M / O.~ l./ t.n.c.}.$X$Xn.f.! q./ ....~ ~ / y.^.,.P.bXd 4 ^.y.r.f.^.S.^.n.n.n.^.}.(.L.n.c.( ~ ! O.~ j.m.}.^.n.r./ ! R.h >.].r.t.t.t.0.t.0.e.n.t.w.^.[.l.T.n.v.h.n.n.n.n.w.t.w.e.m.pXiXh W BX|.^.T.[.[. XXX X}.^.n.^.r.0.^.n.t.P.y.t.,.OXg.y.0.1.D Y ~ $ N L V } c.c.E.$X/.l.m.l.l.j.l.) t.2.0.0._ l.q._ n._ Y A S ) |.4 >._ 5.r.6.6.r.q.n.w.[.^.n.6.,.) S _ q.Q R U Q y.0.n.[.l._ ) e.O 6XQ E ) q.t.R.&X^.^.^.t.d.^.2./ r.n.{.V.'.}.[.}.^.0.~.y.0.n.f.% N.pXM.G o.E q.n.~.S.1.r.t.w.w.u.t.Q >.8.r.0.Q q.m.e.r : 1 } v   ",
"= $ # # * * - 1 : < 5 4 8 7 8 u 7 5 $ $ = l l * : e y u w w i e 8 4 + 4 6 8 6 e 8 6 6 8 9 : # & < & $ # $ & & * 9 5 & $ $ < q h >.7 8 4 y e 8 6 6 6 7 y 8 p ;.6 e 6 4 4 8 6 6 6 6 4 4 8 u s u a j j u u d E W E s 8 8 e w : : 8 7 8 e u 8 6 8 8 7 - $ $ = $ $ $ = # @ & * * * m $ $ & : < % % ; 9 - : = * * = - # # @ & 3 9 e 6 7 4 4 + 4 4 4 6 5 ; y y 7 4 % % ; e %   % 6 4 ; 4 4 7 7 : > e q 3 O O 4 6 6 6 8 7 7 6 7 6 6 w 6 6 7 7 u 7 8 8 4 6 e 6 4 8 8 u e 0 5 u 7 2 < 1 S e 6 ; 6 e : e 4 6 % # # $ # & # $ $ @ $ = * * $ ",
"c } J ~ +.$.W.Q.cXMX|.|.xXK.K.L.9.$.E.%.X.%.#.B.R.n.n.R.[.T.E.0.y ' 5.5.0. .! ) 0.` T.y.A M m / ) 2.M M ~ V V C ~ ! } I | Z {./.] 5.q r a R ] W h s j j 5.w.0.h h >.5.d h 6.W y d p f j 5.` 6.d T.XX^.uXBXfXcXdX&X|.[.H.A.H.'.{.Z.x.0.^.^.T.XX|. .Z Z B L K H N v H H B <XL ,X,X1X@.K <X2XC C F Z | | L H H H L L B B X.o.Y M.' <.'.t.w.E.0X3.l.uX}.[.m.w.) n n c N n v ) t.0.,.0.w.}.3.B.{ B.l.z.e.' l.0.q.) E Q w.e.0.d 6.x.' Q w.P.u.r.^.t.h W <.` <.W <._ ! l.h.A.Z.M.X...#.+.O.%.A.B.B.0X0XT.Z V J H V L N B V V B L B V z ",
"u AXMXNXxX|.XXMXAXAXZXDXJXZXAXNX|..XxXdXdXBXAXDXAXZXAXZXZXZXDXw.u DXbX$X0X0Xl.tXpXBXAXZXVXNX).*XNX-X$X&XNXxXE.`.VXAX*X*XBXA.BXQ W cX[.Z _ X.tX^.j.R.~.S.^. X}./.b.T._.~.u.^.|.t.0.w.f.r.r.^.^.i P.DXDXSXJXJXCXDXDXBXJXSXdXSXCXBXSXDXAXAXDXCXCXdXqXN.6X2X<X<X<Xc v 4X4X>XgXhXfXhXkXhXkXSXmXuXfXfXmXkXkXkXgX8X8X8X8XlXJXmXrXcXJX_ 8.BXcXcXfXgXuXwXhXDXSXuX].N.V.5X*.=.@.@.yXcXxX^.dXBXAXpXiXcXfXw ^.BXpXrX^.zXBXzX}.[.fX'.l.{.nXpXyXCXbXzXpXxXcX^.@X XzXA.'.5X2XS gXhXuXwXwX5X6XiXCXhXBXkXkXBXSXSXwXwXhXqX2XuX0XqXfX0XqX1X4X4XK $ ",
"u |.5.L.*XK.L.[.XXXXXXxXZX|.XXT.u.B.[.dX[.sXsXpXXX.XXX[.`.[.R.Y w XXr.y.%.%.) l.E.y.w./.u.|.e.r.n.t.y.f.T.[.T.f.}.pXr.(..Xq.{.) T ^.6.D S R 0.Q ,.0.w.<.,.w.0.t.q.0.6.Q >.>.6.>.;.W ;.;.0.w.5.7 L.BX&XXXiX[.A.[.MXW.ZXdXM.iXdXrX!.dXR.n.XX/.[.Z.O.X. .2X@.J H * V <XC N.7X+.z.6XqXqXqXuX0X[ qXv.l.=.5XwX1X2X1X1X1XfXqXcXbXpXXX^.0.[.n.[.@... .N.| c.E.z.r.l.$.q.Y q.2.M t.'.B.h R.rX6.w.*.x.Z.S  XR.Y Y 0.0.n.T.^.n.z.T ! _ c.2.u.XXz.^.n.^.^.t.t.w.Q 0.G +.0.: [.W.l.O.#.+.N.Z.{.{.tX!.{.Z.Q.qX*.=.%.) ^.q.c.c.$.U ~ 2XJ H , . ",
"# q.e.IXFXI.y.[.xXxX.XBXNX*XxXP.T.E.{.{..XjXXXW.|.sX!.UXFXMXR.U y $XQ IXaXQ.e.(.sXr.0./._.`.^.w.T.XXL.n.^.|.`.u.xXdXJ.LXGX[ %.' E v.0.LXvX0.0.w.n.q.6.r.<.0.t.w.w.0.w.' 6.7.y.r.6.>.h GX-Xq.f.4 5.&XXXUXLXBX{.0XMXdXMXqXqXfXfXiXiXpX}.tX[.R.A.R.l.! ..kX7XZ H * z >XK mXHX3.) 0XhXwXqXfXqXl.wX0X5X2XqXwXqX7X2X1X2XwXaXPXHXZ.MXg.0.zXZ.LX7X} *.6X6Xv.m.v.r.E.z.R.q.c.y.u.[ 0XV.<.W.rXn.HXHXm.n.: E.n.T mXVX;.0.^.XX^.3.O.0.m.0.r.^.[.A.m.t.'.[.m.m.' l.FX#X( E ; S.v.pXSXCX+.#.X.tXyXZ.A.H.sXpXeXE.R.q.E.T.m.B.%.$.R =.hX=.! A   ",
"$ F 5.FXP.T.9./.MX&XXXMX;X^.&X/.E.!.XX^.[..XR.R..XXXw.GX@X/.[.<.u -Xy.FXL.T.T..XXXn.~.n.P.%Xy.K._.(.w.K.n.}.m.y./.E.x.NXK.W t.s h q.Q FXK.0.>.w.n.6.>.7.7.t.n.0.w.0.d 5.>.>.8.w.y.w.;.:Xs.w.r.8 f.&Xt.VXXX_.-XrXuX0XMXdX6XiXrXA.B.XX XfX^.t.R.R.q.S G 7X~ o.K = N >X! iXpXo._ 6XfXz.V.fXqXW.W.m.fX2X=.7XfXwXiX2X1X7Xn.vXC.G fX,.n.zXR.pX0.B.].6XcX$X[. X(.^.(.(.P.e.e.t.0.V.A.W c.m.T.:XK.0.^.; l.V.%.fXf.E >.g.|.T.0.o.~ V.l.2.h.e.m.|.^ q.e.w._ T.^.:X1.! ! o D.O.O.nXP.Y T M.wXE.{.M.N.pXR.k._ m.~ qX%.l.l.] _ Y O.uXY 0.3 # ",
"* Z 5.u d e.L.I.MXNX$XXXxX/.|..XW.+.E.R.[..XR.XXsXdXf.e W { xXe.e *X8.d s e.[.|.n._.f.~./.P.8.L.^.q.J.~.r.w.u.~.R.~.u.a d r.`.i h ~.>.u ! ' u.e.t.8.7.w.E l.T.w.6.' <.0.Q 5.6.w.Q i q 2 q ] 5.8 y.:Xu.s d >.~.&XpXXXNXXXW.qXB.0XR.!.pX|.n.0.T.n.Q E ! b b  .H * B 1X~ E m.z.l.%.qX6Xc.6X5X0Xv.c.fX5X#.2XwXwXwX5X3XqXE r E m.BXE n.cXn.i r ^.MXcX}.[.&X-X`._./.P.L.t.y.r.n._ q.0.c.m.) w 2 Y Q 2 z.l.b 3 _ _ e.[.'.R.q.0._ uXyXj.z.<.q.l.( ! m.l.q.B./ Y 2 O.S ; ].Z.G A e E D O.H.qXMX}.x.uXv.{.m.tXE.Z.l._ $.l.x.[ Y m S c.m @ ",
"= Z 5.W u.^.^.~.*XZX_.y.XX[.R.[.qXV.$.[.pXR.[.pXsXdX/.w.R.R.pXx.p zXf.6.0./.XX/.u.T.m.T.XX/.L.`.).~._.r.U 1.L.~..X`.`.`.J.y.L.W d ^.r.' W e.R.n.t.r.6.w.Q T.v.T.0.w.) n.l.6.5.h E D w w h w.r.8 9.&X_.y.0.f.n.*XAXzXMX X'.uXpXiXE.uXBXBX^.&XxXXX_ E %._ n Z o.= x 2X~ q.tXM.M.M.q.V.%.) uXA.A.W.hXwXV.M.3X7XqX5XuXwX/ 3.j.c.aXl.t.cXT.~.r.r.m.dX&X@XxX&X}.@X/.f.f.L.f.y.r.a.) q.Z.x.c.l.! ) l.6 _ n.n.Z.w.~ 5XpX[.m.) _ n.M.o._ _ ^ j.m.n.n.l.x.Z.v./ E 0.z.s O Z.m.q.0.E E <.Y O.z.iXW.l.A.M.BX XxXdX0X$.l.O.l.O.n.O.Z t.c.~ $ ",
"# ..e.0.[.^.T.[.&XxX[.[.MX.Xn..XtX0X%.E.eXW.XXXXE.R.T.T.MXR.^.) e |.n.f.f._.P.T.>.6.n.n.w.u.^.^.~.).y.6.) >.y.~./.~.~.L.L.r.t.d d [.r.6.5.0.T.m.q.e.;.w.e.0.n.m.e.,.r.m.T.r.r.5.q.R h >.;.0.0.6 r.&X/.}.[.[.|.zXCXDXAXcXdXcXdXfXZ.uXBXSXKXbXT. X&XZ.z.z.N / ( $ z 7Xc.N.qXN.M.wX0X%.B.m.fXV._ Z.fXuXN.M.5X5XqXqX6XcXn.n.E.m.xX) 3. XT.n.~.g.~.pX X^.*X Xm.(.P.9.y._.^.r.t.r.r.q.z.r.t._ 0.R.B.4 y.}.^.'.n.~.m.{.R.'.q.l.[.~ r D ) O.3.E. Xm.R.m.z.0.3.E r ( W 4  Xn.>.r.[.r.0.h.A.5XA.0X X{.dXnXzXpX0X..r [ ) Y  .^.|.( ~.q.3 . ",
"# x.w.w.T.[.u._.&XxX/.[.MX^.n.[.!.$./ _ tXdXXXR.[.T.r.8.P.^.|./ 6 XXe.T.n.g.y.T.y.Q r.u.>.Q ~.u.u.u.0.0.W W y.~.`.).~.(.L.y.m.a 5.XXw.0.t.t.t.n.w.5.h 2.0.1.0.) 0.0.w._ m.w.q.u.e.E y.s.j ' >.8 E {.q.t.XX`.}.MXpXpXAXpXcXdXdXiXE.dXdXAXNXn.^.R.l.XXW.].O./ ~ $ N fXz.+.#.z.V.V.0XB.V.qXwXN.~ O.iXtXc.W.qXW.0XW.6X].n.R. X XxXR E G.q.q.r.0.v.{.q.0.{.^.q.y.f.y.r.(._.K.(.f.f.u.n.W 6.0.e.^. X7 P.pX X Xm.t.m.q.0.^.n.q.0.Q 0.E E E ^.{.yXc.n.^.zX^.( _ _ |.l.4 '.n.T n.uXR.n.m.A.qXA.'.R.pXcX6X5XdXz.O.>.6.0.q.m.x.u.u.q.7.W . ",
"7 n.0.] T.^.T._.f.L.^._.xX[.T.^.R.m.u.n.B.c.W.B.c.R.r.T.[.^.|.6.e T.n.0.n.L.r.) 6.>.0.l.6.r.~.~.^.t.E ) 0.6.u.u.(.`.).y.L.w.%.i y ^.g.w.P.y.f.w.w.5.<.w.w.w.Q ) q.q.T.R.^.r.' s r.y.r.>.>.6.>.; v '.2./ c.g.f.pXBXfXJXBXdXMXpXpX'.fXcXGX[.t.`.XXc.t.+.l.].) _ * V wXj.^ o.[ c.l.) _ _ A.0X$.U ) 0X0X$.Z.tXW.V.z.#.'.q.^.}.'.'.r 2.yX) z.q.r.m.E.w.u.~.R.v.r.p.n.F.f.f.f.r.5.7.w.0.0.6.! 6.n.}.e m. X]. X) 0.m.0.z.b.l.l.l.0.3.l.q.,.q.+.X.l.T.m.q.D.l.^.m.VXVX5.yX[.q.'. X[.m.tXdXMXMXXXZ.A.[. X[.qX%.q.L.y.9.e.0.l.e.[.q._ / o ",
"i m.6.' w.e.n.|.T.f.r.9..XXXT.~.{.XXXX[.n.m.l.o.%.z.6.~.[.q.t.E p -Xn.T.n.f.>.q.W W 0.^.u.r.t.u./.^.) t.u.~.u.`.).~.~.g.y.8.I w u ~.r.f.P.9.~.w.6.0.0.5.0.Q 0.0.0.r.t.R.t.6.Q 6.f.r.,.>.>.a >.% c o.! E c.t.g.pXBXfXAXJXMXpX}. XR.JXAXyXT.P. Xc._ 0.( q._ +.#.$ N wX~ #.l.) c.W.l._ q.l.V.z.( E c.c.q.q.c.3.q.q.+.Z.3.q.[.R.m.R ,.{.t.n./ a.q./ r.L.r.m.n.3.4.[.t.y.f.f.f.r.>.t.0.T.n.) t.(./.5 z.&X) T._ 0.R.! O.~ o.O.l.o.S ! j. Xh.~ $.B. .q.y.D._.l.m.}.^.q 5XV.z.}.cXn.l.rXrXMXBXpXl.^.T.n.U [.Z.x.0.d.9.w.t.L.n.P.n.[.) % ",
"T '.e.w.n.e.^.XXXX~.r.w.T._.XXxXxX|.xX/././.c.[ q.q.:.t./.T ^.>.u ;XT.^.`.W >.2.6.W r.XX^.~.~.t.u.XX|.`.n./.~.u.L.(.L.K.y.(.B.u 7 T.0.7.P.f.9.w.5.5.<.0.0.0.' E :.r.6.q.e.t.t._.>.>.>.,.6.<.A : N z.) ) _ q.z.Z.aXaXpXCXDXcXzXpXCXfX2Xz.z.q.q.( $.n._ x.Y O.#.c N ].^ O.c.l.z.uXrXZ.Z.V.V.+./ E z.m.v.( ].h.q.l.l.v.z.(.}.[. Xh R XXe.3.) x.l.~ r.m.S.m.<.p.g.$Xm.v.~.{.g.L.^.^.^.n.q.w.^.}.n.; l. Xn.t.l.l.B.M.O.~ E z.z.o.A S Q l...O.~ C.V.G ) &X*Xb.e.n.x.% #.j.m. X Xe.[.pXfXpXuX'.E.'.^.m.Q R.R.w.q.f.f.e.w.y.L.l.x.R./ O ",
"Q [.w.u.(.t.~.XX|.}._.u.|.^.P.$X.XMXxXK._..X^.e.x.R ) w._.y.f.u 8 $Xy./.w.h / >.6.6.0.m.~.^.^.`.~..X{.{.~.~.n.8.u.g.K.y.w.~. Xu 9 n.5.5.~.t.r.0.w.0.0.0.l.3.) ) r.f.t.e.u.t.L.r.a a >.6.r.R E : N qX_ _ l.m.m.c.W.V.0XaXCXMX|.NXW.V.V.V.c.l._ ( z.n.n.0Xq.$.X.~ 1X].^ _ _ l.z.M.N.m.A.W.M.! E 3.l.A.#.o.V.Z.^ / c.m.M.h.[.R. Xu <.[.e.R.Z.l.O.l.v.m.m.].8.y.L.#Xt.R.}.}.L.[.pX}.S.n.n.2.~.3.b.5  XzX^.^.T.r.l.M.#.+._ A.l.( E ~ t.R.c.c.z.V.zXL.Q /.].l.E l.l.: V.^.^.^.}.[.pXBXdX[.0XpX+...x.m.q.l.M.n.w.t.w.t.q.0.r.E.A.{.x.4 ",
"E E.e.0.f.P.P.^.^.$X_._.P.%X$XXX[.XXXX`.[.^./._.].E.[.|.$XK.P.h e *XT.r.1.r.6.0.,.r.0.^./.~.`.[.NXXX`.~.^.^.^.u.f.L.f.t.w.T.n.e : q.5.w.L.n.n.0.6.w.0.0.r.l.w.n.n.t.t.n.q.r.6.r.1.6.1.1.p.>.S & v 7X_ t.n.v.c.R.0XV.A.V.W.MXpXz.M.qXV.V.x.3._ ( z.R.m.z.2._ +.= | 0Xn ~ z.o.+.N.Z.V.M.E.l.) q.l.o.l...O.A.l./ l.A.l.c.X.X.l. Xp w.n.w.A.[.v.v.G.'.v.v.R.y.r.1.0.n.{.[.t.n.~.^./.n.w.n.l.n.( b.8  X X^.m. Xn.^._ ^ ~ l.z.) E _ j.D.yX].m.Z.pXn.0.) x.O.G Y 0.w.e V.t.q.n.^.[.pXxXZ.}.XXR.G +._ q.z.R.c.[.^.n.r.e.T.w.r.Z. X}.l.4 ",
"s |.q.' u._._.|.xX$X^. X/.n.^.m.c.t.XX[.}.|.T.P.XXXX|._._.9.t.g e &Xw.[.^./.T.,.W r.6.T.u.u._. XXX/.XX{.~.|.g.r.g.~.n.^.[.e.n.q u [.r.6.y.L.q.w.0.0.1.r.r.q.w.^.~.r.e.T.n.Q 2.8.1.<.>.,.2.0.2.$ v N.) t.m.z.R.A.0XB.M.V.V.qXz.z.m.%.z.A.$.q.) ( l.n.v.%.l._ F # | Z.M / Z.V.A.l.Z.c.q.].( E ! v.v.v.( ) R.3.2.q.m.m.+.q.+.)  Xj y.b.) m.'.u.m.l.v.g.'.'.n.q.r.r. X XzXpXn.n.S.(.S.t.^.e.w.2.n.8 bXbXC.C.2.R.[.r.q.S ~ h.Y E h.3.3.M.^ ~ A.z.+.b.b.{.v.z.m.Z.0.6 ]. Xn.^.[.^.^.xX[.A.z.'.B.A.e.m.R.z.l.n.t.^.y.w.(.w.e.E.pXZ.' ; ",
"u R.e.e._.~.^.XX|.f.^.*X[.n.l.q.x.v.n.n.^./.e.n._.L.|.t.n.W w.w 2 VXw._.P.P.S.,.>.r.t.u.J.`.`.}._.w.[./.g.(.~.g.|.^.^.^.[.Z.zXd u R.r.8.w.9.w.6.6.7.6.p.r.0.0.q.0.2.y.t.r.0.t.6.u.2.,.,.0.Q ) < c #.E q.m.c.l.z.A.M.V.M.V.qX%.m.Z.c.%.q.$.l./ ) q.n.l.Z.l.) ~ : =.cX! / q.M.V.m.x.l.) Z.{._ S q.q.q./ ) t./ O.) q.3.Y Q 2.:.m.g 6.}.v.m.Z.l.q.l.p.r.'.m.r.R.m.>.m. X[.[.n.L.S.^.`.[.[.n.w.0.m.7 zXbX XpX'.h.D.^.}.l.( q.( _ ~ ( ( o._ _ ^ C.C.3.n. X'.m.u.u.0.; t. Xl.n.n.^.S.^.pX'.x.n.^.R.w.R./.x.Z.0.0.~.7.8.L.r.w.R.E.E._ O ",
"w '.x.T.|.^.~.^.L.P.*X'.c.}.`.Q 0.v.q.q.T.^._.K._.n.~.Q <.W }.1 * E.0.P._._.L.~./.t.r.J.u.~.^.~.).y.u.L.).L.I.f._.u.n.u.^.|.xXi i ^.r.w.w.5.0.Q 7.6.r.w.p.1.E w.0.0.w.r.y.w.r.w.u.r.r.0.0.1.E ; = M.) 0.t.q.z.A.0XM.c.z.{.].c.%.l.q.q.z.l.q.) q.z.l.q.R.0.) _ < H SX+._ q.l.V.Z.c.q.q.z.].l.q.q.q./ 2.q.v.x.X./ 2.q.2.2.q./ z.g t. Xx.l.l.0.r.^.g.v.v.m.4.r.,.,.<.0.e.w.n.n.^.(.OX^.n.^.t.0.n.; zXcX XpXpXG.v.[.^.'.G.G.}.t.Y E S ~ +.~ ^ %.`.q.x.q.q.,.w / Q & V.m.w.e.n.m.t.L.(.~.T.n.(.T.r.^.}.A.[.r.S Q >.8.L.w.0./.^.pXn.O ",
"3 {.x.e.[.^.|.~._.*Xq.q.) Q $X0.2.q.q.r.^.T._.f.P.^.^.Q 7.f.(.- * pX(./._.0.0.u.y.t.u.u.r.y.~.~.6.L.L.~.L.P.$X%X_.@X^.(.}./.}.W s [.w.0.0.w.e.w.r.0.5.5.<.;.;.Q ,.Q w.n.6.r.f.y.r.r.t.,.0.1.6.; = O.Q 2.q.0.q.M.A.q.l.M.].A.l.z.m.q./ q.q.q.l.z.l.~ r.z.l.) E # K nX~ O.Z.V.Z.V.c.c.z.3.dX'.3.3.^ E R q.E.m.~ ~ n.t.c.+.l.t.N.e r.M./ Q E R v.(.g.n.n.v.y.,.W ,.6.w.q.m.R.n.m.~.e.l.r.n.v.l.[.8 Z. X'.E.}.dXE.^.b.j.b.l.:._ ~ Y 0.) E _ n.) ^.&Xn.q.m.t.E 3.3.# @.R.e.0.r.f.^.y.w.n.}.(.n.n.g.^.^.A.E.t.l.t.y.f.(.u.f.e.n.XXt.o ",
"l 0XR.[.^.n.|.~.:X[.v.n.q.q.[.L.t.q.t.q.0.R.P.y.t.e.n.f.K.f.W $ $ -Xr.w.f.0.w._.u.r.r.t.t.y.~.`.r.y.(.~.g._.$X@X$X%X_.T./.^.}.j p [.0.' j 5.r.w.w.7.7.>.u E 6.Q / 0.0.0.Q 6.r.w.<.<.0.:.>.a 1.< c l.0.,.:.:.q.q.q._ q.c.{.c.c.x.l.2.) ) [ _ q.O.q.2.r.t.m.c.~ - | l.) ( Z.V.l.+.q.c.m.x.E.{.! / ) ) ! V.q.q.l.k.'.v.A.A.n.v.m.% b E.0.' R x.'.'.m.r.r.n.y.g.2.>.r.r.2.l.m.'.m.^.XXn.v.^.v.n.^.; n. Xz.z. XcXqX'.z.l.) U E _ ! S r.o.( ) q.h.Z.W.l.W.'.n.t.F.q.  l.^.w.n.r.y.R.n.Q Q r.w.y.n.d.^.q.n.n.w.e.w.0.r.w.y.u.t.n.^.n.% ",
"c N.z.T.l.t.t.e.*Xq.q.x.q.2.R. Xn.q.q.q.l.|.^.T.^.T./.[.P.f.r.* $ VX6.T r.~.^._.T.f.1.r.t.u.~.^.~.L.r.u.L.L.P.K.f.L.K.f.K.f._.j e n.w.r.' t.>.7.7.>.>.h a <.<.,.w.] 0.0.6.,.0.0.Q _ n.q.>.>.8.: = ^ ,.,.) 2.) E E / z.].W.Z.q.3.3.2.) _ ) E ) ! _ 2.q.l.V.l._ q | q.U Y z.l.) 3./ ~ c.Z.l.m.E.l.j.h.Z.W.'.tXtXaX].b.=.6XV.v.Z.& V W.<.>.>.a.D.].n.v.u.F.v.y.Q Q ) 2.q.q.m.) l.'.}.m.m.j.t.v.(.4 3.rXm.'.XX].rXm.'.z.3./ ! Y D S 2.S ~ E n.[.t.n.~ 3.t.t.t.t.,.. O.q./ q.t.2.Q n.Q >.0.n.q.m.n.) q.R./ n.r.Q t.q.w.y.y.y.(.t.1.% ",
"= X.! w.e.^.^._.*X2.) 2.0.t. Xq.q.) 2.0.c. X XXXXXXX[.T.T.0.l.- & -Xt.) 0.e.e.t.e.T.w.n.t.r.y.g.u.~.u.u.).P.P.I.f.y.f.a.r.y.L.u : n.0.;.5.y.;.j r.7.j <.j <.<.2.0.Q Q 3.0.w.n.n.l.l.T.q.E 0.,.& c M.,./ / ) ) q.x.m.V.+.+.c.q.) E 2.) ) ! E R h.q.z.q./ Z Z M 1 | m.Y / c._ _ q.) l.l.z.m.x.! F ! S q.q.v.dXO.Y '.c.+.l.C.+.5X< Z m.5.t.8.1.,.v.F.m.u.d.p.>.,.r.r.E.q.q.m.q.c.m.~.3.r.0.2.,.r.% _ ^.|.&X^.l.w.2.3.l.h.S S w D F A w E q.t.h.u.^.o.Y E t.2.n.2.# W.^.) 1.>.8.0.q.>.<.q.m.m.^.^.0.m.y.E v.f.r.0.0.q.t.n.y.^.u.>.o ",
"- } / t./.~.(.^.NX^.q.q.t.*X.X2.) ) q.w.0.(.^.n.[.[.^.n.m.q.x.* $ :Xu.r.r.r.0.' ` ' Q w.^.u.~.~.0.u.u.L.(._._._._.y.~.y.L.>.E * # ,.W >.6.' <.;.r.>.>.5.5.a.r.0.0.w.0.l.n.n.n.t.n.n.q.1.0.:.,.; l n.t.m.) q.) q.l.q.x.z.^ O.q.q.E U ) ) ! U D E ( n.q.2.Y M c v |  X) q.n.) ) q.l.z.M.#.M.v.:.E A E z.l.l.yXm.z.m.c.Z.v.Z.j.j.% c l.>.f.q.Q 0.p.u.y.g.y.1.h 1.r.0.m.0.l.l.w.t.~.r.,.1.1.r.D 3.# M +.u.'._ m.l.l.3.h.2.Y D D G G U / E b.v._ [. Xc.3.t.t.^.w.E # B.^.>.<.>.,.y.q.q.0.v.R.R.0.q.^.v.g.y.~.f.7.0.Q 0.0.y.n.f.f.A . ",
"c +.r.t.^.^.T.$X X[.q.n.|.&Xn.q.E 2.0.0.w.P.f.f.n.n.q.) n.n.m.* # &Xf.0.) >.6.0.` W Q w.u.T.T.~.r.u.u.y.f.K.P.y.f.r.L.K.g.Y E $ # ,.w ;.0.>.j ;.6.5.5.6.6.0.d.t.Q w.l.t.v.m.x._ t.w.w.0.) a R % $ q.q.z.Z.l.Y / l.l.v.Z.%.+.! / m.2.Y / Y E Y U R q.t._ / M ! , v  X0.2.l.2.2.2.) O.l.m.m.2.) 2.Q ) q.3._ 2./ l.v.q._ / / 3.O.: l %.,.E q.[.'.t.0./ r.8.0.<.r.q.v.p.Q l.r.0.r.r.r.0.0.2.t./ h.% S h.G G F l.k.F.#XzXz.Y G F 3.^ Q 2./ ( z.O.X.%.^.u.q.( E n.l.: X.0.6.r.5.a 0.2.E q.m.x.q.] n.D.m.^.y.6.~.n.>.0.w.w.r.w.y.g.~ ; ",
"= ~ 2._.(.n.^.(.^.[.n.n.t.r.n.t.Q ,.Q / 0.K.L.P._.t.q.q.q.,.0.< # R.8.f.r.>.E W w.0.0.,.r.n.y.w.r.u.u.y.a.L.L.K.f.K.^.y.E E ) * $ r.i r y.j p h 5.5.6.>.j 7.7.d.0.0.n.n.w.q.q.w.0.<.>.,.0.r.r.q H [.E U E E U q.m.q.x.W.q.( / l.m.q.) q.v.) U U i :.Q R c. .! = C pXq.t.z.) t.l.l._ O.V.].q.U ) j.2.Q Q %.3.) q.m.l.3.V.z./ l.; n #.) Y 0.n.^.n.T 0.,.r.r.<.1.n.E.q.q.c.F.W >.,.0.1.2.0.t.2.v.; Z 4.M _ _ E 3.'.C.v.q.2.o.( r.r.R ) O.Z ..O.o.2.q.E S.t.j.}.l.%  .l.q.3.E ! ,.(.n.^.^.n.0.w.t.(.^.f.r.t.m.w.0.w.r.0.0.0.w.u.r.. ",
"* J Q r._.0.~.t.^.T.u.t.0.u.n.s.6.0.,.w.w.9.~.(.f.u.q.2.E R q.* # ( R f.f.6.,.Q e.6.R t.u.y.J.u.u.L.~.P.f.f.y.t.) t.u.Y Y S _ * # l.>.w R a j j <.;.7.a a >.7.<.>.0.r.r.w.Q <.R >.a a a W W 5.9 *././ E.v.E x.m.E._ _ m.l.q.q.z.q.) ! q.m.q.2.E Q 2.t.^.l.S S $ Z rXE q.T.q.q.^.W.b.O.m.].c.) / M.V.l.) ) l.j._ k.j.l._ %.o._ ; = G Q 5.r.w.t.n.p.r.0.Q 1.r.r.n.m.'.m./.^.n.0.r.,.,.:.2.v.:.) % Z 3.F q.E.u.E v.n.y.3.2.U ) }. XO.3.! F ~ ) O.F P / q.t.z.^.M.@  .z._ q.m.w.n.^.v.'.n.q.e.w.r.r.y.g.(.^.t.E q.r.0.q.w.u.n.0.r.% ",
"* #.q.q.~.n.y.r.r.w.u.u.~.u.r.0.q.q.w.t.w.e.n.s.9.f.U w A U 0.$ # q.U d j a.y.0.n.6.] r.u.u.y.K.y.y.L.f.(.r.y.0.6.q.$.M Y C _ * $ X.6.w./ 2.>.>.<.Q 0.<.R a <.d 1.0.w.r.0.0.>.:.Q R R W i R >.i | n.) m.v.q.) E q.! ! / q.q._ E q.Z.E.m.) E l.l.q.v.v.r.) Q _ * V $.A E q.j.n.^.c.l.j.l.Z.'.z.z.Z.V.q.E / q./ ) z.z.+.G +.F F @ b ~ >.0.w.t.q.n.>.>.<.<.8.L.q.m.v.l.q.F.n.n.0.,.r.2.,.,.q.2.h.:  .) Y h.l.F E v.^.S.n.t./ $.^.A.G n n Y _ ^ ~ P  .! E E ,.0.) # J z.u.g.n.q.m.h.n.m.t.2.8.q.r.0.r.F.L.q.0.0.u.g.y.t.<.W n.~.,.o ",
"$ o.,.] ^.t.t.q.y.~.u.n.|.^.,.r.Q E W Q 9.y.f.L.r.>.2 U S w Q $ # l.w >.y.j >.E f.n.g.r.t.y.~.g.a.y.7.f.L.y.r.,.8.E ! _ / 3 V - $ X./ Q u.Q ,.W 6.6.1.Q R W D h 6.6.Q Q Q 0.,.0.1.>.R ) >.>.9.p J yX_ q.( D Y ) _ / ) q.q._ 3.3.l.Z.Z.l.l._ +.c.x.c.Z.m.].~ ( $ B @.M l.c.v.O.z.c._ ^ M.].A.A.m.O._ S U ) m.z._ ) ! D G ~ S E % v r.f.XXt.w.n.q.0.>.,.<.0.y.t.m.2.>.d.y.0.2.r.r.2.,.,.j.2.z.n.% L %.^.'.) F ( 3.( (  .r.l.! r._ ! n m S ( +.^ n S E w ) R 0.,.@ ..x.$.[.) q.^ _ E q.r.>.>.>.d.0.r.~.g.E E 6.>.r.L.f.6.P.6.r.R . ",
"$ ~ U CXVXt.W q.c.c.[ ) 2.2.u.q.T U i ! y.y.t.L.r.i 3 qXc.! Y $ @ ~ 3 HX:Xr.R w.r.r.6.w.J.u.L.f.L.y.8.f.K.f.L.9.) E U SXX., m * *  .D CX-X,.R W 6.>.5.5.>.Q D r ;.<.W W ;.W <.<.>.1.5.VX-X6.>.; V fXz.SXuX) ) z.q.q.q.q.2.0.0.2.v.z.c.m.c.O.o._ Z.c.%.DXCX~ ! $ H 1XJ hXiX_ n.2.z.n.l.m.0XZ.].n.z.q.S A S _ v._ ) ! +.hXiXE q.$ M F.pXLXFXK.~.r.r.9.6.r.0.g.L.w.1.6.0.v.u.v.v.q.2.R v.mXnX2.d.# | j.}.hXN.M O.2._ ~ / _ ( ! +.Q A.N.Y ! ~ M.O.F ) U / &X*X6.O.$ @.! #.CX X>.) 2.E 3.r.Q T >.6.W w.n.y.,.y.f.E ) n.y. XGX;Xr 3   ",
"$ ( Y VXP.R ) O.$.( F S Z ) ^.n.E Y Y Y l.t.0.r.q._ Y N.A 3 m $   Z < *Xs.7.y.n.e.W y.K.f.f.f.L.L.r.6.W / 0.g.y.5.R < %.M : V * # n * [.s.a W >.h ,.0.5.>.a ;.>.a i W >.d <.<.>.W 6.W -Xs.a 1.: N {.0.CXq.U Y / q.3.z.m.,.E _ [ 3.z.m.l.z.m.l./ ) ) ^ nXq.E _ * K <XC 2XE E ) 2.l.Z.q.n.m.Z.{.m.'.z.q.2.q._ v.z.c.l.N.iX) r ~ @ N =.g.GX9.y.f.t.g.L.w.n.y.r.P.f.t.~.v.r.n.v.p.t.n.Q l.pXp.6.q.# | ~ ~ iXD 1 c S ( ! ! S U ( +.q.#.z.! ~ _ $.O.q.( O.Q ^.6.2.O.# #.Z 3 W.8.0 l.n.( E 2.5.q.n.,.Q r.f.0.n.F.0.h.m.^.n.q.`.s.E 0 . ",
"0 c.T u h Q O.$.z.! n ~ ! X.^._ ) / ) ) ) ] R A ) ! m & & < b #   } S 5 e W n.t.n.>.r.y.9.,.E ,.,.0.Q A ) _ Y T :.>.i & # - ~ * $ C 1 ; ; e 5.Q g ;.;.<.a h a W T R a ;.<.r.6.;.1.6.R 8 7 R Q : K l./ W w E ) / ) q.R.v.~ ! ~ / ^ z.N.R.^.R._ [ o.+.l.R : n C * H L v - q n.t.m._ v.l.q.c.l.l.~ ;.) F M ! ! G ~ A.N.q.R q E  .@ V V.y.w : >.y.f.r.8.7.0.r.r.r.u.f.S.t.) ) ) ) q.) ) E i r ) ~ @ Z m 2 & # * l b F ^ Z G F S ) ~ o.%._ ~ ~ o. .^ ( ~ S w 9 ( ! # L K - : ; r 5.w.3.0.q.E 2.v.m.q.2.6.0.6.r.3.w.6.q.n.T < 2 _ U O ",
"w [.5.w.f.^.].+.| #.m./ 3.tX*.M.l.! _ ! Y F S M V V V n n M M $ @ J ! 6.Q r.^.).^.L.0.n.~ _ c.O.~ q.O.O.o.o.O.X.$.Z _ ,.>./ C $ $ V c b A W U w.r.W <.Q W E :.i U R A >.1.7.0.0.) q.Y w R / S * K @.Z F  .l.z.q.q.r.n.+.~ ! ~ ~ z.V.6XA.Z.W.z.m.W.0XW.*.G Z K * K L J k.xX X^.^.c.o.l.c.Z.z.z.m.2.U / ) l.q.3.X.W. XrXW.z.l...# Z N.z./ w R n.y.Q y.,.1.y.y.d.v.y.f.F.y.m.^.0.r.v.l.r.0.f._ N.@ V H S b m m C C n G ..M M ~ X.X.@.2X#.X. .P ~ @.=.^ ~ 3.^ X.} @ H B v C ! 6.2.) l.l.y./ n.~.c.^.q.R.^.n.~.t.w.t.R.w.l.q.w.m.W . ",
"a 4 O ; O O 4 6 3 * @ @ $ 1 , $ # @ @ @     @   @ @ @ # @   @ @ - #     @ @ @ $ & # # # @ @ & $ $ # # # # % ; ; % o 4 ; O O     @ @   @ # #   ; 6 4 4 O O O O ; O O O 4 + + 4 4 6 # # @   @ @ * v # # $ $ # # & < & & $ $ # # & $ < < < < $ $ $ < * * $ $ $ $ = V $   8 g 6 4 O # @ @ & $ & # # # @ @ # $ * # # & & $ * * $ $ * , @ # #   . # @   . @ # # # @ # # ; ; : : : ; % % % # & & # $ $ c * @ @ $ @   @   # # @ # # $ * * , $ $ $ $ $ * * * $ $ $ * * * $   @ # %   # .   . & % : % % ; % ; ; % ; 6 6 6 4 O 4 + 4 4 4 7 ",
"g ` ' ' ' f.T.T.f.' A b M N Z H K H H H B V H  .B B V N m c N c * v = * = * v v V H L B c v ! W.'.A.q.@.3XXXMXdXx.B.f.u.W 6.Z * z ,XV V B L K Z.[.0X'.2.w.n.n.t.R.W.A.0X{.{. XpXdXE.Z ! M v v H V B B K Z C H Z V H J } H L N N H V V L @.L <X,X<X<X<X,XH H H c - c w 5.T.0.] 2.w l c c b J ! ~ } } Z  .X.} I  . .} } C C V V , N V v ! ! 1 c m S ~ X.A ! _ S z.N.K M Z J v H J C ~ c N v v B , H L N c z H L L | L B V B Z N Z K | | 1X,X,X2X<X,X| N v V C K H H H H B B B H H z J Z  .@.| Z I K J ! ..B.uXXX[.0XA.Z.#.0.6.e.y ",
"e XX$Xu.w.XX;XNX*X*XXX/.'.{.`.eXuXtXaXuXxXMXMXsXMXsXtX].~.Q.BX^ & 1XH J C J | | 3X3X3X6XqX3XcXDXMXCXxXJXSXDXJXDXpXnX}.^.n.^.| * = 4Xz.q.o.#.A.aXcXfX X[.}. XzXbXbX{.cXcXhXDXAXAXDXBXnXqX=.L L H H <XfX..6XwXV.aX2X7XfXnX6XwX5XN.wXV.nXSXwXgXgXhXgX8X9X9X>X,X>X* v ].~./.&XXXR.'.m. XW.S.m.XXE.MXdX{.B.{.xXzXpXW.H.0XuXm.z.5X2X= N 6Xl.~.~.2.m.r.n.aXA.q.q.m.m.aXbXtXt.c.V.V. XxXc.XX XZ.E.*.|   Z <X_ 2._ =.%.7XtXfX{.&XpX3X2XV.9XfXwXfXgXmXkX4XfX3XZ.fX3XmX2XB 4X4X8X@.#...@.2X3.aXtX{.NXwXnXaXhXfX].dXdXBXBXBXSXfXuXwX].pXn.. ",
"e L.7.K.e.W u.R.n./.E.w.w.m.0.E.c.O.$.E.E.Q..X{.XX^.[.^.R.w.$XW u  XE ) D 3 S C  .=.@.) l.l.e.m.A.rXR.R.qXdXjXcXT.m.6.R.e.U C # = ,XM r.c.E _ +.R.e.l.T.f.~.[.n.^.m.0X0XrXpX X{.[.T.w.l.~ S V H H 1XM.^.{.W.c.Q.m.tXl.z.Z.W._ r.m.L.|.BXBXwX2X=.=.2X#.3X@.Z #.* v _.>._.P.w.:.! Y l.XX) T _ e.m.'.z.E.B.Z.W.Z.R.n.T.R.~.q.) ~ $ l X.D r.,.a W Y E *.O.E E R R _ z.l.E Q l.$.l.n.E q.,._ C M v @ V 1Xm ) Q 6.l.O.0.q.[.^.(.Z.tXO.*...1X1X<X6X0X1X@.@.$.5XZ K H B >X@.@...E O.! +._ k.! ! B.0XtXt.E.x.[ 0XV.W.Q.E.pXZ.~ 5Xh.z.n.O ",
";.%X2.UXFXT.e.R.^.[.l.e.r.c.) %.q.( X.*.V.V.W.sXxXsXXXLXVXm.w.E u [.<.HX-X0.W m.q.6XqXq._ ^.R.A.aXdXBXrXfXfXdXcX[.[.n.LX*Xv v < R SX2.DXpX_ Q #.V.^.B.x.^.}. XT.pXcXfXfXiXpXpXpX0Xn.q.HX XM B H K *.1XLXCXW.c.aXW.R.e.Z.tX0Xm.~. X^.$XBXMXaXfX0XZ.c.5XSXhXz.A.b ..XX~.IXVXW / / 0.l.l.] q.l.w.x.T._.{.W.Z.{.'.E.&XR.R.GXAXR $.* M #.y.CX`.i 0.q.q.B.%.Q Q 0.:.z.E.~.W.^.E.l.c.m.,.Y ~ wX=.n B @ Z | ~ nXVX;.u.E.c._ %.Q.`.XXaXO.B.6X2X7X1X| K #.,Xz.A.SXwXC J z >X#.2XhXW.o.^ M.~ +.o.M.qXqXQ.x.{.Z.x.uXqXtXuX[.y.q.tXLXmX_ q.4 ",
"D ].2.VXP.r.w.^..X|.T.0.,.c.0._ x.q.%.+.%.B.[.|.^.J.T.FXK.>.7.s 8  XU :XK.6.q.T.R.{.'.q.E.pXtX{.iXpXdX|.dXtX'.^.T.[.R.VX) v ~ e d NXy.VXr.R c.0Xn.x.'.t.n.y.uX[. XjXfX0XiXiXrXuXH.n.0.VXr.m ..B K =.B.DX]._ l.+.D.l.m.n.R.{. X`.m.^.@XdXcXrXtX6X^.m.c.wX'.m. X;.R.xXn.NX0.R Q ) 0.l.l.0.r.E.0.J./._.[.XXXXXX|.m._./.[.VX@XQ n.$ v #./ zX>.U q.q./ O.O.E O.0XB.W.E.~.m./.Z.c.c.n.q.,.W N.R 1 v @ Z L Y :Xf.5.m.c.l.z.z.c.m._.pXm.c.=.@.%.!.0XL H >XH H aXO.! 1Xx >X0XP yX8.! F o.+.z.l.z.+.z.) 2.l.c.x.c.tXW.W.{.,._ q.vX,.) r.; ",
"p l.R e u 5.t.R.^./.^.t.,.q.q.) ) Q ! O.%.c.[.sXf.w.R.u a 5./.W y zX<.w e 5.R.T./.XX^.T.{.{.B.W.qXE.R.n.tXtXE.t.y.[.n.W < b q.e h zXn.;.e W V.=._ ~ q.~.[.^.pX}.xXMX|.[.{.{.uXE..XrXz.Y 0.2.O.N B @.E.>.R [ A.o.m.m.[.m.n.v.'.m.$X_.^.pXcXm.7X=.W.uXO.! x.'.pXj w.zXQ i 7 W 2.2.0.0.Q 0.u.R.6.0.L.P.^.MX|.^.T.[.f._.l.e W ^.A.- ! m.m 2 q ! 0.q./ O.O.2.$.m.W.B.l.q.E E B.E.c._ x.2.U q 2 Y b @ N J U f e g.5Xz.l.z.q.t.m.y.R.e.l.*.^  ..XpXqXc.*.@.J C E X.| l H W.o.: : S o.+.+.l.o.+.! _ E E c.l.q.c.W.n.tXZ._ E._ E i m.) O ",
"g (.E ,.f.w.n.^.|.}.[.q.w.0.n.e.$./ Y ! _ x.y.n..X[.[.>.i 0.^.d y BXR.R.B.m.'.pX[. X^.T.pXl.c.qX0XW.rXrXiX[.aXR.t.Z.n.e./ _ ^.W E uXn.~.n.O.2XN.n.^.r.0.n. XpX'.BXcXpXcXV.V.uXtX'.pXA.M.yXc.W.n V c.] l.2.q.Z.W.[.T.R.^.R.n.m.^.zX(.T.tXBXxXaX0X6XwX=.H.R.XXXXp 6.^.w.Q R 0.w.q.W ) x.r.T.r.y.m.m.~.(.).L.y.9.P./.XX'.>.y.L.Q # / NX$.+.O.$.c.m.2.) 2.0.$.0.n._ S q.l.R Z.6.$._ r.E Q U a A S # C l.U 1.6.t.uX[.n.c.q.w.0.q.R.r.'.m.x.B.+.0Xc.V.t.Z.B.%.*.+...= H o.Z.Y m ! +.o.j.x.F _ z._ S ) Z.].q.B.tXl.tX5Xv.tXtXtX}.yX/ o ",
"< ^.Q y.f.Q 0.e.^.|.m.w.E Q q.[.Z.B.$.^ 0.u.T.K.sX.X[.T.w.' ^.W y bX[.0XV.uXfXfXpX'.^.^.dX0X_ qXB.c.'.rXfXdXfX[.m.A.[. XV.R.M.h d zXq.n.^.^.| m.~.~.L.y.'.[.aX{.dXdXpXBXdXrXv.pX XrX[. XcXA.m.M v zXt.2.q.q.Z.m.~.t.T.[.n.n.^.~.|.K.[.|.pX XBXtXB.N.0X5X[.}.^.u 5._.>.0.) W 0.u.,.) q.u.T.r.u.{.*XdXMX*X(.(.`.P.xXXX[.0.0.2.q.. 3 z. .#.c.M.A.Z.%.x.q.) $.$.q.z.0.q.q.0.W.q.B.q.y.) E U U A / @ N $Xy.r.T.c.qX0Xl.l.2.r.[ q.Q.].'.m.Z.V.5XM.) R.`.V.z.! J H K = L M.q.0.^ O.X. ._ l.Y ) l._ ) r.$._ ) [ E.0.E.#.V.E.Q.5XZ.z.2.  ",
"* q.r.w.w.0.) Q n.|.0.r.W a q.W.$.$.$.Q u.n.T.L..X/./.T.e.w.^.h 9 bX^.!.W.uX{.B. X[.^.[.Z.B.) V.2.l..XuXdXpXpX[.[.^.|.XX^.R.m.e i pXt.n.n.n.^.~.L.9.y.~.g.R.{.`.pX/.l.XXiXM._ pXfXE.R.'. X`.m.A ! bXq.r.q.) |.^.XX X}.XX[.^.f.n.'.l.^.^.|.^. XpXuXZ.W.pX}.[.[.d t.zX0.6.,.,.w.6.,.1.>.w.r.0.q.].'.XXdX`.)._.).K.$X_.t.q.m.q.'.$ n o.~ ..o.+.A.q.0.l.z.2.q.q.q.W.n.z.l.z.Q.c.M.Y r.) ! ) M m / # Z ^.y.z.c.q.B.B.$.e.0.q./ l.Q.].tX}.E.M.Q.E.q.n.pX^.L.l.~ B o.$ L K ! ( _ ~ +.O.3.j.~ E Y R [ 0.) ) / Q l.W x.+.qX{.N.5X[.q.<.. ",
"& ) >.6.] / q.t.n./.n.y.W W Q B.c.B.E.P.P.J.6.r.^.n./.T.w.w.T.d 7 cX[.uX^.uXpXx.m.e.w.^.c.z.%.V.q.e.^.pXfX}.m.n.T.}. X|.D.n.R.u i xXn.n.T.t.^.T.g.r.y.~.g.R.].m.R.E.{.6.0.m.z. X{.m.~.`.`.~.q.< Y &Xq.q.0.t. X/.|.[.0.r.T.n.r.P.n.m.^.|.pX X[.}.cXaX{.uX'.m.R.p e.xX0.0.,.2.r.r.r.) W r.L.y.r.tXtX].yX^.`.`.`.g.$Xy.w.q.T.t.q.# M V.G #.^ +.M.E Y ! Q _ 2.[ l.W.q._ 0.c.c.$.$.U Y E U ~ / Y M @ v ) 0.0.q.3.B.W.$.l.) / / z.aX{.[.[.{.m.[.'.R.m.pXF.y.n.O.V  .# B ! ( +.F %.#.~ E _ 0.R / ( _ / ) [ z.B.z.o.M.E.!.pX].pX{.q.<.  ",
"$ ^ 5.r.6.Q ,.0.r.L.L._.,.R ,.B.c.[ l.6.u.n.f.L.n.t.T.T.r.6.y.h u cXc.aX[.{.yXm.m.e.e.n.R.%._ %.) y.B.'.XXV.m.w.e.[.[.P.y.t.t.9 < yX/ :.y.0.^.f.f.t.~.'.'.E.E.m.^.R.m.q.x.m.q.v.q.F.D.g.D.q.y.9 ) aXq.r.q.A.A.0.~.[.^.d.n. X^.~.^.~.(.|.'.}.R.[.pXpX[.rXn.n.m.e E &X0.r.0.) w.q.] ,.0.u.~.r.r.tXQ.XX XS.q.t.(._./.,.y.6.w.P.L.% E n.m M.q.V.z.z.c.q.q.0.Y / _ z.2.R ,.r.m.c.r.>.Y Q U ! Y F M # c  .r.E R 2.c.c.) 2.W 0.$.E.|.].`.R.x.n.E.R.R.v.x.0.e.x.~ z m @ ~ / Y ~ F V.@._ _ z.0.E _ j.n.O.) _ t.+.o._ c.B.[.A.m.].^.W.1.  ",
"$ _ R 0.>.R R 0.6.,.1.g.r.q.,.) x.T.m.' t.P.T.P._.u.P.T.T.T.^.W s iXR.uX~.XX^.u.T.^.^.n.m.o.%._ ) ) _ R.{.rXR.m.l. XpX}.u.r.2.& $ 6X/ m 1.t.^.t.n.^.m.'.m.c.c.m.S.r.m.E.E.q.:.) 0.g.d.a.g.f.(.a ! zXq.r.d.{.R.9.n.[.[.^.^.^.l.n.R._. X^.{.^.rX'.^. X[.yXm.z.n.< c -X>.5.6.6.r.r.r.r.r.r.r.6.8.n.q.l.[.L.r.r.P._._.r.y.y.r.r.Q # b n.A %.q.A.3.q.2.q.x.m.q.$.z.$.0.2.,.,.c.x.Y r.0.Q U S m b Y @ N `.y.Y T ) l.[ 0.r.r.q.q.T.m.W.R. XE.E.m.v. X'.R.q.q.q.o.J Z @ ..z.! / ) #.#.+.O.z.+._ E E z.Z.c.e.t./ $./ +.z.+.#.$.0Xc.B.2.. ",
"$ _ ;.R >.6.6.g.u.0.0.t.,.x.K.n.T.n.R.e.T.P.P._.|.@XP.^.^.T.^.W w nX[.W.t.^.n.}.xX|.n.R.O.~ M.z.3./ l.E.V.A.l.n.n.Z.XX}.F.w.q.$ $ 2X2.M Q D.^.~.(.t.e.y.u.^.].x.r.u.R.n.c.].S.0.r.r.1.>.F.g.`.d T. X<.a.f.}.rXc.n.t.^.^. X X3.t.L.P.@X^.XX[.rXz.^.pXA.R.~.W.~.< v *X>.6.r.>.0.0.r.y.L.u.>.r.y.L.u.L.L.g.g.t.r.r.r.7.,.K.6.:.2.; M _ U  .S +.^ A 2.q.q.2.q.z.z.r.Q ,.r.2.q.q.E Y r.E M S M 1 S $ C z.y.R T R ) 0.) )._.n.n.,.) {.m.R.'.m.q.m.'.^.m.n.q.S ~ ..@.$ @.o.! ) /  .#.o.+.z.m.v.) z.A.^.Z.z.^ l.z.c.+.G O.l.~ z.r.W.1.. ",
"y R.0.g.u.r.y.g.t.) r.,.W q.n.T.u.e.[.T.~.P.f.L.^.$X_.n.^.n.R.E 2 fXn.[.B.R.v.Z.z.'.[.{.N.N.M.M.q.z.Z.z.z.%.! q.{.[.^./.,.q.n.: * V._ M ) y.`.n._ 6.u.g.~.~.u.r.r.g.~.y.~.n.~.R.r.r.6.>.) d.~.s P.zX,.w.n.E.R.R.^.u.^.f.~.pX X^.^.L._.^.T.n.[.^.&X X[.tXZ.l.F.< v 0.>.y.6.r.y.y.u.y./.(.y.2.>.q.g.q.0.g.u.Q ,.r.2.f.1.f.r.E E # 1 ( U / 2.m.m.n.e.x.0.q.m.z.O.q.r.Q ,.r.n.l.2.t.) 6.W ,.A D M @ B ! ) q._ a ) r.R 5.n.^.f.>.q.].T.E.E.x.r.y.l.g.y.,.Y / ~ K W.$ 2X#.Y S S o._ z.l.) / n.q.Z.Z.n.m.t.2.[ ) ) l.! l.t.l.Z.) R.y.4 ",
"5.$Xr.u.0.0.F.d.Q 6.0.W Q q.r.6.r.T.R.T.|.`.P.9.f.P._.w.T.u.T.p 7 5Xq.n.n.n.R.'.].zX X{.aX6XM.z.l.M.z.q.O.M.q.l.V.].n.t.Q E n.< $ ).j./ / y.n.'.L.r.m.^.~./.r.y.y.y.y.r.y.) x.t.l.y.Q :.W r.F.a L. Xt.^. X{.R.m.^.F.P.OXzX X^.T.^.L.S.T.'.^.[.}.XX'.pX}.m.l.S.9 c 8.j 2.2.u.u.g.~.S.L.~.(.y.8.y.L.,.y.q.q.2.<.y.f.8.i 7.g.,.6.% n 3.E E E 2.[.n.n.m._ ) c._ O.x.0.q.q.2.0.q.2.t.t.Q w Q ! E E @ n 3.>.n.E Q F.^.u.e.P.n.(.u.l.m.l./.}.l.q.m._ n.0.5.;.) l.V w.# @.k.S E ! ! ) ~ l.2.0.n.M.c.Z.^.^.n.d.[ m.,._ l.q.c.m.^.c.c.w.7 ",
"q m.6.8.r.0.d.r.r.r.r.0.r.(.K.6.w.T.e.w.T.T.T.|._.L.P.5.f.y.L.h 7 rX0.n.n.q.n. XXX[.pXR.Z.+.o.l.l.l.l.l.*.) l.%.m.V.z.2.) E q.: * `.u.t.I L.`.`.L.u.~.'.].~.S.S.u.r.y.r.2.<.2.u.r.w.) >.,.0.(.a L.pXt.n.zXXXq.^.^.^.^._. XXXn.^.S.n._.^.n.[.n.^. X XcX XZ.z.^.9 = ( 7.y.8.u.u.y.~.r.1.6.r.g._.).P.y.t._ ~.q.r.n.P.L.5.0.q.(.t.% S j.Q ) _ t.P.t.2.q.2.q._ _ l.l.Q q.q.q.q.q.w.0.6.R S ) U / q.@ C v.6.0.W t.n.^.^. Xf.f.OX^.m.W.Z.E.v.{.R.q.0.n.y.n.q.E Y M Y # | ! S Y ! $.n.q.R.n.q.W.].W.z.c.^.Z.D.n.Z.m.m.n.W l.[ ^.[.m.0.O ",
"* ! ,.) a.r.u.y.1.>.,.6.5._.n.0.6.w.K.u.t.y.9.~.^.|.@XP.~.w.T.p y  Xa.u.^.n.[. XR.R.R.T._ +.~ X.( ^ l.l.#.M.c.B.6Xc._ l.[ ) q.< * yX~.m.~ _  Xh.~.r.u.x.'.].^.6.y.6.1.y.0.>.y.y.W 5.r.2.0.0.L.3 y. X0.n.[.n.n.}. X^.}.$XT.n.S.~.^.[.&X_.n.n.q.[. X|.zX X].z. X< v C.,.9.6.~.y.r.g.5.>.6.f.L.L.K.P.L.P.(.).).y.L.f.oX(.t.~.n.q.% 2.Z.) 3.~._.t.! E 2.E Q E R R Q 2.,.Q 0.z.l.t._ D ,.q.Y 0 w Y @ } Z.f._ 2.t.^.W.^.^.t.f.(.m.m.tXtX].E.Z.l.0.0.q.q.0.Q q.) Z E @ K 6.3.3.B.3.2.~.^.].l.m.tXuXZ.m. XA.) v.~.n.S.^.~.Z.E.tX^.n.5.O ",
"* C W u.y.0.y.r.,.>.r.6.r.n.e.0.w.y.w.n.5.6.y.8.5.0.T.T.n.e.T.u u cXn.m.n.^.m. Xm.l.t.t.) +. .X.z.o.+.Z.*.%.l.M.M.E q.z._ ) l.< * bXc.^.m.X. Xt.m.d.n.m.m.S.].r.v.y.r.S.t.r.y.u.y.y.p.Q ,.1.L.2 y.zXt.T.^.n.n.^.'.T.`._.w.0./._.(.K.$X}.|.^.t.n.R. X^. X].q.z.e n ].R L.3.L.r.9.g.u.8.1.9.g.y.L.P.8.8._.y.P.y.L.y.f.t.,.:.w.q.% ,.^.,.q.f.L.n.q.2.q.S 3 Y / R :.Q Q q.2.c.m.n.R.t.u.u.E i ! Z & } O.Q Y ) q.^.^.m.n.n.w.(.u.m.W.{.W.E.q.[ q.Q ) y.0.>.r.) m ( @ ~ t.m.^.c.q.t.^.t.q.b.b. XyX'.m.'./ / r.z.~.~.S.].c.'.m.m.^.r.. ",
"* ! E t.r.Q 0.>.,.r.r.y.w.7.f.r.0.w.u.L.5.5.r.6.w.y.K.;.W 0.2.7 7 BXT.T.3.0.e.XX[.m.n.r.Y /  .o.F X.@. .+.+./ [ _ E 3.) w D *.< *  Xr.'.t.) ).'.f.y.v.m.].l.^.~.S.F.^.^.m.3.) y.y.~.l.y.r.1.L.i ,.}.q.T.^.m.n.[.~.6.~.L.0.t.f.@X(.f._.}.$Xu.t.n.T./.^.^.'.'.].: c b.m 0.(.L.g.(.~.q.y.r.f.L._.).P.>.j f.P.(._.P.t.w.0.0.Q r.w.5 t.D.R r.r.Y Q 2.2.E U w A Y :.Q 2.2.:.Q r.m.q.q.^.t.E 2.t.~ ! % K ~ ,.2.l.t.~.^.~.~.^.w.n.) w.m.l.x.l.[ q.l.) 0.0.5.0.v.Y Y R   o.q.r.m.^.}.}.}.t.r.q.c.A.tXrXA.c.q.r.~.n.S.z.c.m.l.l.&X^.~ A o ",
"$ ! q.u.Q >.0.Q >.q.0.w.0.a.K.9.7.f.w.f.w.>.>.r.6.6.y.d ;.>.9.s 7  X2.m.m.n.l.h.^.6.f.n.M O.) / S X.z. .P ~ ~ l._ ) ) ) Y D l.< * ].q.m.m.v.m.^.u.x.u.m.m.m.m.t.m.^.~.S.r.:.) y.0._ l.l.m.u.(.< m D.6.n.[.n.^.&X^.6.Q 7.r.t.u.#X(.t.}.L.^.f.0.0.^.`.^.m.l.R.b.5 1 d.>.0.~.~.L.~.).S.2.6.~.~.).S.2._ n.n.f.g._._. Xc.[.l._ n.m.;  X].2.u.g./ D E Y ) Y 3 A U R E ) Q ) 0.Q E ! S Y R S n.n.! c . H x.2.h.c.R.~.u.f.n.(.u.q.q./ l.c.~ q.q.[ q.q.q.w.q.0./ ) / >.  X._ Q r.u.~.`.n.c.^.Z.].].M.Z.].^.~.m.n.~.2.b.) l.m.0.^._ / ! # ",
"* M E 0.>.>.Q r.r.w.t.r.e.^.^.f.L._.g.f.r.W 5.0.:.w.w.8.<.j 6.w 9 ].r._ R.[.z.( <.t.~.n.A w q.U S S O.P ~ ~ F _ %./ ! F S S Y < * C._ m.~.v.`.~.^.m.v.q.) m.].'.E.x.m._ 2.q.q.q.) u.m.t.p.c.^.7 1 {.r.c.m.m.^.}.n.w.0.t.0.~.^.(.u.e.~.y.T.t.l.n.}./.R.n.T.~.L.6 h r.,.f.f.g.2.t.~.K.6.y.L.u.~.(.2.,.P.P.P.y.r._.&XC.[.|./ 3.}.5 3.bX3.3.4.,.D Y A U A 0 E E E R E ) Y ) ) A / _ E _ S A U C Z . C m.m.^.v.n.n.m.t.t.n.R E c.~ +.+.o.o.) ) 0.0.2.0.m.0.E ) U r.@ ..%.0.y.~.S.n.u.u.^.n.].tXZ.n.S.u.0.,.0.l.) [ l.D.'.q.z.z.~ / % ",
"= } S 8.6.a a >.r.t.n.t.n.$Xn.^.^.`.}.f.W 6.j h 5.y.7.r.7.d 7.p 5  Xq./ l.n.l.E 3.j.y.t.Y l.l.Y S ~ _ S / G n / o.Y S E U E ! < < ^.0.2.g.Q y.~./.u.l.2.q.^.'.tXm.) 2.,.p.v.) q.q.v.^.v.2.n.x.7 n ].n.t.n.q.#Xv.:.:.0.f.q.n.n.(.y.0.r.t.n.t.w.n.S.n.v.n.L.t.~.8 >.g.;.9.8.R R f.y.5.>.>.5.>.U r.r.Q g.f.P.y.5._.[._.u._.^.2.^.y q.C.2.! S 0 ;.3.Q U A w U 3 0 A ) E Y ) q.Q Q 2.) 2./ ] Q A ,.  n l.l.^.l.n.m.S.n.n.F.) / E [ o.M.O.q./ ) Q T E ) ) w.w.>.U 8.@ V U E }.^.`.`.~.t.M.m.l.^.~.m.u.y.2.6.t.0.T ] ) x.m.l.%.o.F ! # ",
"$ N Y 5.Q 5.>.R n.t.w.n._.$Xr.|.}.P.n.r.6.7.j 7.K.5.j j a.a.f.h e ^._ 3.q.t.~.q._ Q e r 5.w.0._ ~ ) S S _ Y E E U E U Y ! Y Q & : n.6.r.r.6.g.`.~.p._ 2.3.r.r.) ) n.) ,.y.t.0.r.r.l.t.q.c.z.n.e c O.0.y.q.0.) 4.) :.,.t.`.~.n.q.q.2.) 0.w.t.0.l.^.m.2.0.f.t.F.6 i n.f.r.y.f.g.f.8.5.8.5.j 8.R R f.2.f.f.L.P.0.3.n.^.l.^.^./ 4.8 ! C.q.( S S / S S Q S S A 3 A S E ) q.q.) q.2.2.2._ ) Q >.b b .  .^.W q.x.pXzX`.n.f.S.r.6.E q.S #.+.m.0.) R R W >.Q w.c.] 5.6.. Z Q w.^.^.~.n. X/.~.u.^.~.S.'.yXpXl.) W w.w.q.] $.q.! _ Y w b   ",
"* C Q w.>.5.r.w.).^.e.0.T.|.L.[.XX}.f.r.` 5.6.f.n.W j p k a.s.j e $Xy.,.r.P.g.u.r.0.A S 3.' / r.l.! D Y ~ / Y S ! ! E E U U ,.: $ ).r.2.r.r.g. X|.^./ 2.Q 6.u.u.6.W r.u.r.0.4.q.g.y.6.) b.n.m.7 v o.R ,.r.r.) 2.q.) u.n.l.'.'.l.q./ l.m.0.0.1.) T.n.n.^.^.t.n.5 a ^.L.0.,.g.L.L.L.g.8.8.8.8.R r.r.q.(.L.f.f.2.n.~.^.n.^.[.T.( % ~ m.D ) S ( 3._ ! ) ! ! D A A A D 2.m.E Q 2.l.q.l.0.E Q S 1 c   Z '.n.c.pXXX XR.q.F.S.t.q.c.c.c.~ z.m.>.R A u T x.0.n.n.v.q.q.. C 0./ l.r.~.n.&X^.2.) ^.y.{.yX{.].].z.q.E.l.O.z.+._ _ _ / ! A . ",
"$ C R ] 0.g.y.r.w.e.l.0.T./.u./.|.XX^.a.5.5.0.n.6.7.6.W 5.a.a.y 5 F.>.E 8.6.R 0.n.6.R E _ l.n.(.G ! Y G ~ l.) Y A U E Y 2.Q 3.< = z.>.0.1.p.v.l.l.'.~.t.E 4./.`.y.E S.g.0.p.p.g.F.g.d.y.6.q.E.< Z  X<.R 0.0.2.t.l.t.n.l.) u.n.n.r.t.t.r.0.>.Q 6.0.6.t.n.n.t.^.6 i m.r.(.L.y.g.L.g.y.8.9.8.Q E i.E t.^.g.f.f.~.n.n.0.E e./.m.z.# n ~.W r.W S ! ^ ) 3.! S D w A A 2.'.{.x.l.l.l.x.v.q.W u.l./ M   H ].n.E.'.'.'. Xn.r.r.r.q.A.].m.l.0.q.3.) 0./ ] _ n. X^.<.w.) % | ..=.tX].tX'.yX'.'.n.y.`.~.^.~.^.R.q.l.~._ R S  .J O.%.X.X.m . ",
"* v 0 W >.w.' 6.0.e.l.n.[.^.t.[. X^.n.f.y.W f.f.6.7.>.d w.n.t.e 6 m.6.<.A R E 2.3.n.p.E ,.m.n.n.S S ! _ _ ! Y E E E E r.E E ~ l - A.r.0.) n.Z.c.z.c.Z.Z./ _ c.m.^.r.u.~.p.y.r.F.(.n.r.2.1.0.l.< m.nXt.! 2.T ) t.Q >.l.l.) r.R ,.t.z.0.r.2.:.E ;.0.0.0.h.n.n.'.8 E  Xl.f.8.r.>.a.5.j 5.7.9.a.7.5.a ;.w.y.y.r.<.U e.n.n.0.0._ q.@ N n.Q 6.6./ 3.S A 3.! M 3 1 S / q.'.[ l.m._ ) E ) :.R 6.|.q.A   H W.y.) l.m.m.q.0.Q Q ) 0.c.^.q.E.'.l.0.l.l._ / 6.e.w.w.n.q.6.O V.M.X.+.W.W.].}.y.`. X(.(.y.r.u.~.u.L.n.r.t.n.E u.o.! M A ) v @ ",
"* K _ w.w.Q Q L.7.r.n.w.^.XX|._./.n.q.t.0.r.5.s.I.I.y.r.R.0.m.u ; ^.<.w.~ A S ) q.^.u.,.r.d.r.0.l._ F ~ / A / ) / ) 2.V.l.m ..= 3 pXr.^.R.0.l.m.S.Z.W.Z.Z.c.l.c.c.r.q.r.y.y.r.y.F.^.n.x.m.p.X.a ^.nXl.E  .U _ m.l.) 4.3./ q.[ E ) n.t.2.U E E ) ) 0.1.l.}.q.R.e 6. X0.0.6.>.<.j >.h 5.>.7.5.>.7.7.a.>.,.a.7.5.C E e./ O.G A ) % n E w / R ,.q.E q.2.E b A Y ) 4.D.) ! E _ ( / E E R a 2.,.s.6.. K M.0.`.u.0.w.Q ! Q Q q.q.l.q.E w.T.q.n.d a E <.6.r.w.n.Q b.t.O ^.t.t.V.n.}.^.R.t.~.~.n.u.y.0.F.u.~.`.m.l.g.:.W r.! ! h.U M b   ",
"* } ,.KX=XE q t.8.>.y.u.u./.y.(.T._.e.w.r.6.6.f.I._.P.LX:Xe.' g u BX0.LX-X~ A E t.S.S.~.d.f./ j.t.2.! S m 3 S _ q.0./ gXN.S , U u ^.n.CX:Xn.g.F.v.l.Z.c.rXZ.l.Z.l.q.v.l.h.q.t.1.Q q.R.LXBXO.'.a f.cXm.BXW.Y 2.l.l.2.) / ) w.0.6.~.n.t.r.u./ a R q.) 3.VXVXw.m.e 5. Xe.GX-X<.h 7.8.7.>.5.j h j a.f.s.5.,.y.6.f.E Y >.l.GXVXQ ) # n A A rXW.U q.t.r._ ) U E ) 4.v.! _ _ E E _ ) ) ) Y Y bX*Xa ! < | 3.m.CXnXU h.x.l.z.l.'.'.}.n.0.6.5.l.n.h.3.0.6.,.W m.FXyX-.E + &Xn.V.SXhXT.'.^.m.D.u.p.l.^.`.S.t.~.].y.t.`.0.U U ! c.&X|.w m   ",
"$ I ;.=Xs.W r.w.Q 1.t.L.7.' 5.E 0.n.n.w.w.7.8.I.K.P.f.VXK.d y.p f bXt.VXs.u i ,.w.d.a.s.<.2.t.*X(.l.S 3 A U >.0.w.0.W *X5.9 q.j 7 n.' VXK.5.`.n.0.t.c.n.R.l.c.y.Q 2.0.w.w.t.Q d W 7.>.:XP.Q /.g a.&X_ W.1.e D 2.R q :./ :.6.0.g.,.t.F.>.W u.u.Q n.q.Y VXf.<.q.4 >.[.W :Xs.w W r.f.f.8.>.7.>.f.K.,.>.7.a.R S 0.A Y S m CXP.` 3.; = m 1 rXR 0 / ,.0._ ^ / 2.) l.3.F $._ ) ) l._ ( h./ a ^.5.3 ! * J  ./ VXL.6.l.l.^.[.b.^.].[.n.w.w.l.e.n.q.0.Q E E w.t.VXa.i ,.% K  .~ 7X2.0. X X'.^.^.0.0.2.n.m.S.r.>.Q X.m.( _ ! l.! ].w w c   ",
"@ _ 0.2 q 7.n.y.y.w.w.w.K.s.f.e.e.F.y.0.u.K.f.K.I.I.f.g 8 5.^.j e bXf.e 8 <.7.<.Q 6.s.a.f.g.g.F.~.%X,.R A Q 6.5.<.r.6.e 4 W *Xu e }.W u : h 0.r.(.|.^.].T.m.y.7.8.0.w.r.e.n.r.1.6.h u i g ,.^.g r.&X' $ < R a Y D r a U i W u.~.r.r.t.>.D a y.n.w.t.;.: 6 w.e.4 d ^.<.w u W 6.y.9.7.5.9.2.f.L.f.6.w E A A A A 0 S N M 3 < _ [.6 U C = $ $ b D S v.q.t.3.) _ l.S / _ / Y / _ ) / r.w.R 5 : S C @ J H Y 3 i n.0.q.l.m.n.h.^.^.}.l.^ _ 0.t.t.! E R ;.l.y.e : 0.F   B B ! 1 w / M. X Xq.n.~.r.y.u.u.R.t.m ,.2./ b.~ Z K C < & m c   ",
"e  Xn.n.y.L.P.~.f.f.S.n.OX_.P.P.R./.n.f.t.n.^./._.@X@XL.L.f.P.h 8  Xn.0.w.n.9.f.n.f.F.D.&X(.F.f.t.~.:X(.E ^.t.0.6.w.r.E h :.$Xu <.XXw.6.>.<.6.q.`. X/.pXpXpX[.^.R.^.w.t.v.D.S.r.Q <.0.n.q.:.}.p f.zXd.S F ) ! ~ 2./ S A R W (.6.u.t.^.r.q.~.R. X^.n.n.9.K.w.x.; r f.p <.w.r.a.u.f.f.f.,.E Y G F E c v Q ,.R :.E E S m n v c _ 8 u.W.n c M Y _ F ^ O.0.2.n.v.q.q.^.^.Y O.E q.3.q.) E ! m C Z B # K J ~ ~ X.^.^.[.q.n.n.n.n.^.}.r.w.q.l.R.m.x.z.h.v.v.^.n.3.0.J @ H K V V H X.+.tXyXA.m.q.n.'.^.m.n.^.[.n.) o.P V V =.[.m.M V M . ",
"g 8 4 6 4 4 7 8 6 4 4 6 6 8 6 8 6 8 7 7 6 6 6 7 7 y y 8 6 4 6 y h 6 4 O 4 4 + 4 y +Xs.a g 8 7 y u y p @X4 4 4 + 4 4 6 4 O 4 k u i 4 4 O O + + 6 5 # # > e u y 8 6 6 4 4 4 6 4 4 4 + 4 4 4 4 4 i <.6 4 #   @ $ @ # @ @       - . % % . . 4 8 6 g 6 8 5.5.7.4   # - 5 6 4 4 + 4 8 6 % @ % %   #   . . # . @ . # @     @   $ #   u r + O % #   @ @ @ @ @     & & # # # @ % & & & # @ @   @ @ @ : E ; . #   # ; 6 7 4 4 4 O 6 6 4 + 4 4 O 4 6 ; O ; 4 6 8 ; 4 ; # $ $ @ # # # # < * # - $ # 5 8 4 6 6 y 8 4 5 ; : . . 8 4 8 8 8 8 e ",
"] ^.t.5.j 5.T.r.>.7.7.5.f.T.T.f.` 0.>.0.J.5.` 7.d u./.` 6.w.~.5.' nX^.n.^.^.'.S.'.cX0XiXdXSXmXW.cXBXdXBXBXMXcX'.uXpXBXAXaXZ.CXm.x.AXxX&X&X&XXXXXaX| L W.BXVX:X-XMX[.^.n.~. X(.t.x.'. XE.Z.|.f.a.t.v.w.Z L H B M | 2X .~ +.) q.! q._ ) m.XXcXMXZXxXdXJXJXPXkX>X= H *.XXn.0.y.T.S.r.E r.2._ %.c.) E _ q.~ ~ C N B v L K z H H K W }.5Xz.rX}.j.M...K L >X<X>X| | | K ..C H qX{.dX5X| L L L @.c.dX[.{ E.T.R.R.T.0.y.0.T.T.0.e.w.y.T./.T.] ' 0.' W ' x.T.U.T.U.C , $ H H Z L | | }  .=.@.} +.Z.u.v.t.n.r.E b.V.cXBXpXV.A.V.uX!.pXpXi ",
"7 _.T.W W E f.8.8.P.I.y.w.^..Xu.0.w.6.0.w.7.6.w.6.w.T.W 5.r.J.y y AXm.n.0._. XXX].MX{.fXnXnXSXDXCXSXZ.fXfXgXMXXXrXpXMXpX}.zXDXo.~ JXNXXXxXMXMXXXB.=.M.cXxX$X*X&XxXXX^.}.xX X/.r.E.XXxXl.'.'.(.e j  Xt.o.L Z Z ~ =.2Xl.q.q.n.R.m.W.x.q.'.aXpX{.DXBXhXDXDXSXSX1X$ v yX}.e.t.^.^.L.u.r.r.E _ E.B.0.r.c.n.n.u.t.n.q.z.@.2X ._ z.#.# z.fXz.L.F.z.Z.}.M.2XV.iXfXtXwX3X&XNX`.pXBX6XL ,XwX3X3XqXBXkXDX_ R.dXR.( _ x.R.w.w.u.y.w.u.K.P.[.XXXXf.w.u.x.J.e.R.[.!.T.X.N c   | H V 1X8Xz.z.n.pXcX^.b.A.].^.{.].m.S.zXBXnXCXMXfXfX5X0XqXcXdX: ",
"4 ;.E 0.L.6.n.w.W 0.7.e W /./.r.p ` >.6.8.5.W 6.d r.y.6.y.W 7.e u cXT.j.z.9.P.t.m.XX[.rXdX5XtX}.|.qXm.{.aX{.uXx.A.0XpXXXR.l.pX^ ! ZX[..XxX!.XXq._ B.l.(.R._.P.%XR.R.>.q.P.' 5.i O.R.T.q._ U w.u a n.0.N.>Xm / ~ M ~ Q R W 0.{.W.$.) ) 0.{.tXV.cXcXA.MXjXpXtX@.@ S &Xn.[.n.r.q.Q 2._ U R ) %.~ U E S E Y E / U E E n._ ~ Y ~ ~ # v Z.D ,.2.q.( E 3.m.z.Z.V.x.*.%.Z N.n.q.z.M.L I 1X2X6XwXV.dXkX! B..Xx.E.! x.U.d d W W ' w.' w.e./.[.' W w.' 6.6.{ ^.U.[.C , , # | ~ c @.@.! >.f.@X}.n.R.{.[.n.V.R.t.S.^.dXwXV.A.*.B.].qXM.V.A.O ",
"e R q GX:Xf.y.5.9.0.j j r.T.T.5.p j d 5.w.w.6.5.5.w.y.GX*X5.5.u p bX^.PXGXzX^.[.XXCXBXMXcXM.5XN.uXwXW.{.fXnXfX5XZ.0XaXUXCXl.].E _.JXXXLXVX{.c.q.R.XXn.R.|.}.L.$X;X[.y.f.v.d.w.w.^.'.^.CX*X9.r.6 g n.n.HX7XS m C C ..l.2.E 2.W.W.) _ l._ pXDXiXnXcXR.BXLXDXA.*.2 r. XT.LXVX) l.0.2.O.R R Q z.O.) q.S R q.) / E A ) ! O.mX5Xw )   l u.1.CX}.r.3.h.j.A.5X5XM.Z.$.( O.=.Z O.{.} ..} =.2XgXDXSX[.BXU z.|..XLXbXe.T.>.' 0.0.0.T.0.w.w.E.[.0.w.u.' 0.t.T.T./.GXZ.$ c @ L ! ].LXAX:.W 9.^.pX Xn.m.n.'.rXy.2.^.^.dXrX0X[.Z.f.cXGXCX .o.; ",
"k y.u =X9.7.W 5.7.r.8.f.9.r.0.j 7.>.j <.r.' j W 5.r.7.:Xs.y >.e u BXq.vX_.D h.XX}.aX}.MXMX'.].5XcXCX XZ.dXiXV.m.A.V.V.CX_._ E.S l.NXT.KX@Xc.B.q.T.^.n.R.|.^.n.'.NXpXn.t.r.r.y.6.t.l.) *X7.g f.6 e n.<.nX_ 3 M ! ( V.l.q.$.! $.W.%.$.R.t.MXDXBXxXiXO._ AXf._ 0X: 6.XXr.VX8.R n.q.2.) Q Q R ! _ ! S A E / _ ) Q q.q.E U +.S < S @ n S.<.-X7.a 3.l.( V.tX5XZ.m._ Y 3.%.n J B.} c.l.z.uXN.DX^.c.fXY R.[.0.CXs.0.T.6.0.6.6.w.w.E / e.x.R.0.` w.` 0.u.[.n.r.:Xk : *   K q.Q CX(.;.S.t.T.pXpXn.n.q.'.dX[.q.^.T.'.M.m.E.qXn.w.zX1.F +.: ",
"p n.>.g u s 0.6.5.7.5.7.7.T.n.5.5.5.5.j 8.W E ' W 8.7.7 6 g >.6 e cX_ R <.R ^.XX X[.m.XX X^.'.{.{.V.Z.l.qXdXn.0.n.5XB.1.W n.[.! l.MXQ / T {.cXT.e.q.n.^.~.9.9.&XsXtX^./._.T.r.f.w.T R e 5 r f.e D ^ <.m , C q./ / Z._ U ! E z.%.z.W.XXbXNX0XXXcXZ.l.l._ W V.qX4 0.`.5.p r 2.R.n.q.Y ) ) q.z.o.Q q.3.2.2.2.E q.) m ^ A # $ 1 ~ @ n ^.>.e e ) O._ R m.z.B.}.`.n.y.U u.w b X.V.m.) O.tXz.t 3 +.#.m !.n.d U s T.T.' W W ` W T W ' J.n.x.' W ' ' 0.w.n.n.' y ; 3 2   _ ) Q < Y 1.^.n.y.|.|.n.R.S.xXMXpX^.'.^.E.V.5XpX0X'.m.) r M.+.4 ",
"8 t.6.R ' 6.' ' W u p p >.7.r.i.<.j j 5.8.W Q r.' r.6.d j j 5.y u zXr.y.n.3.[.[.^.R.^.zXpX|.'.{.[.c. X XM.W.[.^.n.'.0.w. X XzX) U.MX[..X{.tX{.'.m.q.q.^.~.T.T.$XMX.X^.|._.g.P.^.z.q.,.<.r r 9.7 r / ,.O.Z Z ( ~ _ z.z.O.! Y A.o.+.V.NX-X[.R.pXMXZ.B.dXpXE.W.N.o c ^.1.R 2.q.n.q.) E ) q.x.R.M.q.q.Q :.E Q E E Y Y l.! 0 < m b.& G bXr.E 0.0._ r.>.q.O.z.'.m.~.m.l.r.W T h.m.m.[.v.c.) E ( X.o.l } c.w.u.0.T.~.0.' Q 6.0.T E ` w.e.R.w.T ` ' ' 6.r.0.Q W i 2 w . / 2.q.z.$.O.0.Q R.[.[.pX'.n.{.'.[.^.[.'.x.z.N.5XG.G.iX].^ z.E.+ ",
"y w.W 5.e.W 0.T.0.' ;.W 5.5.6.h j j h >.6.W W 8.W w.K.7.5.5.j u s BX~.P.}.v.[.^.^. X|.xX{.Z.{.A.].^.n. XD.l.XXm.C./.n.l.^.'.R.A x.CX|.{.W.uXQ.n.R.[.R.|.T.P._.MXNXR.[.R.^.b.l.m.'.L.r.r.2.>.P.e T z.L.Z.o.N _ _ $.z.0XV.#.) %. .G %.dXNXXX[.pXdXyXZ.wXwXA.V.B.% c [.,.:.q.m.m.q.) Q R e.e.x.O.q.q.Q ) A S q.! / q.^ Y A 0 S R.& C iX3._ ~.u.r.y.R 3.l.^ E r.b.L.m.g.T 0.r.6.B. XnXu.) n.z.%._ = o.`.e.T.n./.T.r.0.0.w.w.0.` ` { T.e.w.7.' ' 6.>./ / E E T >.i   Y w.Q z.[.[.l._ rX^.dXMX{.c.[.^.^.T.^.^.R.n.l.5Xz.G.dXiXW.0Xc.O ",
"u L.5.r.e.W w.T.w.5.>.5.a.r.q.>.j j >.5.5.>.W r.8.r.f.K.K.j 5.u a nXn.^. X3.) ^.}. X[.'.z.O.C.M.^.^.O.b.`.~.E.t.|.^.R.V.^.m.[.S x.CXm.W.E.A.W.q.) E.XX`.L.$X^.NXpX'.q.w.n.T.^.3.v.r./ P.n.f.n.5 r C.n.A.! M / R $.l.B.%.O.) V.z.M.z.%.E.pXpX5XeXV.N.6XM.O.X.+.; l R.,.2.q.q.n.2.Y Y ) e.q.:.$.t.n.'.2.Q x.2.) _ ) _ / ) R E ) # Z A.3._ L.r.y.y.1.) 0.0.<.5.m.f.L.r.E Q E _ l.x.R.,.v.E.q.'.~.= %./.W x.T.x.0.7.0.' 0.y.0.w.` { R.w.0.6.6.W 7.0.0.0.) ] E 5.w   M >.W +.R.R.x.l. Xn.W.uX Xn.R. XpX'.m.R.m.m.X.5Xj.A.pX].Z.2Xz.O ",
"u u.6.8.0.s ' Q Q 5.>.7.9.,./ >.j >.j ;.5.r.a.5.5.5.w.7.8.s.>.u g bX^.}.^.O.z.^.[.[.[.}.z.^ _ h.b.}.b.'.S.xXR.w.t.v.Z.B.^.R.C.Q n.BX%.l.0.z.v./ Q ) ~.%X*X/.&XxXsX{.z.[.t.0.n.n.h.j.R.^.0.n.v.5 E C.3.Z.v E a a R.z.E ! ) E m.l.A.6X( 3.%.M.A.V.%.%.V.%.) ..o.% c ^.,.,.q.q.q.2.Y E n.n.r.2.z.n.'.q.U E _ ) q.e.q.q.~ / Y Y / # b ( v.q.y.u.m.r.0.) E Q ,.i.r.1.(.`._ Q a l.O.0.2.0.^.l.) `.m., m./.0.w.e.e.0.5.6.' ' 0.` ' ) w.e.e.` E 0.W Q t.e.0.' ` W R w   Z l.2.#.l.B.l.n.{.|.^.n.^.^.R.[.qXW.Z.c.B.m.V.E.'.XXZ.+.l.6XZ.O ",
"u t.5.0.' a h T W 6.y.y.t.t.q.) r 6.5.>.r.9.5.8.t.r.y.8.j 7.f.g e bX[.[.^.q.'.[.'.T.^.^.^.n.+._ m.'.4.^.|.cX}.m.~.x.l.t.T.e.v.E w.&X_ 2.0.q.q.) q.~.0.r.w.m.xXXXXX X'.T.P.y.3.~.t._ 2.q.^ /.g.5 i C.3.{.q.0.W <.R.e.>.y.n.) {.E.l.m.x.c.B.O.) V.M.M.qXqXc.6X+.% = n.<.R 2.q.2.r.2.t.^.P.P.T.c.0.q.2.2.q.Y Y E 2.l./ Y U S Y l.% n Z.m.].h.3.l.u.) 2.:.1.R ,.r.,.y.$Xe.r.L.E.$.0.n.O.E E / n.z.1 e.n.e.w.e.) ' 0.r.' W W E W e.6.' 0.W s W W r.q.) W Q r.j d a . C q.n.M.l.m.n.d.W.^.^.n.n.n.R.n.m.c.R.^ X.z.l.B.n.'.E.'.R.iXV.4 ",
"e n.w.0.W j p W 0.6.y.8.R r.e.t.E 6.R 6.f.6.7.r.w.r.r.r.8.7.9.j e BX X^.^.l.^.n.m.R.n.l.Z.^.^.[.^.r.G.$Xl.R.[.^.v.3.0.t.t.0.n.i 5.|._ q.e.~.R./.n._.f.6.l.O.^.zX`.l.l.n.[.^.h.j.3.3.w.) _ e.g.e u ^.P.^.^.n.Q l.qX0.y.'.^.`.0Xm.c.B.O.q.M.V.O.0XqXN.wXwX6XV.N.% , n.) Q 0.2.W 2.2.p.^.t.f.T.m.q.R.q.0.q.E _ Y ! / ) Y 2.U E n.: V #.0.t.2.q.! / E r.0.R D E ,.6.t.q.<.>.r.m.) 3.q.q.2.! ! z.'.9 R.e.T e.m.{ ] 0.5.W E E W ' w.6.0.` ;.W W r.e.' W r W >.a >.d   F 2.Y ~ O.R.S.(.cXn.n.m.R.[.{.n.e.l.l.l.z.V.$._ ( v.#.c.B.5XB.4 ",
"u ~.w.0.W d j 6.9.6.9.R w r w d 5.;.Q L.7.5.5.8.6.6.w.5.r.f.8.j h bX^.(.q.n.pX~.t.^.h.n.l.b.^.n.^.v.@X#Xl.q.~.P.t.n.0.r.w.5.S.e j [._ r.T.T.L.K.T.f.r.n. Xc.z.|.~.h.l.^.[.[.C.h.^ 2.,.E q._ ^.g <.n.~.(.~.e.0.x.iXm.~.[.|.bX}.x.B.M._ W.qX0XM.6XwXiXqX0X6X+.5X: m ].0._ 2.q.n.0.) ) ^.^.^.[.}.n.m.t.2.q.q.) Y S ) Q U [ q.q.~.% N b.a a r.q.( ^ ,.0.2.q.Y E E ,.r.y.8.>.,.2.>.r.,.0.q./ _ m.A.5 0.u.T y.] Y 0.0.r.W W ` E T T W 0.' W T 0.r.w.r.r.r.W W u j j   C q.T.T.x.q.q.^.dXm.R.E.[.[.cXn.m.x.6.u.R.Z.R.m.~ m.Z.l.n.5Xz.O ",
"y y.6.' d s >.r.r.a.7.5.' >.Q a 7.5.5.5.j 6.8.6.>.r.9.5.f.9.;.e j CX}.XX[.[.[.'.~.^.q.^.v._ l./ j.G.#X(.^.h.3.b.~.l._ q.m.w.^.e i E.E w.w.E ) (.T.~.XX[.|.&X.XT.(.|._ _ n.n.Z.3.2.,.r.q.r.Y z.i Q ^.i.f.y.f.9.Q E.T.[.XX[.&X|.r.O.l.q.c.A.B.%.W.dXSXfXcXtXX.6X: 3 t.R ,./ e.m.q.2.Q u.^.^.[.XXt.q.q.v.q.) / A S 3.S U q.) 0.t.# ~ pXr R o./ D E 0.0.:.Y E E 2.0.r.t.~.F.t.r.y.u.0.c.n.m.R.(.^.% 2 ' W 0.W s 0.6.r.W E 0.w.' ' 0.e.l.T.' 6.5.w.r.f.w.U Y U q h . Z u.^.T.l.m.R.'.XXl.m.R.R.R. Xn.n.n.0.' ' n.R.m.*.B.R.z.q.0XO.o ",
"7 l.T ' 5.d u.r.7.9.0.R 6.>.Q w.5.r.9.>.7.0.8.5.5.6.Q 7.9.8.a e e nX[.XX X`.[. X}.^.n.R. X^.v.m.^.^.`.'.'.n.l.l.r.m.m.q.t.r.^.7 u &X0.r.) Y ^ v.f./.bXXX^./._.P.L.n.n.r.r.f.).3.2.2.4.,.A b / u ` _.9.r.>.a.u.n.t.n.|.^.q.XX[.^.m.R.l.c.m.q.O.{.rXzXpXpX0Xz.N.: U 0.i 0.E 2.e.q.Q Q Q [./.^.XX[.n.n.n.0./ ) 2.3.q.q.q.q.E W E # ~ nX) 2.z.q._ E D E S _ 3.q.q.1.E R g.^.~.v.u.G.~._ x.n.q.x.'.% U W T W W W W d 5.r.0.0.n.(.^.q.t.n.y.7.r.9.;.E 6.y.' T T <.W X E Q q.m.l.Z.n.m.[.m.l.l.}. Xn.n.R.e.6.n.l.l.0._ 0Xn.B.[.l.R.l.O ",
"u x.W W ' W 0.` 5.7.>.>.j 7.7.5.R U >.>.6.5.5.j r.0.Q ) 6.6.L.d h CX|.[.zX}.^. X^.~.}._.^.^.P.~.T.^.[.Z.Z.^.^.f.oXq.( 3.3.y.~.7 j Z.0.r.] r.L.y.t.T.^.XX/./.$X`.^.) n.$X(.w.3.3.3.3.>.r E S R.s Q [.y.y.7.f.D.}.n.n.|.[.`.}..X[.'.[.c.6XM.z.B.pX X}.x.R.'.].].< w.XX) q.0.2.q.q.2.R E t.R.^.l.q.n.n.q._ n.m.( / 2.) U ) / 6.Q & C S.[ +.z.c.q.) A A E t.m.n.Q E E Y n.^.n.S.u.^.`._ 2.x.^.m.A.# E W w W W a E s <.' w.y.e.n.n.r.w.6.>.6.T 5.r W W 5.8.E 6.r.R . q.Q ' h./ l.l.E.) r.^.R.'.T.^.}.m.3.a R.^.0.0.l.n.n.E.Z.z.}.x.; ",
"u n.) E W W W W W w i a e ' ,.6.8.Y >.8.6.7.6.>.Q 7.5.,.0.y.L.j W CX XXXXX X'.[.T.~. XXXT._.n.E R 3.^.|.c.T.R.n.F.^.m.q.l.y.^.e a M.0.w.f.w.y.f.f.K.f.t.K.^.$X_.L.E g._.^.3.E 2.E ,.6.,.3.t.^.h / '.r.d.f.^.S.^.^.^. Xm.*X$X[.[.Z.XX XV.V.c.[.aXcXzXZ.'.v.W.qXw v.cXQ n.c.) Y Q :.Q / q.0.q.2.2.0._ _ 0.n.n.) t.3.( U E E W 0.$ #.cXz.M.O.3.l.r.S S Y Y ~ l.S 2.u.t.t.`.u.F.m.'.].tXE.z.n.n.).% T E U ' w.' ' 0.,.5.y.T.e.' ' r.T.r.5.R E r.Q Q ' 5.<.i.W E Y . l.0.E m.Y S l.T.Q w.T.~./.R.m. XT.[ O.m.^.0.Q q.v.l.x.Z.[.pXz.; ",
"! R.) ' ;.E d W a w W e a ;.w 5.7.t.y.6.y.r.6.i.,.r.5.a >.>.>.p d CX X XXX X].^.^.^.^.m.(.OXq.0.4.r.3.^.j.[.c.O.v.[.[.^.^.n.[.6 : m.>.r.w.,.j.f.L._.S.u.n.I._._.`.[.^.(.^.h.r.2.2.r.r.0.n.0.[.u h ^.r.r.S.^.^.n.S.m.v.S.n._.^.^.R. XXX'.Z.^.[.{.{.BXuX{.[.z.V.: 0.XX>.w.) i i R R Q 2.q.2.R W / 2.q.R.R.R.q.q.F.u.Q R R R ,.t.& / pXc.k.o.q.m.n.^ ) ~ l.) / E E 2.t.O.].u.l.Z.c.m.m.E.E.m.~.`.# A Q A T ) ) 2.n.t.0.0.t.t.' W U 0.0.5.W 5.5.>.h T R E T W 0.w . o.3.:.Z.e.3.3.m.t.v.m.XX^.T.m.c.m.n.O.v.n.n.h._ n.n.l.M.rXiX'.6 ",
"/ [.r.' T A h h W T u h W a w r j 9.9.8.K.r.5.E r.r.7.5.6.9.0.g h BXR. X XZ.R.n.~.n.n.m.m.v.j.v.P.n.3.^.j. X].j.XX{.qXpX[.w.F.6 5 S.R n.6.) (.u.v.(.i.r.T.(.^._.m.[.(._.t.2.2.) y.r.E ! w.W n.e e d.7.f.~.[.[.[.^.n.m.n.v.r._.n.n.pXxXXX|.[.pX[. XNX X XR.w.[.> E cXw.e.a ;.R a :.R R 0.Q R ,.r.t.e.t.0.l.w.Q y.r.E W ,.,.2.2.. m 5Xb.M.M.q.v.t.E / v.q.q.,.D E D Q 2.S.q.r.r.) r.R.m.n.~.y.).# S T.Q E E D ,.w.t._ u.n.W W r r >.6.r.5.7.>.;.h i 0 A A A ) a . j./ 1. XT.l.O.z. XR.[. Xt.n.~ Y 3.t.2.m.^.t.t.q.v.R.l.rXcXiX'.6 ",
"y t.5.j i i s s ;.5.s s h ;.i U u d 9.L.s.e a ,.t.r.7.9.9.6.7.e e fXm.Z.[.[.n.n.m.S.^.D.^.'.M.C.F.3.'.}.z.'.zXG.cXiX'. X'.v.S.5 2 '.Q q./ ,.3.3.y.P.~.9.P.(._.L.L.P.f.K.1.f.) r.q.r.r.L.K.a.a.6 e f.w.~.^.^.T. X[.t.u.:X_.f.l.n.m. XcX X X}.}.rXpXcX'.|.[.v.}.e 0.pXE Q E D R W R a a 0.0.) q.r.q.P.,.,.u.T.~.u.t.t.6.R ;.Q ! # S fXZ.A.rXl.q.q._ / n.3.O.2./ ,.Y E ) t.v.d.p.2.) l.q./ v.0.L.% / t.w.w.h D 0.<.0.2.0.;.h h a h 5.r.6.7.a.>.<.d ;.9 w D r W r . b.2.0.n.0.n./ j.R.n.c.z.n.v.^ Y E n.3.l.^.~.y.n.T.x.l.n.^.[.t.O ",
"7 _ W p r R 9 w W >.j <.T T W h e g j j 6.>.R a R 5.1.5.5.j 8.e w hXj.^.v.S.q.^.^.OXv.p.v.m.l.b.z.h.h.[.b.C.}.'.5XV.C.[.'.S.^.e d ].Q r.q.Q 2.^.T.n.T.f.f.f.L.I.n.t.f.a.7.OX^.^.4.a.5.y.w.y.f.6 g n.n.^.^.q.T.`.}.`.&X^.Q r.t.t.l.B.BXcX'.'.'.R.[.xXB.c.{.m.^.y W ^.T W <.R E Q ,.Q 2.,.0.0.r.w.v.]. Xt.t.u.n.q.q.Q ,.:.R >.~.# A '.$.0Xz.Y z.l.l.v.n.O.3.2.) E S ! 0.3._ ) ) ) E E G ~ j.u.D.8 2.n.' 0.3 S 3.Q e.t.w.>.h h d ' y.6.a ;.<.<.5.W s u W 0.w.<.r X l.l.l.E ) e.q.Y 0.0.) C. X Xq._ l.q.z.j.) ^.n.0.r.0.' r.t.{.3.o ",
"7 Q <.j >.w a a d d ;.W <.Q Q >.e j 6.>.>.>.7.<.,.,.a a >.7.9.g i fX) 0.j.P.t.w.3.3.n._ 3.3.3.v.v.m.^ h.z.G.l.yX Xj.z.l.F.D.D.e u }.f.d.Q 3.t.n.^.R.f.r.a.f.u.P.(.e.F.r.1.f.9.K.y.r.w.<.5.w.t.8 e  X^.R.n.n.^.[.n.bXm.D.^.n.n.e.0.3.zXzXM.b. X[.'.XXbX'. X^.n.6 6.x.W 0.2.,.2.2.0.2.E Q >.5.f.r.f.~.~./ E ) _ q.,.A 3 U E Q f.% v R./ z.O.) B.c._ Z.n.3.3._ / R S Y Y 2.S r.R R W W 1.) z.}.zXj d.q.<.0.t.D E w.r.n.t.8.5.d 5.f.y.<.i <.h <.h h h r i <.8.s r X m.n.w.Q T ' l._ 0.w.( m.^. Xm.'.m.,.n.r.,.t.t.e.' 3.e.w.q.R.^ O ",
"8 0.5.5.r.W W >.W W i >.8.r.0.r.j j 5.R >.a i >.5.a a 5.j 9.j 8 e rXo.l.b.[.^.y.m.T.t.3.3.:.:.l.q.l.b.h.T.C.M.6Xm.n.m.l.F.p.v.2 e }.i.,.R E p.P.t.t.u.L.f.r.r._.(.K.r.F.T.r.d.f.t.t.l.t.n.w.n.6 u XXT.x.n.^.^.^.^.&Xn.}.}.^.^.w.6.h.B.'.^.'.R.Z.B.pX^.|.l.m.n.> c l.E 0.0.0.2.) ,.:.a ,.6.W <.9.,.E 7.Q ) E R / U ,.U Y Y 0.T.; O.pXl.Q.%.z.c.Z.l.Z.M.l.) Y Q :.E / ! ) t.t.D w >.n.r.,.l.b.].8 0.t.r.6.<.T 1.T.t.<.6.7.>.7.r.i.r h W d h ;.>.<.i.>.D a 5.<.a o m.t.' r.r.;.) 0.w.n.n.[.n.l.R.R.'.q.m.R.l.x.R.n.Y n.{.c.l.V.S o ",
"7 Q 5.7.7.A h a >.>.1.D 1.7.7.w.r.5.7.i a R >.>.,.a j j j 7.5.8 g fXv. X'. XXXf.n.^.R.r.t.r.j.Z.z.2.k.h.f.].M.b.( q.m.G R.t.m.w g _.;.r.E ! n.~.e.n.`.t.w.y._._.P.P.f.I.^.^.I.~.^.n.w.F.P.r.n.8 g  Xh.0.t.T.t.S.^.&X|.[.^._.^.f.[.R.l.XX|.R.R.R.c.R./ [.~.n.l.# c _ E ) ) ,.x.).(.y.>.5.r.>.w.w.,.2.R ,.Y U S _ ) A U Y E ~.P.5 l.nXpXW.B.B.Z.Z.O.M.0XO.O.^ E Q ,.2.S ) n.,.R D 6.t.) 0.m.'.'.8 t.P.' r.,.r.r.u.y.,.1.<.<.i.i.<.>.;.j ;.W i ;.r.1.r.a.r.W W 5.4 '.t.e.l._ ) 0.<.0._ 0.0.R.e.m. X'.`.m.n.w.t.n.w.E 0._ 0.Q n.e.O ",
"6 Q >.5.9.Q g >.,.m S U R 5.5.5.6.Q 8.5.5.>.a.1.E 7.j j j a j y s BX^.xX|.'.].r.n.}.m.3.3.n.n.t.( l.^.^.g.'.3.4.b.q.q.l.[.~.^.e w  X;.1.E 0.u.g.L.^.t.e.f.7.K._._._.f.K.T.w.w.f.^.w.f.#X^.f.L.9 3 @.,.0.w.R.n.R.n.-X^.^.XX_.f.y.}.pX'. X|.V.'.[.n.e.W &X`.q.) % = _ i E W >.n.XXXX~.r.r.L.f.R.q.9.L.>.5.,.Q q.E ! M 3 b Q 7.f.4 3.mX X].R.m.A.B.o.O.z.A.z.O.z.v.2.S w E q.2.E D E ) E r.q.^.zX7 n.~.W ,.6.n.r.>.r.Q ;.5.;.5.r.a.' y.8.0.W h ;.r.,.r.6.,.W 5.7.4 zX[.v.l.h.l.w.9.w.Q 0.n.n.n.w.'.'.[.w.0.u.}.m.n.D.n.q.2./ l.' O ",
"e 0.:.a h 6.<.>.R D A U w j 7.6.Q >.6.Q >.>.>.h h >.5.5.j ;.5.g g CX X].Z.m.'.m.D.(.^.n.j.h.,.f.4.[.^.(.n.2.n. Xn.Q ~ q.n.^.m.f i  Xw.Q 6.2.t.f.P.t.h.e.n.0.a.f.f.^.(. XR.0.t._.~.,.) r.t.3.~ # =  .E 0.0.t.f.l.^.NXn.'.}.}.t.n.n. X X}.{.l.v.Z.^.q.3.`.Q r.Q @ = ~ U i r Q w.|.^.n.^.n.f.f.T.2.>.f.r.7.7.~ ! A Y S Y W <.Q f.4 a.uXc.m.2.O.v.W.+.q.( V._ l.c.z._ / E / 4.Y ~ q.n._ q.r.l.^.|.6 r.t.0.E <.w.6.<.u.<.u <.g h 6.8.a.f.6.5.>.>.R >.7.5.6.5.a >.9.O [.'.e.0.,.0.r.(.n.0.6.q.t.T.m.0.x.E.q.7.r.Z.q.^.^.r.v.x./ ) i o ",
"; 5.<.5.f.d R a a <.>.j a <.` r.' W >.>.>.a R r j j j a.f.j r.j Q CXR.xXBXn.n.z.q.m.m.f.y.n.a >.L._.g.d.( d.3.M.w.a.r.k.yXn.^.h q `.>.^ t.8.f.a.>.t.R.^.^./.>.0.y.L.f.t.R.e.^./.q.Q E _ ^ S ~ $ * +.4.^.'.0.n.n.v.&X&XzXXX XS.zXbX'.A.[.'.m.z._ l.3.~.Z.'.q. .$ = F A E ,.>.w.~.^.n.n.l.q.7.q.0.5.0.w.r.7.2.b c n C Q r.f.7.f.4 r.zXl.nXz.2.z.c.z.2.$.) ! ( _ F ~ _ 2.q.4.2.Y q.t._ ,. Xx.n.[.8 x.0.Q ^.,.;.6.0.' a a d e h r.6.7.<.9.8.5.>.5.r.;.<.5.r.5.6.a.O uXh.) {.w.q.l.v.n.n.l.l.R.'.v.x.O.3.0.w.q.m.n.q.t.6.n.fX0.0.Q O ",
": Q a KX-Xr.j R >.j h ;.>.r.8.0.w.r.5.5.w.>.>.7.>.j j GX=X6.>.p p nXt.LXFXn.6.u.q.q.q.y.f.t.3.2.P.oXh.h./ f.4.t.r.1.S.DXnXj.}.p p (.7.KXFXK.f.y.7.n.^.n./.^.W R R 0.1.Q q.h.`.~.,.A E wX5Xn F $ = Z.n.HXVX^.n.[.[. X^.w./.}.n. XNX[.R.A.|.^.pX$X|.`.l.SX'.n.^ $ = M m nXbX6.r.f.n.l.2.M M ) 6.Q w.f.~.g.y.7./ M U / n.vXD.d f.4 l.m.m.HXnXE / _ q.q.m.z.+.+.j.^ ~ O._ ) 2.2.2./ / R '.KXHX0.m.: K ) ~.FXbXq D R 0 9 w r ;.>.y.r.f.f.7.5.>.U Q 8.6.W 0.VX$Xh >.O 7Xz.5XDXDX) Z.M.C.Z.z.A.A.R.n.R.l.l.q.t.t._ 3._ n.0. XFX-XE <.O ",
"6 6.e =Xs.j 5.>.h f g j R r.y.6.r.r.r.6.Q R b Y >.j h =Xs.i E & $ 5X! qX).r.8.r.2.,.t.t.^.D.R.D.}.u.>.>.,.f.E 1.1.1.6. XP.w '.u g ~.>.:X+X5.K.f.<.r.u.~.T.y.R W R W E q.l.x.~.t.! m 3 k.R 1 C @ < [.W VX#X0.^.^.t.|.^.P.L.P.~.XXbX X[.XX&XR.R.R.n.( U N.m b ! @ = n < '.s.R 7.s.K./ S 2.Q 2.0.0.t.t.f.n.^.6.Q Q ' Q T  Xs.u y.% v +.Y zXr.U q.j.q.z.l.+.+.C.'.Z.j.o.O.) Q 2.) Y Y ) U BXK.S l.$ Z [ R vX5.i ! Y U w :.Q R ;.1.r.n.r.>.<.r.Q 5.6.5.>.6.*Xk e ;.. b.t.h.nXf.3.l.l.C.[.B.E.+.) Y 0.l.l.m.v.n.m.0./ w.t.3.*Xa.j <.O ",
"e r.h 4 4 d 6.<.d ;.7.5.a 8.y.7.r.0.,.>.>.Q b < - 2 9 ; ; q E $ $ <XZ w 9 t.`.2.2.1.<.2.n.].[.S.m.r.i.f.0.^.4.r.r.r.>.A i R [.e e zXy.7 4 >.f.a.W 7.y.0.t._.w.,.Q Q r.r.r.T.R.q.Y S m & $ b M $ g  XQ s i t.^.^.v.|.[.^.f.^.}.[.^.NXVXbXcXpXn.n.l.! S & # 3 Z @ * N < ; 6 W s.s.^.o.Z ) E ! ,.w.r.y.n.[.t.6.>.E q.n.q.i 2 c C @ V @.Y i i / 3.l.v. X[. X[.'.yXA.O.v.O._ q.( ) t.n.n.0.w 1 Z K @ v ! a 8 > E Y ) 0.W :.R R 0.y.r.f.r.f.y.6.1.7.r i D W 5 4 d h . l.3.,.r ~ ^.n.m.'. Xm.V.z.A.l.q.O.n.R.v.l.^.n.q.r.w.,.e 8 t.w.+ ",
"8 a 9 u g j >.W h >.>.j f g 8.7.D w a h w c * # < : $ < w q b $ $ | C ~ q.v.~.K.g.f.g.y.9.g.f.m.^.f.f.,.2.g.:.6.Q ,.Y ) _ n.^.e q _.K.0.>.6.w.a.r.9.7.w.f.d.1.R W W f.K.j n.n./ ! E m m m C C : s m./ q.5.f.P.T.n.T.w.t.n.^.z.^.n.[.}.x.T.n.t.r.E Y S n = - = # v V 1 w 0 5.f.K.u.0.S C C M U f.r.r.n.^.7.7.r.E g.S.z.v z c v # H ,XM E r.3._ (.t.3. X X}.R._ c.R.w./ E f.y.t.t.e.t.q./ C N V $ C n 9 q q m R Y Y U A >.,.Q w.w.f.0.6.W W r.r.E A D W 8.>.5.>.O z.Q ;.) h.R.n.^.^.^.v.z.v.R.t.T.n.l.l.q.R.^.r.r.2.u.f.0.;./ / 4 ",
"$ #   o O O 4 O 2 q ; : ; + 4 4 . # 4 % @ @     @             $ c $ # $ @ @ @ @ # @ $ @ # . # % 4 4 4 4 4 4 O 6 ; < % % ; 4 6 4 u 4 4 w ; O 4 O 4 O O 4 6 ; 4 % % 4 6 4 4 4 # & # @ @ @   @ # u w O : 5 ; 8 4 4 6 g e : 7 4 ; s d q : 7 7 8 8 7 & $ # $       $ l $ $ # . 8 8 8 w U 9 * $ @ ; 7 6 : 4 ; 6 8 u : 8 8 - # @ @ @ = l # @ @ @ @ # # @ @ 5 y u e 8 < # + O 4 6 ; ; : : 2 : $ $ # $ = $     @                 @   O 6 6 6 o O 4 6 4 % O O O O 4 O 4 q 0 ; 7 9 : ; 6 6 7 2 q 2 ; 4 6 6 : : : : 6 6 6 ; % ; 4 6 % 6 > 5 ",
"l <X3XaXC. XpXfXDXDXuXcXrXrXBXDXhXeX2X<X4X<X>X>X>XL ,X>XH ,X2XL H | V K H V I  ._ _ _ _ _ ~ o.I _ ~.%XP.I._.K..XxXXX) E.XXXXMXU _ CX&XXXyX~.^.f.|.^.|.MX XXXR.n.|.xX%X|.[.c.B >XL H V V V n n.d >.m.N.dXdXrX0X!.fXDXdXqX0XMXSXSXBXBXBXBXpXaX|.*.| >XK L H H L H B <X>XK E.BXBXuXkXSXfXyX0Xm. XfXfX0X{.fXMXfXDXSXMXnX3X>XH >X<XH L J B | J B Z v V } | r.`.&X+.Z C n 2.t._ l._ 0XMXaX} | L } | - ,X<X| 2X3X#.l.z.W.#.N.wX=.X.zXCXCXMXuXdXcXaXnXhXSXfXiXpXcX#X~.; g.:X[./.m.|./.^.Y./.E.R.x.c.!.!.R.U.^./.P./.u.e.w.] Q ' w x.! = ",
"* 7XrX[.,.n.'.A.A.Z. X(.V.v.Z.pX5X#.L ,X,X1X2X| K L } J ~ tX@.B z ,X~ c.o.m.~.u.y.w.w.u.) w.t.0.q.n.P.s.L.f.w.R.l.z.O.x.m.m.'.e Y ;XP.z.t.v.f.u.w.n.^.[.XX^.0.t.XX_.^.T.0.y.E z...m._ A m ) ~.u j [.#.A.pXiXqXMXMXBXaX7X5XcXdX X[.dX[.XXxXpXm.Z =.wXX.~ V H K = z 1XM O.0. X XM.dX[.'.R.|.R.7.m.dX X0XE.fXaXrX{. XMX....v L >Xz L ..$.'.O.z.~ M S O.l.Y ~ [ $.~ _ ! ) E Y q.O.V.V.z.o.o.+.X.~ $ ,X@.j.MXpX^.f.y.c.c.Z.m./.'.XXXXXXdXpX].cX5XyXBXMXm.m.0.m.n.T.O L.f.T.e.{ T.n.n.e.R.T.T.U.!.U.J.w.T.w.y.T.T.8.w.e.e.W q r >.U # ",
"! pX[.xXBXl.q.Z.z.c.b.j.z.z.j.l.#...J L @.L ..X.@.@.! m.m.S ,XB x ,XC =.~.q.t.r.0.r.r.8.r.L.i.a.W 2._ y.9.7.0.[.0.) ( .X/.x.[.i / xX6.zX}.,.,.r.r.e.r.e.T.}.^.w.n.w.e.' 6.y.8.r.n.q.r.t.L.r.^.p j f.l.dXiX#.aXMXcXMX0XaXMXaXM.R.^.pXR.q.'.c.$.z.%.*. .#.~ A Z * H V._ '.q.w.^.R.'.l.e.n.e.l.n.m.iXaXW.!.uXuX'.B.0X[.G 2XJ  .>Xl H ..c.fXz._ F F ! %.x.) q.q.m.L.q.:.U E Q ) ! z.$._ *.Q.l. .} # | z.,.aXx.0.5.W q.q./ Q ) E.[.^.n.m.j.Z.zXM.j.C.}.n.n.^.q.l.t.6 w.7.w./.{ _ O.n.e.{ T.x.l.T.e.' w.' j 5.0.0.W ] 0.n.T Y 0 r u ; ",
": yX{.UXmX5X_ '.m.cX'.n.^.E.}.^.N.@. .2X6X@.| ~ G ~ / HXV.Z L v N @.~ SXtXl.) t.2.E E E r.L.8.,.6.2.n.y.f.7.e./.f.T.R.GXFX.XR.u T zXu.UXFXt.>.r.6.e.>.w.t.f.T.T.n.6.y.u.F.t.w./ T.y.t.GX:X5.8.u 5.K.n.LXFXpXpXiXMXMXuXiXBXBX0X^.}.[.T.^.tX_ +.=.M.V.~ wXzX;.w.3 W uXx.HXDXe.t.w.T.x.0.n.0.l.w.l.tX0XR.pXaX'.0Xv.] ^ C.mXnXC | $ H | 5XHXiX/ q.q.( z.x.l.c.) t.x.) R S E Q ) m.V.z.z.Q.CXNXM J # K +.*.kXbXa a.6.^.W._ _ m. X`.^.^.[.Z.V.pXc.O.'.[.w.[.FXVXe.w.6 9.j e.FX:X! _ n.T.q.x.q.l.T.x.0.w.w.5.w.] ` ) ] E _ 0.=X=Xu T : ",
"i aXc.mXnXo.m.pX].pXZ.l.G V.^.n.#...G +.N.#.1XP  .+...zX! = L v x | ! iXn.) t.n.3.) 2.3.L.y.8.,.,.6.r.8.f.y..X^./._.T.FXP.T.XXy i  Xr.KX@Xd >.6.5.w.r.P.P.g.f.f.T.T.T.y.L.f.r.R >.5.j =Xi.u >.8 ;. Xn.mXZ.v.R.[.[.xXpXdXdXfXrX9.f.n.n.n.R.l.z.A.$.B.S V.Q u r.3 q.MXW VX X>.t.n.n.c.n.l.w.V.0.c.M.R. X5X+.c.5X_ l.m.{.SXP.T ..$ H 6Xl.nXr.W t.r.l.z.n.l.n.~.`.`.u.:.^ ! >.E @.M.^ Y ( DXs.Z ..  H =.A wX5.r a.~.W.n.) _ m.}.^.n.^.^.x.|.xX|.] T.n.w.^.HXf.t.g.4 r.5.d :Xs.E ] w.w._ e.T.n.(.0.5.0.w.5.5.` W ' E Y _ i $Xk h T & ",
"$.BX'. . .l. XzXXX'.5XV.o.5XO.O.1XK +.B.~ %.6X/ G o.^ m < C 1Xv N M.V ! w 2.T.t.r.(.~.g.r.8.1.8.r.w.>.y.n.P.[.t.[./.^.! 7 x..Xu 0.NXT.n.h 6.P.u.8.f.L.K.(.n.f.K.K.u.T.T.w.,.7.w.6.7.0.e 7 ` f.8 T bXm.( ^ R.[.[.T.xX|.pXdXcXpXn.T./.n.n.q._ z.c.W.0X( 3 & E 0.A R.cX0.i ! n.S.'.Z.R.R._ v.rXw.B.V.{.{.V.%.x.A.n.n.x.l.S m l.L - >X7XO.E q U u.q.n.~.^.[.~.m.z.$X`.( q.T.n.Y z.u. .~ ( Y 7 X.#.@ H 2XU C < 5.L.L.^.^.t.0.n.Z.m.~ t.0.Y _ T.m.0.0.] n.T.W T n.t.4 a.6.h 2 < Y w.n.r.{ $.T.n.l.] W ` w.d d r i T ' r./ w ; ; r d 2 ",
"l.nX XaXqXA.{.}.^.N.].O.~ 0Xz.N.#.M.=.#.Z +.+.S G O._ S M Z | Z c A.I ~ l.Z.J.L.~.`.u.6.y.8.2.r.>.6.r.u.L.^.[._..XT.l.x.W $..Xp ' cXT.MX~.u.$Xf.r.w.t.u.~.|.^.t.^.^.T.|.^.u.n.L.f.0.f.u.9.f.L.u W #Xl.^.}.pXuXXX(.cXpXpXcX XuX^.m.fXT..XE._ B.W.W.uXW._ A E 3.S V.bXn.A.'.[.n.[. XzXc.n.c.0Xl.+.V.aXjXpX{.m.Z.n.t.'.c.O.n.@.L * H Z.+._ O.0Xn.t.~.g.`.`.T.`.o.l.^.g.~.r.n.~.m.[ +.{.B.$.r.*.*.# | 5X! *.Y E _.~.^.x._ n.'.c.M.N.x.) ( _ v.^.R.e.'.n.) ;.3.[._.4 f.7.r W / Y _ x.0.) ^ e.q.0.w.' 0.T.W w.T w A ) >.Y T j >.R >.2 ",
"' cX'.^. X[.^.^. X].dX Xv.].Z.z.Z.M.@.+.l.~ o./ E c.N.S ~ n J v = =.l.O.m.R.~.`.S.g.~.y.u.y.6.>.>.>.>.6.t.(.'.|.|.e.l.R.w.|.tXp 7.NXr.R.$Xy.u.P.L.t.T.~.T./.^.w.n.XX[.|..X^.^._.f.0.6.y.0.r.t.w U  X3.m.E.].uX0XR.cXuX{.A.T.n.t.w.^._.q.[ R B.uXA.qXqX4.! _ n.i h.[.<.t.'.m.~.T.}.].z.R.~ o.q.t.z.5XuXm.R.'.3._ t.m.{.^._ K L * B W.o.O.^.E.u.S.^.(._.).O.`.~.S.).P.T.T.f.n.Z.~.v.m.A.W.y.=.=.$ | V.) #.q.r.@Xw.q.) ~ #.W.^.^.#.m.) q.x.W.{.[.q.R.n.] T.~.~._.4 K.7.;.r.t.e.e.l.Y $.x.l._ 0.Q W R ' p W >.0.w.e.q.T.{ 7.5.8.7.4 ",
"] cX X[.'.R.n.[.XX^.qXxX&X'././ M.A.A.^.$.m.Z.~ 3.~ +.n G n  .l = =.[ n.~.y.).(.~.5.y.r.g.L.7.j >.Q ,.E E 2.[.u.e.T.T.B._ pXW.q b xX,.n.XX|.~.P.f.f.y.T.w.w.f.n.P.&X[.^.XX^.T.P.K.f.>.6.0.0.f.e g ^.) q.0X}.[.M.E.XX0XW.{.[.T.t.r.w.T.) q.Y B.qXB.qX#.X./ :.q.< +.[.E ) pXn.q.o.c.'.Z.l.o.O.Q q.o.M.iXc.Z.}.l._ v.A.R.l.+.+.| $ Z W.%.m.R.r.L.t.g.y.(.@Xn.|.~._.}.~.t. X~.r.^.^.`.XX{.{.r.tXM.# K } ! z.~ n.n.0.E E l.l.c.Z.W.M.Z.c._ l.W.rXm.l.w.x.^.[.t.f.t.6 f.8.8.0.n.m.T.T.n.R.l.e.O.S Q 6.Q r.j W W y.e._ ) x.e.6.9.r.8.7 ",
"B.BX X[.'.[.}. XXX~.pXzXzX^. Xz.T.z.pXR.R.x.l./ S S E A V Z [ m * X.q.w.M.W.~.~.~.>.y.g.y.r.>.a r.r.r.Q _ ) 0.>.6.R.R.T.E c.#.w = cXy.^.^.&XXX^.K.w.~.n.7.r.n.~.(.^.}.XXR.[.n.T.L.r.r.0.w.f.a.4 8 l.7.t.A.].E.%.m.[.A.R.dX|.^.T.y.0.c.$.O._ 0XqXA.W.fXM._ E n.< ~ ].n.m.|.^.^.m.B.m.{.E. Xz.) E./ h.0XZ.Z.e.e.n.l.R.n.n.^.[.m.= I N.q.y.m.XX^.f.P.(.`._.(.`.$X$XzX^.n.^.(._.w.a.(.sXpX{.f.pXc.# Z z.! M.u.n.t.z.l.l.x.[ l.Z.Z.n.E.m.O.q.A.Z.x.l.0.T.^.n.l.n.y.4 f.6.8.>.n.T.R.U.^.q.F ! 0.Q ) 6.r.7.5.;.W r.q.+.E T e.6.8.8.5.: ",
"l.AX XcXcX X#X XXX^. X/.|.^.]. X^.x.A.l.v.^ l.q.E Q ^ Y C C ( m * I Q 0.A.q.0.~.u.u.r.g.g.u.y.<.u.2./ q.E Y q.2.w.l.c.q.6.! z.u m cXq.[.t.n.^.'./.T.R.n.n.r.y.g.^.w.[./.^.XX[.w.0.Q w.0.T 7.p 4 7 r.Q 0.V.W.z.%.( z.z.z.B._ ,.E Y Q q.q.Q U B.qXfX{.fXE.$._ [.w ) nXw.[./.L.v.l.O.x.E.A.{.O._ z.S / [.t.^.m.Z.Q r.R.e.t.n.Z. Xw R.}.q.q.`.(.L.@X_.(.`.@X_._._._._.(.T.|._.(.y.y.K.|.[.R.y.R.c.@ M O.M ~ f.f.0.v.x.l.l.0.l.n.aXj.q./ Y / ( ! $.( 0.x.T.r.w.n.w.4 s.7.d W e.e.T.^.e.0.] Y ] 5.5.5.5.>.j d W ' n.R.{ W w.r.y.r.5.4 ",
"5XDXxXXX|./.#XXX|.[.^.[.zX^.y.^.^.c.R.R.E.l.r./ q.q.O.]  .z Z 3 $ n R / l.r.y.L.u.L.y.>.s.1.1.,.2./ ^ u.2.E q./ _ q.x.n.r./ /.e 3 C.0.|.q.6.n.^./.R.T.[.u.! u.q.u.t./.q.t.^.6.w.T.j 6.6.h y./ 5 7 XXl.E c.W.Z.%.O.%.O.M._ _ 2.) Y ( q.q.:./ %.z.uXE.A.c.l._ pXw 0.BXn.^.^.2.U O.$.%.$.+.B.+./ c.q.2.[.[.[.{.'.9.w.T.^.[.[.R.^.w T.XXR.XX[.u._.$XK.P.P.g.L._._.f.9.g.f.P.K.u.y.y.f.R.m.[.r.L.O.@ F u.,.K $X^.y.u.x.w.m.m.{.].5XM./ / E r.~ _ 0./ ] T.T.n.2.n.t.4 y.8.>.' 0.w.w.n.0.,.) W ) ,.7.5.d W s j >.r.e.T.x.0.0.6.7.a.6.7 ",
"l.DXXXe.S.m.[.^.n. X^.[.zX}.`.%X^.w.n.[.rXB.r.2.) ,./ 0.~ z o.1 @ v m Q Q Q w.u.~.g.,.;.u.1.6.F.q.E A :.W A 6.0.q.^.XX.X6.u.`.8 2 C.r.w.0.2.^. X[.T.~.~.t.( n.q.2.u..Xz.E D >.q.R.W e e >.f.L.8 d CXt.Q l.m.W.V.%.B.M.(  .Y / l.2.l.q.0.U $.B.V.tXA.B.c._ _ ].2 / NX X^.w./ Y $.O.z._ %.z.q.q.q.n.}.|.^./.n.8.u.T.'.pXpX|.^.&Xu f.;XR.xXS.L.~.(.~.a.8.K.K.f.P.g.y._.L.r.g.L.L.K.y.e.q.'.K.z.T.@ | XXr.! R.P.r.g.g.q.x.n.Z.M.tXE./ ) Y G O.O.2./ 0.c.n.z.2.( ) 6 L.s.h 6.t.e.6.3._ ,.6.0.T.w.>.j W <.;.s 1.w.e.e.^ w.E 5.7.9.7.4 ",
"M.CXe.n.^.n.w.e.n.^.|.R.t.|.bX_.Q 0.l.m.m.l.0.M.q./ 2.u.m.C L 1   c 1 m R >.y.r.y.8.8.<.r.<.2.1.>.6.,.D r E E 2.q.t.n.v.r.~.(.8 ;.@X6.n.w.,.(./.D.l.m.n.n.O.l.r.r.t.x./.u.E E 7.R.r.7.0.(.(._.8 U pX7.l.x.x.c.O.O.%.O.~ O.! U 2.2.q.q.) Y q.B.W.A.W.l.e.$.$.Z.3 l.iXR.Z.) ~ ( z.~ O.! _ z.q.m.n.n.T.>.r.[.R.R.n.t.t.^.^.[.[.zXp f.bX'.XX[.n.v.@Xn.g.f.K.7.9.K.(.`.`.y.y.g.w.q.u.w.) ] q.y.q.n.# | A.w.n.r.f.g.'.~.~.].{.].Z. X( S ~ n._ [ z.l.Q ,.0.0.t.0._ x.6 P.f.7.K.f.y.3.l.O.u.6.E 0.y.8.5.7.9.5.h s W l.e.3.R.E >.5.a.;.O ",
"-.nX~.(._.n.t.}.^.n.^. X X}.[.P.) q.l.$.E ) ) _ $.O.q.c.Z.S C , $ M m m R 0.0.0.r.1.r.1.6.r.d.r.r.q.:.,.;.R ^ :.q.S.(./ E [./.9 d -Xd.w.w.~.m.O.^.^.q.t.m.m.^.t.u.n.y.q.0.q.E 1.>.r.t.t.n.L.~.8 :.pXw.m.m.z.x.O.( ! ! Y ~ U R R / 2.0.2.E ) z.%.z.B.[ c.[ l.q.- N iXv.A.O.~ ) ) / ( _ $.z.E _ n.e.n.^.R.[.'.m.w.6.0.^.XX}.[.cXE  XNXXXXX^.t.~.~.l.r.y.r.r.P.L.).(.5.) n.(.t.q.0.2.<.) ) ,.y.q.# #.'.5.^.^.n.L.[.m.u.^.].].{.E.M.v.t.^.r.S q.q.) w.t.q.q.n.^.f.+ L.K.y.P.K.w.u.0.] 6.i s W 5.d >.>.y.7.j d >.e.0.) q.f.u.r.6.i % ",
"U {./.^._.^.(.&X X~.T.XX&X^./.(.v.n.$.O./ q.2./ _ 2.) c.c.w n - #  .S ) t.g.u.8.8.;.w D E 8.1.a.u.3.,.0.S 0.q.2.3.n.r.,.~.^.^.i D &X}.^.y.r.b.^.^.u.u.n.q.t.q.r.q.~.(.u.w.q.<.f.y.>.>.w.y.D ` 4 <.cXn.q.+.( q.q._ ) Y U ! R Y Q 2.0.Q 2.q._ _ n.n.z.[ c.c.c.n.& l tX^.XXm./ S ^ ( M._ o.q.q.v.n.n.T.^.^.[./.w.y.r.y.v. X^.[. X8 K.NX[.c.f.^.`.).`.~.g.6.~.~.L.y.).L.8.y.g.~.z.r.u.m.0.0.r.y.u.$ V.`.0.P.(._.(.L.g.q.S.h.E.m.m.l.q.r.L.l.D / ( l.t.T.0._ v.^.g.; f.>.w.f.w._ 3.r.r.8.i d W w e 7.5.5.9.>.d h 0.u.u.n.y.P.f.f.>.o ",
"h pX(.7.9.y.n.^.^.n.}.P.}.^.n.3.O.O._ / :.2._ z.Q U U ) l.R v $ # ~ A E t.y.g.y.r.8.>.1.r.>.e 8 <.0.q.2.Y 0.w.r.r.r.L.f.P.^.^.u D bX~.^.[.n.v.v.3.T.2.m.n.q.e.r.t.^.f.5.q.u.>.7.P.r.j 7.j 9 d e W zXh.h.x.l.h.) ( ~ ! _ O.2.R Y 2.2.! Y _ $.q.t.m.c.$.Z.W.^.Z.& ) zXR. X_ 0.E c.q.) ^ ~ ) t.P.g.^.^.r.l.^.^.q.5.r.n.3.v.'.T.l.8 s.&X^.h.L.S.|.L.y.y.y.6.9.K.9.y.g.(.u.r.~.6.>.r.u.r.,.6.5.y.r.# %.Z.r.y.>.f.r.(.g.~.^.[.[.[.R.x.l.) 0.m.[ S Y 2.E w.0./ 3.^.r.+ s.U ' ' W ,.,.8.7.>.W 5.>.j u d i >.9.>.<.W ' Q u.(.L.t.r.y.h o ",
"j zX Xt.r.u.n.0.r.D.XX^.F.y.2.q.! 2.0.2._ 2.q.b.l.F S R c.q.Z * $ +.E E 6.y.u.L.y.1.5.<.R W w E r.,.q.E R R >.;.<.a.f.:.0.a ' e j ;Xf._./.^.f.(.^.T.q.t.t.q.r.! j.j.Q y.f.w.q.0.r.y.S.L.>.h 6.i <.l.! x.+.z.m.^.}.O.! O.$.3.) Q / ) z.q.O.l.z.D.x.rX'.l.m.m.R.e 3.AX XA.) n.R.[.0.-._ '.n.n.P.g.m.}.l.j.) ^.n.,.h.yXl.'.XX6.^.y P.*XT.^.T.T./.f.8.n.g.j 7.L.6.r.y.(.q.a Q y.5.>.6.y.t.6.5.W f.@ o.^.L.(.2.2.r.P.y.e.^./.}.^.^.n.l.( 2.m.n.~ l.r.Q r.0.E t.q.E 6 L.r.5.w.8.>.Q 0.w.0.r.r.r.j h 5.p j j d j >.W W E P.%Xf.9.y.j . ",
"<.bX#X^.S.S.v.t.u.t.q.q.E _ _ q.v.E Q j._ l.D.m.z.) Y Y l.2.! 1 # #.Q Q 8.>.,.g.r.>.r.r.<./ E R E r.n.:.>.>.>.R R Q ,.>.>.R r.e j  XL.L.y._._._.^.|.t.e.t.v.v.t.m.b.3._ >.5.,.e.5.>.n.~.t.;.>.6 u 3.( c.z.m.[.C.'.'.l.! Y ) q.0.Y q.B.l.l.c. X XZ.x.[.n.l.q.n.8 0.fXx.q.w.n.z.m.l.Q _ l._ 2.^.m.v.R.( j.X.O.n.e.R.[.'.pX}.^. Xe n.-X`.&X[.q.^.^.n.^.n.Q f.n.r.0.r.y.t./ W r.u.0.J.n.w.0.2.q.).$ O.~.u.u.q.P.t.^.^.^.^.}. XZ.N.5X[.O.b.E.m.[ [ l.O.u.w.n.^.q.g.8 _.K.6.0.y.w.8.5.r.w.r.w.w.7.<.;.d >.a a >.>.T >.T 6.r.r.Q f.5.. ",
"l.zXy.0._ q.r.r.r.n.q.q.q.z.z.Q q.q.( ,.v.M.v.m.l.2./ ) h.>.Y q # ~ i a W j >.>.8.6.y.y.1.;.r.a.r.q.~.;.a 1.>.E E 0.E ,.8.f.P.9 i $X6.Q l.L./.n.w.T.t.t.e.l.z.^.(.y.f.y.>.;.h 5.w.9.t.w.W h >.4 e n.0.q.^ x.n.n.Q Q 0.w.<.2.0.Q Y 0.Q l.v.R.^.R.'.[.^.r.v.m.n.4 T 5X] q.0.y.l._ _ 1.E / q._ q.[.^.m.R.[.Q.+.n.l.R.n. X X{.^. Xe ~.VX}. XXXl.b.n.T.n.t.! r.y.y.2.t.~.0.2.0.r.0.6.r.~.u.2.q.3.q.@ +.@X! B ~ n.n.~.~.T.n.T.q.e.z.pXrXZ.'.m.+.c.c.].E.m.0.0.~.q.~.4 f.L.8.7.r.L.9.r.y.r.6.0.5.Q 8.r.7.8.5.>.j ;.s >.R r.r.Q R r.>.O ",
"Y 5Xr.0.q.Y _ 2.2.r.v.z.q.O.M.m.D.q.) U 3.q.:.2.O.O.2.4.q.1.Q : @ ~ U ;.W R >.6.r.8.r.r.r.E ,.r.q.( l.7.;.,.E 3.t./ Q 0.r.f.L.e a _.>.r q.q.w.f.f.t.E 3.q.n.q.q.,.0.L.P.<.7.5.>.7.7.w.a a 5.5.4 u q.W ;.q.~.t.t.>.j r.w.d L.r.E 2.q.0.r.R.R.q.^./.n.0.<.q.^.n.4 W m.' 0.6.6.l.l.w.0.0.3.S.d.n.t.n.h.R.E.M.[.Z.'.pXR. X}. X}.bXu ^.CX^.n.^.n.v.T.q.) y.6.0.r.r.) / u.u.n.t.3.,.1.6.y.3.3.f.5.:.@ P L v q.n.n.f.f.f.t.w.n.0.n.n._ ^ X.O.^ c.].E.^.m.t.2.r.P._ q.% q.f.5.h 7.8.>.5.7.y.;.>.5.>.7.a.7.6.7.7.5.h a d a W 8.Q 0.r.j o ",
"r +.0.0._ ) Y ) ) q.0.l.A.l.z.n.q.) ! Y Q 4.Y ! _ ( 2.O._ q.m.-   ! ,.1.6.W >.,.1.8.6.,.0.r.E q._ _ 3.1.,.3.,.l.n.3.Q 1.,.i.r.8 h ^.R R E 2.w.t.n.^.T.^.q.R.m.y._ l.(.@Xn.n.a.>.6.r.0.d r ;.5.6 j ^.1.Q w.t.q.^.t.q.0.T 0.T q.y.r.v.m.q.'.R.T. X^.Q 0._ r.n.[.8 6.rX/ l.w.q.n.q.2.0.0.n.S.q.n.r.r.R.v.l.l.V.[.].[.5.$X^.&X:XGXj ^.xXy.y.n._.m.3.q./ _ t.w./ <.E / l.2.q.u.u.) 6.0.w.2.q.).6.S   V } ! l.n.^.^.n.t.n.l.e.0.^.n.#.O.m.m.O.l.o.c.( r.x.) r.f.g.Y   v E d e i e u j 7.5.R r j <.<.<.>.5.h 5.h u s a i W 6.6.f.6.h . ",
"0 +.r.2.2.E R S w j.v.Z.].v.G.v.2.2.O.! ) 2.Y w R 2.2.0.2.>.b.< # 3.;.>.1.>.R >.R ,.:.w ;.,.E t.3.n.w.Q 2.E :.l.l.q.w.,.y.>.r ; 5 $X6.6.>.E E S 2.R.m.3.( ^ l.e.n.^.v.v.q.q.q.q.) 3.Q 5.0.;.6.e 7.n.;.w.n.q.R.~.t.^.n.w.q.D / u.2.3.}.T.R.m.l.q.n.l.Q Q <.T ~.e w.cXl.m.n.^.n.q.0.Q l.q./ ) 0.1.0.m.m.R.[._ n.}. Xt.Q ) n.~.&X+XK.VXf.g.y.(._.n.) ) 2.2.,.7.8.E 2.2.) u.~.L.w R 2.y.5.L.J.t.F @ | 7X_ 3.l.n.^.^.n.t.t.e.) q.( q.c.'.Z.j.c.l.l._ m.^.x.l.f.7.R @ v m 0 i W h e p >.a r p <.j <.p ;.5.j j 0 a >.;.h 5.6.6.5.>.u . ",
"n #.y.w.) E ) U / l.o.h.m.m.'.A.q./ ( ) Y _ _ ) l.n.q.q.2.a ) < & &Xa >.8.>.W ,.A W W d ,.<.R r.L.n./ 2.6.2.y.K.^.n.t.r.y.Q R 5 9 }.W ;.r 2.r.,.q.~.[.R.q.m.^.v.2.3.v./ v.t.m.b.n.n.6.2.r.W 6.6 8.&X<.6.n.t.w.w.r.w.t.^.n.Q y. XP.g.^.^.[.'.m.m.w.Q 1.0.l.t.|.8 0.bXS.m.^.^. Xn.w.q.^ q.D E ~ w.r.n.'.[.E.n.m.VX^.w.6.n.n.f.[.g f.:XL.~._.t.2.t.) E 2.E ,.y.E R Q :.q.~.n.2.R y.u.g.9.L.t.q._ # J V._ ) 2.2.y.g.f.L.T.^.3.q.j.l.l.x.O.^ q.l.l.l.u.F.n.F.(.Q q.# c 3 < w d 0 7 i a j >.R e h a j 5.7.>.>.i R >.j >.7.5.W T i u + ",
"* ..u.0.0./ l.n.v.z.( O.A.D.'.n.2.U O.$.! _ / O./ 2.r.2.n.z.l.$ @ n.d d 1.>.>.>.p a w Y Y r.6.r.~.3.2.,.E r.2.q.2.0.r.5.E >.,.e 5 y.W r ,.u.p.p.^.~.[.|.c.b./.^.h.v.3.3.0.t.S.Z._.g.q.r.;.6.w.4 g (.W W 9.a.w.T.^.T.n.t.6.e.^.XXP.~.e.^.XX|.l.^.t.[.t.w.R.t.S.8 t.CXT.n.m.m.^.n.l.e.0.q.:.( ^ g.r.m.m.v.n.R.zXxX^.T.~.n.^.[. X7 y.XXr.w.(.q./ 4.) 2.q.E Y E r.r.r.3.t.y.q.n.f.r.r.K.(.(.n.F Z # } z.Q / :.A r.q.f.K._._.L.L.0.q.m.t./ q.[ x.q.q.t.y.r.y.n.R.n.@ c < ; e e : 9 j j 7.>.;.r j a <.5.>.p >.>.a 7.5.0.,.>.6.W U d . ",
"* X.g.Q E ,.2.3._ ( k.'.'.m.v.q.Y U ( O.( _ / _ _ ) 0.Q 0.l.M.* @ ,.0 q ;.>.>.d A D a ) r.y.~.u.2.,.,.Q Y R f.(.,.K.s.>.R Q ,.e 5 r.i i :.4./ / n.^.n.^.&X}.v.Z.3._ _ t.5.0.f.~.n.L.f.,.E >.q.; e t.>.>.7.r.r.^.n.n.q.5.w.e.W n.`.f.Q q.n.m.z.XX}./.T.' e.e.t.8 ~.bXn.q.e.R.m.n.n.l.0.D O.3.S 2.1.n.v.l.v.'.CXxXpX^.t.u.~.^.xXp w. X^.t.6.3.j.E ,.,.y.t.w.,.f.f.:.2.`.(.~.3.y.y.2.r._.f.2.Z Z # | +.! E ) / _ n.L.f.L.v.K.q.q._ q.v.m.l.l.l.v.R.c.S.u.t.(.XXX.@ = $ 9 q 0 a >.>.r d a >.W 5.>.a.7.>.s 7.a i >.>.5.,.,.T T ) q   ",
"= ..,.h.k.Q R Y 2.! ~ q.'.'.l.3.E Y ! ! / $.O.) / / r.m.Z.R o.* # Z.b M ,.r 1.1.0.-.>.Q 0.g.g.E E t.0.Q 0.E r.t.r.9.,.2.t.R -.5 e 3.a q._ <.4.2.S.n.v.3.2._ E u.r.r.L.n.t.Q >.2.q.>.a.S.z.>.q.: w n.>.^.^.w.r.n.l.l.) r.t.n.0.w.t.^.e.' t.R.'.XXB.0.W q.R.0.~.8 f.xX~.bX^.w.T.0.t.Q ' E _ 3.3 r E U <.~.T.bXzX|.zX[.^.zX Xn.|.u 6.R.S. Xw.0.y.,.,.E q.u.6.9.8.9.9.,.~.q.g.q.^.y.>.7.2.rX*.C C # J  .E M.,.6.q.t.T.L.f.g.~.q.l.^.l.v.m.'.{.E.v.R.r.E b.dX_.g.o.  = < q R q R r 5.E R 7.,.U i g a.7.>.j j j j e h h a Q 3.U ,.<   ",
"= #.Y mX'.j.2.v.m.o.l.) q.m.q.:.Y ! / / ) ) O.$.E W ) LXbX3./ * # X.3 mX%X) >.6.1.W a r r >.1.:.) 3._ ' 6.E q.0.>.5.E CX#X1.E r r F.-.mX&Xp.4.,.F._.n.2.p.d.(.D.r.a.v.g.q.2.R E 2.3.w.FX*XQ ) ; A n.w.CX-XE t.t.n.n.x.n.n.0.) 3.q.f.t.n.n.[.'.pX0XB.1.GXCX0.n.e r.zX|.LXHXn.x.h.v.O.~ w.0.m.Q <.Q ,.6.w.`.|.t.^.}.m.zXLXvXq.}.y 7.(.S.GXVXT 5.8.a.y.^.q._ y.f.8.9.g.g.E S.(.^.j.n.f.(.hX3Xv Z $ Z C I nXFX6.~.u.L.~.P._.^.^.m.v.m.m.m.#X`.yXl.l.2.0.W.HXvXA _ @ * : 0.-X|.e i R >.>.5.>.i U r h >.5.7.>.a p a W >.i r.vXVXw *   ",
"= @.S X.S 1 ~ l.q.l.A.) S ) E A A Y Y Y R R ) ) ,.l.D Z.>.0 ! $ @ ! < #.Y s R >.j a p a R R R R _ _ ) 6.5.w.r.r.r.6.w `.7.e ,.5 r D.R #X,.r ) 2.p.y.q.g.1.u.P.OXr.<.6.2./ E ) E E Q W *Xf.h l.5 -.A.>.&Xs.d Y S :.0.t.t.l.E 0.Q f.t.R.m.[.B.T.A.5XtXQ CXL.w.R.8 0.nXn.HX#X0.m._ / 3._ 0.1.r.Q T Q 0.r.@X:X^.q.t.^.XXT.FX9.Q `.p W `.>.VXf.W w.9.t.n.`.v.(.(.P.K.f.(.K.8.n.[.^.3.).g.0.nXA M } $ V N , A.s.` n.v.f.L._.}.[.^.XXn.n.n.q.m.m.q._ E W 6.8.VX,.^ H @ = - 2 b.p q a >.;.7.;.r.9.Y ;.w a 7.7.j w 3 i ,.7.>.7.*Xa.b *   ",
"= L M - = F +.o.t.m.u.G F _ 3.E R Y E U Y / _ ! ~ X.3 % % 1 n &   M < & : W ) i >.w >.>.E ,.,.3.^.^.R.e.0.6.r.6.r.w.R 7 7 >.r.5 9 G.,.0 w E 3.j.v.y.4.s.f.(.g.(.u.4.v.F.0.) E Q E Q U w e 6.T.6 E rXw.f d m.U E Q 0.x.q.R.t.y.h.d.f.^.m.n.l.l.B.z.A.l.i s T.T.6 w.BXn.E Y l.B.x.l.3.q.2.<.W T 2.6.1.e.-X^.^. Xn. XbX[.W d w.(.y W  X6.u w t.y.f.f.n.^.q.g.q.[.~.g.t.r.R.n.R.^.f.n.(.r.i U Z  .$ Z L n ; 2 q.e.^.~.[.^.[.XX}.NX X^.f.r.q.O.) m.x.c.^.g.e a 2.F   l 1 - # : A R R 5.5.>.r.2.,.0.y.8.R j 5.>.r a 8.8.r.i q a M *   ",
"c v 3 b c m M n Y E a R E 2.2.U :.E A D E Y Y b b M n = c v v * @ c - * , b S U R E >.7.a R E ) E Q ) 6.W T 7.>.>.5.R r e p a 5 e ,.r U U E E Q E >.Q i.<.a 1.a.:.r 7.a.>.6.,.>.>.a s T e W r.8 h r.7.5.0.a e 6.Q Q w.n.n.r.y.y.y.a.0.>.) 0.0.0.l.l.$./ 0.0.t.e t.^.w.w.] E W e.0.i < r U ;.W <.h W 1.f.^.^.^.n.^.^.n.Q >.>.t.u W t.>.W W Q w.w.>.Q 6.8.,.Q 2.r.0.A D r.,.0.w.r.9.f.8.U S m M * Z ! U 3 w Q 1.w.f.0.8.w.r.r.L.f.W A Y 8.W 7.Q r.8.r.y.>.< 1 S # , # $ * & : < 9 u p u ;.a 5.E r.w.>.j j p R h j >.5.>.7.h R *   ",
"*         @ # * @     . % % % o o o # $ $ * *           $ * $ $ * # . # $ # @ @ @ . o O + o % 4 % % . O O ; O O o % O O O o . o : . . . o # . o o o O O . . : + o . O 4 % O O O O O O O O O O 6 4 . 4 + o : 2 < ; O 6 7 6 4 4 6 ; % .   . % 4 6 2 2 : 2 m 2 ; i W ; 4 4 4 ; # < o o . o . . o O . 4 4 e w 6.f.e 8 e 6 4 q 9 7 g u O 4 O 4 O 4 4 + 4 4 4 4 4 4 & @   @ 4 4 4 4 4 4 4 O @ #   @ - $       . . O O O   . . o . $ O . . . . X X . . O o . % .   @ *           # # $ O O . o 4 4 # O O + 4 4 O 4 O O 4 6 8 u < 6 % # "
};
