/* XPM */
static char *wall1[] = {
/* columns rows colors chars-per-pixel */
"256 256 256 2 ",
"   c #1C0905",
".  c #1C120D",
"X  c #1D1410",
"o  c #230602",
"O  c #240A04",
"+  c #2B0B04",
"@  c #230D0A",
"#  c #2B0B08",
"$  c #330C04",
"%  c #3B0C04",
"&  c #360C09",
"*  c #25130C",
"=  c #2C130B",
"-  c #2B170C",
";  c #36150A",
":  c #33140C",
">  c #3B130B",
",  c #3C1A0E",
"<  c #2E0F10",
"1  c #241413",
"2  c #2C1413",
"3  c #261A13",
"4  c #2B1C13",
"5  c #2B1718",
"6  c #2D1A1A",
"7  c #331513",
"8  c #3B1513",
"9  c #341C13",
"0  c #3C1C13",
"q  c #3B1618",
"w  c #331B1B",
"e  c #3C1D1B",
"r  c #3C200F",
"t  c #2E2015",
"y  c #322215",
"u  c #3C2214",
"i  c #3C231B",
"p  c #38261A",
"a  c #3C2A1C",
"s  c #371F20",
"d  c #362222",
"f  c #3C2222",
"g  c #3D2B22",
"h  c #3C3129",
"j  c #430D04",
"k  c #480D06",
"l  c #560D04",
"z  c #471105",
"x  c #44140C",
"c  c #4B150C",
"v  c #441A0E",
"b  c #4B1A0E",
"n  c #591305",
"m  c #54140D",
"M  c #5B150D",
"N  c #531B0E",
"B  c #5C1A0E",
"V  c #431513",
"C  c #4A1613",
"Z  c #441C13",
"A  c #4B1C13",
"S  c #441C1B",
"D  c #4A1D1B",
"F  c #541C13",
"G  c #571B17",
"H  c #5B1C13",
"J  c #661809",
"K  c #6F180F",
"L  c #771A09",
"P  c #631C13",
"I  c #6A1D14",
"U  c #53210F",
"Y  c #442314",
"T  c #4C2315",
"R  c #482916",
"E  c #43241B",
"W  c #4C251A",
"Q  c #452B1B",
"!  c #4D2B1C",
"~  c #532315",
"^  c #5C2315",
"/  c #552916",
"(  c #532519",
")  c #5B251A",
"_  c #532B1C",
"`  c #5C2B1C",
"'  c #46311C",
"]  c #4B311E",
"[  c #53311E",
"{  c #5C311E",
"}  c #58381A",
"|  c #70220E",
" . c #632316",
".. c #6B2315",
"X. c #692A16",
"o. c #63251A",
"O. c #6B241A",
"+. c #632C1C",
"@. c #6B2C1C",
"#. c #772719",
"$. c #732C1C",
"%. c #63311E",
"&. c #6B311E",
"*. c #653918",
"=. c #75321E",
"-. c #491E21",
";. c #631F21",
":. c #432424",
">. c #4B2424",
",. c #442D23",
"<. c #4D2D22",
"1. c #472729",
"2. c #4C2A2B",
"3. c #582727",
"4. c #532D22",
"5. c #5C2E21",
"6. c #453126",
"7. c #4E3123",
"8. c #463329",
"9. c #4B342A",
"0. c #4E392E",
"q. c #533324",
"w. c #5D3324",
"e. c #563926",
"r. c #5C3926",
"t. c #54352A",
"y. c #5C3629",
"u. c #54392D",
"i. c #5D3A2A",
"p. c #4B2E31",
"a. c #562E33",
"s. c #4D3235",
"d. c #4D3934",
"f. c #583337",
"g. c #553C32",
"h. c #5B3D32",
"j. c #632E21",
"k. c #6B2D21",
"l. c #642B28",
"z. c #742D23",
"x. c #633323",
"c. c #6B3423",
"v. c #633926",
"b. c #6C3926",
"n. c #633629",
"m. c #6B3629",
"M. c #633C2B",
"N. c #6B3C2B",
"B. c #723523",
"V. c #7B3423",
"C. c #733A25",
"Z. c #7B3A26",
"A. c #76352A",
"S. c #733C2A",
"D. c #7B3D2A",
"F. c #672F33",
"G. c #633E31",
"H. c #6A3E31",
"J. c #64373A",
"K. c #763D32",
"L. c #5B411F",
"P. c #71461C",
"I. c #5C4225",
"U. c #5B4236",
"Y. c #594438",
"T. c #5D4539",
"R. c #684926",
"E. c #65412E",
"W. c #6B422E",
"Q. c #73422E",
"!. c #7C412D",
"~. c #754A29",
"^. c #775527",
"/. c #644232",
"(. c #6C4433",
"). c #6E4935",
"_. c #624639",
"`. c #6C4639",
"'. c #634A3C",
"]. c #6C4A3B",
"[. c #724533",
"{. c #7B4533",
"}. c #734A35",
"|. c #7B4B35",
" X c #774539",
".X c #744B3A",
"XX c #7B4D3B",
"oX c #7A5138",
"OX c #7C513C",
"+X c #5B3C41",
"@X c #663D42",
"#X c #664B44",
"$X c #6A4E41",
"%X c #614A4C",
"&X c #764A44",
"*X c #6C5244",
"=X c #6B5548",
"-X c #745546",
";X c #7D5342",
":X c #745A4C",
">X c #7B5C4D",
",X c #705054",
"<X c #785D52",
"1X c #7B624E",
"2X c #7C6354",
"3X c #881B0A",
"4X c #842918",
"5X c #922A12",
"6X c #87331D",
"7X c #A63012",
"8X c #853825",
"9X c #89372C",
"0X c #823D2A",
"qX c #953926",
"wX c #AA3925",
"eX c #83422C",
"rX c #8A442C",
"tX c #95442C",
"yX c #815E2B",
"uX c #935E28",
"iX c #834532",
"pX c #844A34",
"aX c #8A4835",
"sX c #8B4B34",
"dX c #834D3A",
"fX c #964B35",
"gX c #82533D",
"hX c #8A553C",
"jX c #97543A",
"kX c #A55134",
"lX c #835543",
"zX c #855A44",
"xX c #875846",
"cX c #8B5B44",
"vX c #8B5D4A",
"bX c #88584D",
"nX c #955B45",
"mX c #A45C46",
"MX c #8C6345",
"NX c #8D624B",
"BX c #93634B",
"VX c #98674A",
"CX c #856758",
"ZX c #986954",
"AX c #937152",
"SX c #9D7356",
"DX c #AB6C4A",
"FX c #A36C54",
"GX c #A47659",
"HX c #8F7466",
"JX c #A87B63",
"KX c #C16C40",
"LX c #A78364",
"PX c #B0886A",
"IX c #C69167",
"UX c #AE9584",
/* pixels */
"Q +.z j z l % k J j % n J k J n n l m j % m n J J l % j z % % $ $ c z j m l l N m l ~ / ~ m m N A x T v Y T / c v : x b c x = 2 - @ @ @ * # * @ ; x x v & = - : # = y a u a u y 9 p , a d y d w 5 4 ' q.q.7.7.Q ! ' ` C.e.r.{ m n v j % z w.v.q.W.^.eX[.W.sXhXE.C.` Q g ' p 9 , # = 7 , @ * 3 w 3 3 5 w ,.f g 2.! ] q.i +.f u 0 0 u f f u e f f 7.g.M.6.6.! q. . .T ( ! q.] ' 7.Q ' A n z j n % $ j % $ 7 Q ] f / J l l n n n n J l l J k k n j l n n J l n n l k l z z % % + % A :.A ,.T v.m f q.v.e.e.u.<.i 4.O.Q..Xi.6.7.M.r.",
"w '.#.L 3XL n n J N F P J | K L #.#.L J  .6X=.| 6X..A ~ ^ v m ~ c N &.c.@.X.@... .o.|.gXsXrXD.V.}.fXsX8XoXb.W.E.j._ ! c.k.+.^ 7 e k.( S ^ o.S ( k.O.o.C.` w.N.I O.dXXXxXlXgXOXv.E.M.) }.(.g.i.u.i.u.(.(.;X.X/.u.E.D.W.Q.{.b.c...#.6XeXdXiXoXsXgXuXVXkXVXVXGXhXu hXhXE.E.gXM.C.B m / / ^ x _ L.u.L.} e.I.OX(.G..X.X[.[..XoX5.e..XE.E.E./.e.e.r.4.T.XXOX).xX.XN.[.S.C.+.5.`.(.g.f./.+.J J J J n % z n n z u.M..X).P.qXK J #.#.$.=.8XZ.C.eXC.P...P P L L #.L L =.#.$.C.C.c.B.&.B  .W.` x.(.N.).v.G.(..X.X.X;XgXq.k.0XxXAXk.<..XM.a ",
"4 g.kXtXmXkX0XrXD.dXhXZXsXD.sXtXkXkXmXsXnXqXtXfXnXtX@.@.pX'.*XNXlXO.nXjXkXkXfXjXjXkXDXPXGXGXLXPXDXLXLXGXFXBXZXSXtX0X XqXfXDXfX2 9 mXkX{.tXfXsXkXfXsXGXmXhX1XZXVXkXPXZXZXHXnXmXcXBXBXZXGXSXsX;XBXCX<XHXCXZX>XZXFXvXNXVXFXhXV.rXtXrXDXPXPXGXxXVXFXPXPXPXPXGXIXE.4 !.LXXXxXFX;X0X8X=.Z.dX.X;X;XxXxX'.'.-X<XSXZXvXZXSXGXZXGXGXcXvXvXxXxXlX*XOX;XxX:X<XCXZXZXLXfXD.eXiXlX8X$.-X<XCX2X&X#.@.=.#.=.> % j 3X5X=.xX;XxXMXjXfXjXnXwXtXnXjXDXkXmXmXmXFX0XtXqXpXjXjXkXDXDXjXjXqXqXtXjXfXsXeXlXdXlXjXsXBXxX1XZXBXNXHXLXvX0XqXkXZXPXfXz.iXQ , ",
"w u.DXiXv.U.M.[.v.q.^ {.<.c 8X!.Z.Z.=...@.B.}.@.S.V.q.v.[./.h./.).{.B.A.V.V.B.#.V.P.8XD.#.iXsXcXpXxXBXBXgX|.|.4XA.J.) ^ 5.D.0X7 Z 9XK.5.n.K.j.z.S.0XD.#.K.;XgXlXBXBXxX=XG. XCXXXz.XXK.vX=X;X;X).U.$X:X>XM.XXXX).T.(.dXl.c.Z.C./.].SXSXBX;X(.OXlXSXFXuXhXZXVX~ ; q.MXq.M.oX! ~ ~ A ! R ,.x.x.q.W f ] 6.8.(./.J.i.E.E.M.v.E.q.i./.e.e.q.Q 7.1.,.t.0.9.u.T.).4.e W w.y.Y.u.q.<.u.s.W W T _ y.*Xy > C 7X3X_ _ r.i.{ M.o.b.W.+.c.X.&.P.Z.C.Z.C.B.P.C.Q.Q.~.Z.P.sXeXqXeXB.&.&.6X=.B.` v.` ) a.q.v.).t.(.v.i.}.|.(.v.N.).=X(.n. .m.Q i ",
"= i.GXdX/.E.M.v.q.w.n.` <.H c.O.O...P P  .[.(.M.}.C.>.x.+.+.4.5.! ` +.) T +.+. .*.&.O.J B P.Q.~.W.N.m.N.W.C.N.O.H w.+.P F o.9X8 0 9X9X) T ` T A ) @.#.@.b.v.N...k.OX.Xa.e.r.E.M.5.w.N.E.W w.M.` ` _ ! q.T ~ q.Y W x.&.x.$.!.b.q.` pXcXOXi.u.M.E.hXjX6XC.tX7Xl % x 6X&.` _ Y Y Q e.6.:.,.>.Y Q Y 2.y.6.6.E.E.T.g.i.i.t.e.e.e.q.M.E.q.q.q.8.6.,.g.g.0.9.U.e.w.` x.y.i.t.i.Y.G.g.8.4.q.[.(.).-Xf 6 D vXN.e.r.r.[ %.x.b.c.S.D.c.@.b.C.=.$.X.Z.Z.&.b.c. .@.B.Z.Z.C.B.C.B.%.&.=.@.&.&.B.c.+.q.e F i.u.E.M.u.j..X)..X.XM.n.N.4.( j.9 4 ",
"s t.nX0Xq.q._ _ v.<.Q W n.i.N. .c.S.c.C.N.oX|.$.@.b.v C J I m _ ! +.~ N v %.P.W.R.W.P P ..I *.P. .H c.@.N.v.M.r.u.W [.B.b.o.V.> , 8X9XT T T Z Z Y H o.c.` q.v. .H _ M.E.v.M.W.4.F D b.E.q.v.j._ q.q.q.e.e.q.M.q.T ~ C.}.b.S.e.e.b.gXMXlX/.v.! x.[.M.V.S.6X7XN % n 5X.._ ` E Y f ,.:.Q Q Q E a :.6.9.q.7.7.0.g.0.] 7.t.y.r.e.g.i.g.7.t.e.q.<.t.M.g.9.M.q.w.x.c.C.`.[.g.u.q.8.,.g.u.q.(./.f.=Xg d g.ZXgXq.e.e.q._ +.+.b.c.+.+.W.E.P I J I Z.c.C.c.X.$.$.c.c.@.&.c.Z.Z.&.V.Z.=.B.B.=.N.[.M.q.w.v.2.D.M.M.i.}.i.M.XX7.e.(.G.T.).a 5 ",
"p u.A.8Xc._ M.vXxX;XQ f 4.>.v.c.S.|.S.z.r.W.E.x.x.A x F B c b _ ( c.%.c ^ C.~.{ v.Q.&.P @.+.&.P.^ H ` M.c.w.).HX X3.` @.Q.M.O.2 e 9X9X` j.T 0XnX>Xy.A c.@.x..X4X@.w.M.M.M.(.(.q.M.x. .#.v.XXc.E.j.c.MXgX}./.[.}.j.eX(.N.D.D.S.S.fXMXVXgXv._ vXBXPX>XM.v.4X7Xv $ J L .._ w.q.>XCX2X0.Y :.,._ Q Q 6.y.t.y.q.2.8.] ' ,.q.E.M.e.M.M.t.2.4._ _ _ v.w.w.m.x._ b.5.x.N.}.$XM.E 8.u.2XCXHXT.M.).t.`.f 4 g.ZXXXe.M.e.2XvXOXb.o.%.^ +.M.E.N. .+.&.B.c.$.@.X...$.C.C. .&.Z.eX8X6XrX=.&.rXZ.@.b.) C.x.j.v.V I ) w.! H (.CXsX&XY.` *X`.=Xp w ",
"Q j.vX{.` E ;X2.e ;X/.w 7.p.i.D.#.z.$.D.{.|.eX0X8X_ T H +.` +.v.@.D.D.}.eX^.pX..#.6X#.#.#.J I *.V.=.B I H Y HXg.<.K.u.@.@.` o.< 0 9X9Xz.+.+.JXw.h.nXW x.#.XXcXqXjXcXOXN.(.XXcX.X{.K.V.#.lXBXNXxXXXXXZXxXBXBXlXlXOXcXcXcXjXjXjXsXjXnXFX{.` sXxX:.XXPXM.(.qX7Xz : L 3X#.` q.{.LX6.g.*Xe R ! x.w._ q.y.,.e.w.7.Q Q ] 8.t.Q.S.q._ 5.x.! Y _ ` { ` 3._ x.` _ c.b.c.N.).XX}.t.e.2X<Xp Y.2Xq.}.p.g.f p [.GX=Xq.e.=X<Xi t.;XT _ _ q.(.W.v.&.@.b.` F +.o.$.=.B.=.eXD.=.Z.@.&.+.qX&.&.Z.rXb./.i.( F M.E._ (.M.h.m.F CX&X: D -Xt.`.'.=Xu w ",
"q K.CX`.5.E ;X,.q.bX;XE :.a.k.O.$.|.{.).W.gXpXD.#._ _ M o./ ` j.B.0XiXdXiXeX|.Z.#.eX=.8X8XV.#.#.9X0XB.O./ T bXu ) <Xg.F N x.k.& 0 rXlXK.) o.xXT 4.JXq.+.O.{.gXsX|.[.(.c.(.[..X/.k.[.#.$.>X;X;X)..X;XBXNXcXcX}.&XN.XXsXVXjXjXfXeXjXjXjXeXC.sXXXQ pXLX,.OXfXqXY $ L qXL N.t.CX:X:.e.bX,.{ { x.w.w.q.4.<.q.e.9.8.6.8.t.e.Q.N.` _ w.q.! T ` ` _ ( W _ ` ` ` c.S.S.[.`./.)._.h.2X#X:.G.%X:.(.u.*Xf t f.ZX-X] [ :X=XY 4.vX! E ! e.E.c.x.x.W.H +./ +.N %.%.&.%.^ @.c.` B.x.C.Z.%.C.c.rX!.t.( D w.M.q./.M._ 5.'.D A.( , S &Xq././.CXt.,.",
",.}.ZX*XM.t.#X X-X2X8.,.i 4.o...Z.V.k.T.M.b.Z.x.b._ x.+./ W ` +.&.rXiXS.|.|.iXW.^.Z.Q.*.O.~.}.j.O.$.C.+.v W <X2X=XCXe ^ ) {.m.$ 0 9XsX5._ ( nX0X9XZXE #.0XxXOXgXv.! x.x.M.i.E.i.m.T.).XXOX*X'.T./.gXgXcXXX[.XXN.^ XX{.{.S.tXx.D.sXsX!.%. ._ ;XlXPX'.y _.gXsXE k $.rXL }.M..X>X*XvX`.y x.x.x.x.[ 4.` _ _ _ e.t.7.t.q.q.x.+.x.w.w.q.4.` x.x.( W _ 5.5._ ` c.S.b.Q././.)..Xh.Y.2X`.CXd.6.E.q.Y.s w u.CX>Xe.v.s.CXCXxX(.W q.e.e.q.+.W.M.W.o.x.+.$.P +.%.@. ., o.%.C.C.` ` C.^ ` ` B.Z.e.w.4.A M.e.w.t.M.E.i.>.5.m.H.K.u.w..XQ.dX,.g ",
"Q [.ZX>Xw.4.,.:.S h 8.u.:.w.S.N.!.{.N.+.v.b.x.^ N H x.x.~ T x.c.C.sX^.v.M.W.R./ B o.P B V.c.c...B B ^ ~ e 1.8.T.#X6.f c.E.N.n.= u 0XA.` 5.T 5. Xn.E T k.|..XD.hX[.N.v.x.x.i./.M.W.E.).).v./.M.#X#XO.#.gXE.x.v.` x..X(.n.c.eX^ C.sXeXS.+.@._ u t.i.p v.7.XXVX, % #.Z.@.(.M.v.r.'.U.~ { N.x._ x.C.x._ _ _ q.t.i.q.e._ _ @.@.x.x.x.b.x.x.+.+.` ` ` ` _ 3.x.c.c.x.!.W./.G././.v.U.8.h d i.).e.+Xy 3 D CX-Xq.q.Q 6.T.0.Q ' E.M.q.i.y.N.Q.^.}.~.@.$.c._ %.@.=.` @.@.P C.c.F J P ` +.&.c.c./.5.3.t.v.x.i./.g.F T T u.#Xs.,.D.S.[..Xe 9 ",
"] ).ZX<Xy.( 4.e.e.e./.).q.w.N.i.Q.c.B.$.c.x.5.v.j.%.w.M._ ! w.k.[.eX!.M.Q.S.E.*.^ b.P $.c.c...I ..I #.O.> Z >.E ( e.M.m.m..XdX> Z z.iXN.j. .o._ C A v.j.#.k.z.hX X XN.c.M.E.H ^  ..X*X.X5.OX;XlX;XcXNX}.M.w.W q.x.v.S.N.C.!.D.Z.rXrXD.+.C.C._ _ !./.N.e.gXVXY $ L iXgX}.t.N.b.! q.D.r.M.w.b.B.c.+.+.x.n.6.6.M.i.e.a.w.V.` x.5.v.x.` 5.` ( ( ` ` _ W _ x.c.c.c.S.c.x.q.v.N.S.v.g 8.s.g./.J.=Xp t '.2X=X! ! [ 7.e.7.t.9.M.v.q.i.7._ W..X(.v.V.=.F E ~ X.&.` c.c.c.b.w._ P I B.%.C.=.H m ! ! e.v.v.E.(.4.F W 4._ ( _ [.^.hX{.cX! T ",
"q.XXGXXXe.e.A n.(.M.'.(.b.v.N.b  .H B.k.) [ q.W.eX%.` b.w.3.H I iXsX8XP |.D.U *.C.@.| V.V.....@.#.K 4X+.x S ^ ^ c.v.<.H b.N.D.x Z dXcX .` F  .c.^ O.j.b.z.z.A.iXl.n.^ ` [.M._ F P ` (.[._..XOX;X;X;XvX{.m.w.P (.}.n.x.8XD.sXpX{.rXjXsXc.S.C.Z.C.eXS.S.i.lXjXu % J 0XxX'.n.v.}.e.] t.e.u.q.C.+.^ +.+.x.x._ 7.e.M.i.7.v.iXS.n.b.m.b.5.) _ ` ( ) _ x.` _ x.` ` c.b.x.x.x.3.e.e.q.t.g.0././.u.>X:.t =XZX*XQ [ q./.i.e.i.y.}.oX(./.M.[ w.x.)./.k.P ` Y _ c.c.%.c.b.C.B.c ( &.H +.Z.Z.c.F F Z c C y.! A D w.4.A _ <.F _ N.N.[.A.BX7.Q ",
"a }.JXK.i.5.H  XOX/.)..XQ.c...o.c.H c...` w.w.[.D.c.}.XXy._ P k.gXjXgX .|.eX%.P.Z.P C.V.#.#.P ..O.C.Z.c.T W e.q.x.r.>.G M.x.@.: C V.bX5.q.t.(.XXN.Q.H H k.l.j.8X( O.w.v.v.M.M.}.S.(.m.lX.XXX;X=XOX'.OXlX'.'.j.|.m.` _ {.!.rXiX{.jXnXjXA.c.b.S.S.iX{.N.U.vXlXY $ J rXE.i.N.t.%.8.q.e.i.E.M.D.c.=.+.~ +.+.q.q.e.h.v.n.b.b.b.b.b.b.b.` >.` +.` x.+.+.` ` ` ` _ N.b.x.x.j.x.q.q.q.p.u.1.y.oXi.>X:.4 [.ZX;Xe.e.q.i.b._ b.x.W.}.}..X(.W.N.{.{.}.S.P +.^ ` c.$.$.B.D.eX$.m +.B.J %.@.@.4.w._ C x T ( W A T D W C w.q.^ +.S.N.N.S.;Xp t ",
"g y.qXD.h.F H S.[.[.{..X{.D.V.#.iXV.B.I b.|.[./.K.}.N.N.r.y.5..X[.gXD.[.{.+.M.P.*.B W.V...V.$.8XS.W.B.) 4.4.q.q.r.r.( _ u.w..X- q.nXcXc.M.A m.xXo.E.E.n.+.) ) O.( S.M.i.W.v.}.N.|.{.` 1XxX;X:X>X2X$Xn.XX;X*Xw.XXc.! w..Xm.{.!.{.pXlXpX!.i.y.M./.).|./.y.lXCXb + L sXM.E.g.t.w.e.Q t.i.u.e.Q.M.Z.` ~ ` { _ w.t.9.t.i.v.N.x.b.c.b.x.b.S.S.x.x.` ` ` x.q.` b.b.m.w.x.m.b.q.>.q.3.2.4.s.i./.i.>Xf t M.GXBX/.M.e.x.c._ C.c._ { M.lXhXgXS.Z.sX#.C.c.Z.$.&.$.$.$.@.$.eXV.m O.I &.H @.&.` x.+.m F  .` v.F A S T _ N.5.N.+. .k.XXD.0XQ f ",
"! K.JXBXN.` W ).<.N.|.[.S.!.iXB.hXsX{.S.{.dXXX).(.|.H _ i.M./._.OX}.o.v.^.W.I. .P.^ x.+.=.B.c.W.S.) H G Y w.x.e.r.! 5.w.>.) (.- ! 8X8X.X_ ( m.OXv.+.O.C.@.k.k.8X`.XX).M.M.E.).E.gXOXc.XXcXxXvX>X<X>X=X=X=X}._._./.M..XlXXX;X!.iX{.pX{.C.b.N.S.S.{.{.v.q.`.Z.E # J 8XOXE.M.M.i.r.e.e.i.q.q.v.v.eX) +.c.x._ <.4.5.e.b.b.x.w.v.w.w.x.S.S.b._ _ _ _ b.b.x.4.x.v.w.t.v.c.v.q.q.2.2.q.b.g.g./.).;Xf w N.FXHX/.(.w.e.o.( C._ ( _ c.W.Q.S.B.$.P B.C.c.Z.!.Z.=.$.C.B.B.C.8X+.O.@.%._ +.%.H c.+.^ A b ! e./ Z C W ^  .5.g.E F j.S.A.dXe.! ",
"W iXJXvXP ` 2./.i.).}.N.v.Q.|.pX{.pX{.Q.+.N.|.OX.XS.[.).v.w.}.XX^.P.).i.rXW.%.X.X.B B.c.+.%.+.} b.H A ) W e.x.! ! 7.q.( H H x.O > #.#.(.4.r.(.gXC.H F H ^ k.z.NXlXc.N.g.i.E.M.k.A.sXXXXX XlXxXXX'.:XxXlX).;X/./.[.(.E.}.=X;X[.!.{.iX!.S.%.x.c.S.}.Q.w.>.@.#.> O z eXlXe.t.e.q.x.x.w.e.2.v.M.i.W.! w._ W _ 7.t.t.7.n.n.4._ _ w.4.w.` v._ :.<.y.e.v.e.t.l.i.M.x.q.n.w._ 4._ ,.q.<.N.i.u.E.E.XXf 3 g.CXCX)./.M.M.x._ C.o./ +.` c.C.8X$.H J eXZ.D.Z.Z.X...B.D.!.Z.=.=.c.Z.8X` ~ M C c _ ! T ( > x F F , 0 ! j.5.e.r.q.( h.).}.<X6.u ",
"u S.FXCXx.^ q.5.W i.Y.i.^ m.i.{.|.!.c.v.v.w.M.}.!..X(.(.v.9.T.}.}.gXXXM.#...+.| P M O.H ..B.$.E.@.5.H 5.<.a.q.` _ Q 4.w.F P +.- x 4XK.j._ A )  .(.b.F 3.H S.A.gXlXw.'.`.v.v.v.D.}.XXm..X*X.XlX;X*X$XlXcX'.*X/.t.r.n._.(.M.*XOX`.S.Q.S.S.` E _ i.{.m.4.2.+.J >   % Z.OX6.,.,.Q _ _ { ! 2.(.M.i.E.7.x.! :.q.p.q.t.q.w.t.q.E _ +._ n.b.v.t.t.7.y.N.b.x.q.x.b.w._ w.q._ ! ! ! q.q.q.e.y.M.M.t.;Xf 5 v.ZXBX(..X.X(.x.` &.+.+.c.c.C.V.4X0XV.4XrXeX=.=.@.%.&.$.Z.D.%.c.Z.+.Z.Z.+.F l T W Y S T w.v T ^ o.T V 8 D ( 7.v.v.U.'.G.S.NXS - ",
"e.OXjXCX/.5.A H 8 A './.w.v.W.E.[.[.v.m.n.{ D.S.B.@.+.`.[.N.(.R.W.|.).H ..F H P.^ N ^ @.x.@.S.x.+.M.v.2.q.t._ i.M.v.J.i.4.4.h.9 q O.z.F F _ D H m./.T +.H E.`.S.M.).lX}.v.M.N.o.v. .n.}.'./.;XOXOX*XXX;X`.).(.u.,.g.G./.e./.XX}.(.).Q.b.b._ _ n.)./.w.i.M.` :   z c.gX` { _ e.E <.q.S ,.E.M.M.'./.v._ q.q.2.q.w.n.m.n.t.<.n.5.w.x.N.b.m.N.x.i.S.!.b.4.x.` _ T E Q +.` W <.q.<.w.w.n.M.i.u.lXf y M.GXZX(.}./.M.` ) $.c.c.( %.c.@.0XD.Z.V.rXeX8X=.Z.c.V.=.` c.%.+.C.x.c.Z.+.M ) T > T q.Y i.q.e 4.` T W 1.4.n.^ ( F Y.'.'..XNX] u ",
"e.lXHX&X4.Y.g.u.s.q.Y.g.,.v..X.XM.)..XM.x._ ` _ @.+.3._.M.x.E.R.L.P.b.Q.b.^ H W.v.b N _ ^ ^ i.) S.(.w.t.8.,.A W t.E.h.e.<.W T.. e #.z.v.T t.T H H W ! A F OXh.^ u.G./.s.w.(.k.P w..Xv.)._./._.=X.X`.$X'.U.*Xi.e.u.M.M.M.w./.OX[.'.}.[.S.x.o.` S./.t.<.:.g.i.,   z %..X%.b.b.x._ 4._ E q.}.(./..X[.S.N.n.4.<.w.x.w.b.b.m.i.b.n.b.m.w.l.b.b.S.N.N.S.N.v.N.w.A >.S W _ ) ) _ n.q.v.w.w.i.i.t.;X0 w (.ZXCXY.).T.E.4.+.c.B.c.` ^ I Z.Z.eXZ.eXeXD.eXC.Z.Z.C.$._ x.c.+.C.Z.c.P | P J ~ T ! ( _ M.4.Z ^ ) W W ,.2.5.F A C v._.U.}.NX] y ",
"r.nXPX`.A Y.Y./.e.5.5.i.t.M.}.OXN.}.}.v.[ W Q 0 x.M.W J.t.e.i.R.v.Q.v.Q.S.b.H x.` F A q.^ F ` n.N.S.w.M.w._ F F q./.f.E Q S.O.* :.iX;XM.v C v _ 5.C ) _ -.k.k.5.q.t.E.q.e.[.` r.).XX(.).E.i.T.*XNX{.'..XT.].N.n.M././.E.M.M.gXgXlXlXXXS.C.@.+.c.S.n.! ! (.v.b   j  .}.x.c.x.x.w.{ _ ! /.}.(.}.OX[.!.N.4.x.q.4.4.x.x.w.M.M.m.N.N.t.q.a.b.x.i.N.b.w.w.b.x.` W _ >.Y W ( ~ W _ Q ` 4.q.e.q.f Y.5 1 g.JXCXY.g./.(.j.` c.%.` _ ~ ^ ` C.D.S.C.Z.C.Z.Z.C.B.B.Z.c.%.x.C.C.c.c.C.8XN M H ( V V A ( E v ) W W j.S 0 4.v A e.}.x.N.{.{.] a ",
"v.ZXGXS.e.u.,.v.t.<.y.Y.G.).}.OXOX).N.v.v.y.i.q.j.M.s.! w.q.! R.W.*.^ Q.S.=.H ` v.v.w.` @.M.M.} q.F j.w.^ ` W q.q.(.t.C _ }._.1 V 9Xm.F Y A x n.v.` +.) q.^ [.5.M.i.M.v.r.E..X[.m..X.Xm.P n.).}.lXxX.XlX[.[.{.E.M.M./.M.E.(.OX|.gXMXlXm.C.@.o.x.N.x.N.5.M.c.v   j $.lXb.b.c.b.4.q.v./.).(.(.}.`./.{.v.` x.n.q.{ q.n.q.t.N.M.S.n.q.t.q.t.b.v.e.n.i.m.b.{ ` _ _ _ A Y Y T u S u >._ ! ! >.p T.9 w ).CXCXT.E.E.(.c.&.&.C.+._ ~ ~ +.Z.C.c.Z.c.c.%.+.C.P P c.%.c.+.+.C.c.c.Z.B.^ @.o._ D ( Z _ e.C ~ ( ( D V :.W Y ^ e.^ g./..XxXQ y ",
"e.hXnXXXv.! 2.,.M.Y.i.y.M.U.b.v.XX.Xw.4.[.}./.i.r.v.p.! A S W } } } +.@.C.{.v.x.j.w.w.n.v.F _ F ( x x.x.w.v.a.2.! +.S 7.q..Xn.1 u D.A.v.i.D D q.5.P A ` w.i.XX[.[.k.E.M.4.q.(.S..Xk.N.N...XX.X(.OX|.gX>X XXX.X(./.i.y.E.XXgXlXXXgXcXxXS.c. ._ x.x.A.!.q.h.$X9.  l C.XX_ _ +.x.y.i.b.(.(.E.}..XE.G.}.S.b.w.n.N.N.n.q.q.t.t.u.S.b.v.b.b.v.n.i.q.q.x.i._ q._ Y ! R Y Y Z Y u e S e ! q.Y :.e.*Xe y XXBXNX)./.E.S.j.+.` +.` W W +.x.C.{ %.&.c.Z.+.c.x.x.+.J +.c.x.%.C.b.%.+.M m B._ F ) 3.q.2.w.H ^ ) ) V Z A A _ r.q.4.i.A ` m.w 9 ",
"~ L 9XXXM.w.m.w.M.U.q.t.v.N./.u.XX}.M.U..X(.i.j.n.n.J.q.Y :.t.e./ ~ b.Q.N.N.N.v.@.N.N _ w.E W H H F v.x.v.e.f.q.! >.Z f.F F t.4 Q S.dX) C S 1.>._ 5.g.G.4.'.XXK./.(.+.H H _ c.O.H 5.(.[.}.$XK.H.OX.X.X'.G.OX.X[.(.t.e.[.OXMXcXcXcXxX|.b.S.c.5.b.b.Q.y.q.lX;Xg.O j N..X_ _ ` ` N.S.b.b.Q.N..X.X).Y././.v._ x.N.N.w._ w.i.q.<.S.v.x.x._ E 2.<.<.q.q.w.q.5._ W >.Y S _ ! ! ! :.,.e.8.7.S E E =Xa f XXFX>X}.M.t.x.x.q.` +.^ ( ` C.C.C.c.c.c.Z.C.^ +.o.@.c...@.@.j.C.!.j.j...J m ^ H M ^ q./.6.W F ( T F W 5.A 4.x.E.4.t.e./.).*X: < ",
"k L qXgXw.w.N. Xm.e.v.u._ _././.'.i.w.M.M.G./.m.j.H.w.x.! A F +._ x.C.S.x.) @.x.$.S.w.{ N _ ` +.P k.E.^ A u.y.e.g W q.:.:.x.q.@ Q {.nXu.i C ` k.H /.v.n.( J.lXXXH.x.o.x.G t.z.O.3.#XD.A.;X X .l.(..XOXxXXXlXXX.XE.i./..XgXSXNXvXxXhXH.x.a.x.c.S.}./._ t.;XCX0.O % pXcX! _ x.x.S.S.b.v.w.n.v.e.e.Y.(.)./.v.m.i.e.! <.Q <.b._ 5.5.x.v.` Q 7.q.! e.t.q.t.t._ _ q.i i 2._ ! >.q.i.M.M.u.1.Q t.=Xp y gXZX-Xi.M.` b.4.~ o.+.~ ` $.B.c.Z.&.@.@.c.c.&.%.o...@.M M x.x.b.!.q._ @.^ ^ J M ^ W q._ <.>.C Z e Z Y 2.F ! i.N.( A W M.).;X:.$ ",
"l L kXXX+.e.e.[.m.q.t.n.v./.N.}.U.g.5.(.E.M.[.j.4.v.Z q._ H v.N.w.N.N.{.v.x.Q.x.c.b.x.{ _ P ^ M I V.C.P +.M.,.-.i W ] 7.7.r.'.1 0 (.dXU.! _ H.A.G H ( ^ F ` ;X-X/.N.(.x./.Y...b.&XxX;XO.m.K.K..X}.O...dXXX[.lXlX/.[.).XXBXZXxXXXXXsXH.J.e.v.b.x.{.{.3.7.-XCXe.O j XXcX4.w.e.S.!.S.b.q.q.n.N.] e.T./.}..X).m.N.w.w.:.S _ N.b.5.4.b.S.x.` _ w.w.t.F.i.t.b.{ _ N.` _ n.2.{ _ J.T.T././.q.,.e.-Xp 0 |.ZXxX).[.x.` _ ! T _ ! _ c.+._ c.M ..o.c.%.D.C.+.+.B.&.+.` %.c.Z.+.` &.+.^ m H ` ( ,.W S C A F A q V E q.M.w.` <.e :.4.M.$Xu % ",
"l L kX>Xi.v.w.n.t.9.w.t./.N.u.U.T.Y.N.'.).(.^ C q._ S Q Q 7./.m.t.n.i.`.N.j.N.x.b.%.W W T m H X.P o.C.C.[.5.:.! ! ! w._ e.e.T.1 w 2.G.u.( >.m.k.H G G H 5.y.,X Xk.}.}.O.A.XXx.i.w..XlX..S.S. X&X$Xj.K.OX'.).).=X$X(.[.(.lXBXlX{.S.XXsX`.y.b.` q.XXsXw.s.:X2X5.# x XXxXq.t.e.b.c.S.S.b.N.n.N.v.T.U.E..X`.M.M.Q.!.N.T w.n.b.x._ >._ b.b.c.b.( _ q.b.i._ x.x.w.b.x.+.x.q.{ ! g.0.g.E.(.y.g.e.).i 4  .nXlXXX[.c.x.W _ W ` _ _ ` ~ +.B.J ..+.C.B.B.+.+...o...P H ) B B.+.+.=.$.+...+.) A Q C A C A w.~ A C S ! M.5.C W A 4.E./.-Xe + ",
"n #.VXxXi.i.N.i.u.t.v.m.[.G.i.u.U.g.e.G./.M./.t.[ q.e.W W q.g.u.J.v.v.` ..+.N.v.b.x.F A ! 0 T ~ H F Y _ W.w.<.7.1.1.q.7.9.! g.3 3 i.XXU.( g.H O.` G 5.^ j././. XOXlXlX(.j.$X).(.x./.&XXXB.K.`.n.XX'..X;XXX$XH./.}.[.N.v.}.cXXXS.iXsXXXM.b.y.{.S.`.G.t.g.<X=X_ O % dXSXq.t.i.w.x.S.S.b.m.n.w.G.`.h.i.'.).M./.(.v.n.n.n.4.x.x.n.>.Y +.N.S.S.x.x.n.w.q.! n.i.q.N.b.! ! ! _ :.h.M.i.M.M.e.u.v.3.# 2 +.mXNXM.W.x.x.j.` c.x._ T D Z A c.F c.%.B.c.&.c.+.+.O.o.M H @.I $.&.B.=.B.B.H ..H c Q C A A T ( H V V S Q p.4.e.q.C i.N.(.A.: - ",
"R V.BXlXU.v.t.v.G.m.v.m./.w.v.i.G.M.M.).U.x.Q.w.>.q.5.5.H./.Y.3.M.N.[.( K w.m./.v.q.> Z Y Y _ H K W.M._ M.e.g t.q.f.g.u.t.E.'.1 f T.'.T.5.t.H #XF.P j.B F M.n.x.;X$XK.XX}. XH.XXF. X.XS.F.H.l.`..X*X>X<X;XOXXX[.(.).M.M./.XXN.S.dXsX{.H.y.y.XX{.sX/.u.u.<X<Xe.O x pXCXt.t.N.v.b.S.b.4.e.n.<.n.M.E./.M./.'._.U.v.t.4.w.w.w.! x._ :._ x.x.b.x.x.v.{ +.w.n.n.w.!.x.E Q ! -.4.#.j.M.}./.! t.x. Xq 5 [.nXZX/.M.` ` x.x.b.5.E E A H ^ +.o.c._ +.J B.Z.` o.$...B m m +.c.` &.C.=.@.A ( ( S S A A 4.W ( H 8 V C ( A 2.q.F ~ r.o.k.#.e w ",
"Q M.NX$X/.w._ `.).N.i.M.v.t.N..X`.N.y.M.M.j.b.x._ w.e.i.).&X}./.F.J.{.H.+.S.b.{.m.5., , A / +.x.x.B.c.M.v.<.t.y.v.M.J.e.e.(.'.1 1.#X,XU._ e.J.;Xk.^ w.) x.M.(./.OXOX.X'.M.N.P k.m.&X$X;X=Xi.) h.#X:X2X>X=XXX.X/././.n.b.v.x.x./.)./.)./.G.S..XiXsXsXe.s.=XCXt.O z 5.1Xg.t.n.n.[ b.x._ w.n.m.v.N.XX}.i.g.T.g.g.E.w.4.3.w._ _ { w.Q _ +.+.^ ` ` x.x.b.v.` w.N.S.5.! Y A ` _ ).w.i.M.h.i.4.n.-XQ # O.ZXvX/.v.` ` c.@.c.w.E E U T +._ _ _ +./ ^ m x ~ +.&./ ^ %.+.+.+.` o.%.%.` ) ( o.N c & E A m F c Z :.v ! Q ,.Q Z <.i.5.n.;X9 2 ",
"p e..XY.q.q.q.`.].G.v.N.i.h.N.`. XN.n.m.w.x.x.b.+.Q./.J.J.M.Q.S.N.N.`.N.N.{.N.v.m.v._ R / ^ _ / ` ` 5.M.v.w.i.0.i.i.t.q.e.E.'.3 f @X,Xg.-.q.a.K.N.q.5.w.M.c.P l.XXcXOX).).M.` H l.m.,XH.j.n./.#X#X#X*X.X=X;X'.}.m.x.l.@.S.!.m./.M.G.{.!.S.A.iXsX;XXX(.U.<X<Xt.O % ` CXi.q.w.n.w.v.n.4._ n.N.w.i.Y.T.(.h././.g.M.w.t.w.4._ _ ) x.>.w.x.+.F { +.N.D.x.q.2.n.b.N.x.N.N.N.B.w./.i.v.n.0.<.T M.;Xw # J tX#.w.w.{ ( x.b.x.x.W ` ` x.x._ _ _ ( / ~ ) _ F ^ ^ o.+.N _ ^  .( o.+.c._ _ ` ~ Z F b Y W c b j > S Y 7.6.! W a q.v.M.M.*Xw 6 ",
"p ! .X_.q.q.! y.i.h.t.G.N.`./.U.`.N.x.n.` _ w.N.x.|.{.m.H.v.N.Q.Q.N.v.N.Q.Q.h./._ _ ! _ H ^ ) R ` x.v.v.v.i.e.9.q.! 7.t.q.[.'.1 p J.CXT.8.0.q G t.-.A ) +.k...#.B.OXOXXXcXcXOX.X$XO.S.`.l.5.H.*X`.'.:X*X}.;X'.{.N.v.b.C.pXK.i..X(.{.[.D.S.{.jXjXlXsX(.J.<X>Xu.O z #.CXg.q.i.q.m.S.q.2.e.i.v.i.Q./.}..X[.XX}.g.0.q.t.` _ ! ~ 4._ ! 4.x.w._ _ v.b.A.x.4.t.F.n.w.n.N.S.n.+.N.M.g./.n./.w.,.M.#X1 2 n qX| x.` F ) b.!.@.j.` ` x.` A E ` T A ~ / ^ +.^ /  .^ ^ m +._ ~ W W _ C./ ^ / ^ T A V 0 A c & $ S V ,.Q ! > e Q q.M.w./.;Xy * ",
"a M.xX'.q.w._ v.t._ 4.u.N./.`.N.N.i._ Y >.b.x.x.v.[.Q.N.|.H.N.N.H.N.N.N.S.{.{.`.n.[ { w._ ` ! w.q.x.n.) E.i.e.e.0.y.t.q.t.M.u.1 f #X=X*Xf.g.! 4.3.C e ! A +.A.D.Z.B.N..XXXgX[..X;XK.k.=XG.`.,X#X#X<X1X*XXXlX/.M.H.c.c.+.c.i.n. X`.H.{.`.{.XX{.hXcXlXS.G.:X<Xg.* c =.2XU.i.t.t.w.e.q.n.G.(.{.N.Q.m.(.)._.)./.g.s.a.5.! T _ >.! ,.,.! w.5.` ` v.x.n.a.2.b.m.m.N.N.5.j.` F m.x.( g.i.H.e.Q y.'.2 @ N 4X#.+.n.v.S.D.!.b.c.+.x.x.F Z +.c.^ M A ~ N ^ ( @.^ ~ W ` _ _ _ W W _ _ ( F c +._ ( T Y ~ C 8 > u T _ T ! Y % V ! w.i.).xXf 3 ",
"! H.,XY.8.Q 4.v.q.R ,._ v.G.N.G.m.w._ E x c.B.V.b.Q.{.{.N.`.N.{.N. XK.W.n.m.`.c.n.b.v.) _ R Z } ~ H ( ` i.e.t.r.M.i.t.7.t./.T.1 f [.;XH.g.8.A c. .H F A D ^ @.#.z.#.O.c.#.|.[.[.lX XO.XX[.].=X#X#X:XG.G.=X*Xy./.y.x.c.x.^ G ;.j./.o.x.{.jXiXsXjXhXXXw.J.<X2XT.3 q. X2Xh.v.t.w.4.,.n.m.G.W.m.m.w.w.n.(.Y.)./.0.f.w._ ! ! / +.` 5.5.w.q.w._ +.c.m.2.q.q.n.v.m.S.v.+.A.b.^ n.` j.v.M.Z _ q.y.U.- * c #.#. .w.N.b.S.!.N.+.H x.C.+.` +.c.&.N W ( W ~ F +.+. .W _ o.` ^ _ ~ _ Y ` _ T _ W Y ~ A ^ , > x x T W Y Z T v Y _ ! t.E.>Xa 4 ",
"! D.lX/.Q Q 4.(.G.! _ q.t.u.n.u.` +.w._ x.B.x.Q.n.{.{.|.N.N..XXXQ.n.`.{.N.b.v.Q.{.{.v.v.[ ! W / _ +.+._ w.i.7.e.M.M.M.e.t.XXh.1 f iXvX$Xt.T P c.c.{.[.` H m.z.z.z.#.O.O.K.K. X[.N. X{.;XK./.*X#X=X-Xn.G.`.G.S.`.N.e.m.c.M G y.v.H.H P pXpXhXsXjXjXsXb.b.vXCXT.t 0.}.2Xv.<.w.v.t.t.t.t.i.G./.M.w.n.N.'.'.U.g.s.u.4._ _ T / x.n.w._ w.4.4.x.5.x.q.<.3.v.b.v.N.m.N.P x.{.x.w.M.M.N.x.w.g.g.W *Xt 2 5.rX..N v.Q.S.S.S.C.Z.+.c.A.T _ x.c._ ` +.~ ~ ~ ^ ^ `  .` / ` x.+._ +.^ ~ %.+.o._ b b ^ ~ D _ m x V S A Y j T W D ( ( e.v.XXf t ",
"W r.gX'.! Q Q u.n.W _ n.w.f.G.N.x.w._ _ x.&.N.{.x.!.pXdX{. XS.dX[.n.m.{.N.N.N.N.{.S.x.m.{ M =.x.v.e.5.+.W.E.7.7.e.w.i.e.W G.q.1 f sXvX;X) m I A.#...o...P K.z.8X8Xz.A.A.{.dXA.k. .XXgXz.k.l.*X=X*XH.`.].m.`.XX(.N.w.F.c.P j.{.H.@.x.k.iXiXiXsXjXjXhXS.N.BXCX'.t g.'.-X).N.u.N.{.N.t.m.Q.N.N.h.i.v.(.}.$Xg.8.g.e._ _ _ _ ! _ _ w.n.N.v.>.w.n.v.b.t.w.v.N.b.S.m.b.` 3.c.H w./.g.n.U.i.Z 8.:.`.s 5 P 8XL x.M.%.A.iXA.O.C.C.P m ~ Q j.v.n.+.+.+.~ ~ W ^ +. ./ ^ _ +.c. .^ +.+.c.+.^ Y x , v ~ +.l._ C S E W W Y S D W W E ! q._.w 4 ",
"u q.;X_.T W ] q.w.~ w.` q.t.N.N.w.w.Q.N.x.x.!.S.S.sXsX{.N.N.N.n.[.N.m.N.m.N.S.Q.N.m.v.N.C. .) w.x.M.i.m.c.F e.7.i.u.g.e.,.( 9.. t [.vX#Xe.4.` A.O...+.O.P A.z.z.z.V.0Xz.A.K.S.[.|.XX[. .O.l.'.'.'.`.k.) ) 3.}.}.U.F.a.e.a.n.A. XS.[.XXsXV.V.sXjXjXsX XOXZXSX#Xw i.$X=X`.`./.(.N.N.v.W.N.N.Q.N.i.,.u./.$Xs.1.u.e.! ! _ x.{ _ { _ 5.N.S.w.M.w._ w.4._ w.w.q.n.N.5._ +.c.H v.w.0.g.J.t.4.q.M.;X0 2 J 7X#.i.i.{ c.D.D.Z.c.C ..` ^ _ 5./.[.` ` ` ` o.X.+.$.c.`  .` c.+.T A +.o._ o.W D , A T o.c.q.! _ S D W D Y A T T E S ,.! T.w 1 ",
"w q.XX_.! q.q.t.w.{ ^ _ Q _ b.w._ ` N.m.x.m.Q.{.pXhXQ.N.N.i.y.w.i.`.G.v.N.Q.i.i.e.N.i.Q.!.x.e.e.e.r.e.i.` F x.e.e.e.q.u.9.e.d.. 4 H.NX'.g.q.) 5.P M.w.F ( g.n.k.O.#.c. .z.z.z.[.|.S.OXXXj.m.#X$X$X:Xz.t.D  .@Xh.h.h._.J.e.a.H.N.M.`.XXz.D.D.iXsXnXZX XXXCXGX#X4 y.lXCX/.E./.).N.v.v.N.v.N.N.n.x.u.M.u.).g.s.t.,.Q ! >._ ) x.` ! m.S.x.q.t.w.3.q.5.W ! 2.2.t.w.,.q.` x.j.w.M.t.f.y.u.g.t.U.<X< O n 7XD.` } ` c.C.x.D.D.j.c.F c q.t.M.v.4.3.o.O.^ ~  .+.( ~ ( +.+.W Y , _ _ W A e C S b A S 4._ > c >.W Q Y ~ T c _ W D Z <.T.w 3 ",
"f v.lX_.! W ] w.v.n.w.W Y q.x.x.+.) n.w.) ` n.N.{.Q.N.m.n.K.N.m.m.m.i.S.N.{.G.7.n.Q.v.m.w.x.v.[.v.c.n.t.g.u.e.t.g.! 7.M.M.i.U.@ 2 ).vX:Xa.H l.O.C M.F H i.g.i._.G.o.5.P B.z.k.l. .P c.(.'..X,X=X)._.;XT.Y.5.'.T.g.g.+Xg.u.4.e.v._ c.z.#.V.D.sXhXSXZX.XXXNXSX#Xw M.xXCX)./.i.i.i.E.[.N.w.x.v.n.w.N.'.U.g.i.u.t.4.,.! ! w.x.` ` { v.b.a.q.w.q.4.E T W _ ! ! b.w.<.w.b.w.` v.M.J./.4.2./.y.(.CX= O n qXV.v.w.e.x.F.C.D.C.c.+.m m q.e.u.v.` _ ` ^ ~ ~ ^ ( Y ~ 3.0 W ~ ^ S Y D Y Y , S E S Y T _ 4.e v E >.E E _ ~ c T A T A ! Y.w 1 ",
"2.M.#./.4.4.q.t._ ( q.,.u ! _ ` +.` 5._ m F F.m.N.{.{.m.w.v.b.N.i.N.x.b.{.{.v.w.S.b.!.b.F H v.c.v.N.$.n.r.g.q.u.i.t.M.v.M.XX'.@ 7  XZXlXf.h.P P (.M.c V v.H.5.F H H ` ` j.k.l.l.5.o.H ) /./.`.'.).}.=X`._.U./.XXT.J.&Xf.+XF.q.q.b.N.{.D.D.{.lXNXZXBXXXgXZXSX#Xt [.BXZX).).N.q.u.M./.W.v.b.w.w.v.w.u.u.9.i.t.q.4._ q._ ! _ ` +.x.w.v.q.n.a.w.w.2._ ` >.S >.4.q.w.b.x._ _ e.q.e.i.g.n.`.XX/.1Xy O n fXV././.C c.m.c.H ) +.q.q.7 :.9.i.w.! ` +.c.c.+.W ( T ~ +.W E S A Y D T W Y c : Q 2 V W W W _ W Y T , V T v Z D T ~ ! V ) : * ",
",.m.dXM.F W <.w.T v _ t.Y E :.! _ , Y ~ -.4.w.H 5.x.{.S.v.` N.`.5.i.F.` N.N.S.c.v._ I  .b.w.w.u ! o.) x.w.j._ q.` e.w.W (  X3.2 7.lXvXXXq./.`.G.v.e.C D t.e.M._ F G T T T m.k.n.n.k.O.H .X`././.U.G.).}.u./.}.XXK.N.(.J.e.q._ ` e.N.iX[.(.XX;XlXNXcX.X).NXCX'.6 N.vXSX}.).v.q.q.e.i.i.x.n.w.w.N.y.M.g.7.t.:.2._ A ! w.n.w.w.n.w.n.w.4.q._ w.5._ _ n.m.4.:.>.2.7.+.^ _ ! g.v.M.(.N.g.Y.).U.<X7 O l qXV.N.A D  . X_ ~ b.c.b.M.i.i.i.q.! S ( ` ` +.` ( ~ T ~ _ ( V Y W Y Y A F ` Z E >.E D e S W ( T ^ ~ x Y ~ x C W A ( v.! j.2 . ",
"Z v.cXm.A ( ~ w._ ! Q q._ W E Q R v x A Y >.Y S w.N.m.S.x.5.F.n.i.l.x.x.B.b.S.c.5.5.^ T >._ ( V A n.q.r.q._ M.q.e.e.y.7.! [.h.5 <.jXFXlXh.M.E.G.<.8.g.g.s.u.i.J.<.u.S w.C ) k.k.z.z.S.j.l._.M.t.G.M./.G.`.)./.S.[.}.}./.7.t.t.e.N.!.gX*Xh._.*X;XNXxX'.'.lXCXY.3 w.lXZX(.M.4.,.7.t.i.M.t.m.n.v.N.M.E./.e.] a t.q.! R _ v.4.q.w.n.m.n.! _ q.w.t._ x.i.n.! Q <.2.q.v.w.q.y.e.4._ oXN.(.`.`.n.lX9 + n qXXXw.^ +.N.[.C.C.N.c._ _ q.v.y.` W A ( ( +.c.4.( ~ ~ ` +.^ x 0 A W A A ~ 4._ 4.W Y u S E Y c ~ ` _ Y W ~ ~ ~ A 0 >.g.1._.3 . ",
"Z n.gXm.x W _ x.H x T ! _ E Y W c A v Y A , , T _ x.S.b.w.w.<.4.J.N.x.N.{.m.S.v._ _ n.7.:.:.H C u Q i.e.W W i.i.g.t.e.y.u.lX#X5 g xXSX*XM.G.e.i.f.a.g.S 7 v.M.h.g.t.f.e.u.) k.z.B.z.z.j.J._.G t.M.T.f.J.M.i.y.N.XXS.}.J.g.7.E._.*X>X=X}.`.'._.-XCX;X$X}.>XCXT.3 9.BXBXr.v.5.T Q 7.e.i.q.q.w.i.m.N.M.e.e.8.7.t.M.t.f >.t.x.w.! w.n.t.4.,.t.:.E w.v.q.7.E E e.2.4.w.w.T q.M.4.v.cXS.k.*X[.N.<Xp + L mXlXP c.k.E.N.k.c.c.c.( ( _ T D ~ N A ~ ( ` ` ( _ W v T +.c._ W C T A W A D j.( Y v Z A ~ ~ n _ W ~ A A b v ~ C V W ! >._.5 @ ",
"W v.cXD.` ( _ ^ P H ` ! w.T T :.q Z Y _ _ , 7 , A W W R { ( >.>.;.K.n.x.k.v.v.N.4.>.x.F :.E c v q.e.q.:.A 2.E G.j.m v.M.x.gX}.5 g vXCXT.u.e.q.(.J.f.s.t.! x.x.g.M.y.y.4.g..Xk.#.$.gXN.F y.g.l./.M.J./.y.f.+Xi.H.W.m.w.f.g.e.M..X>X>X=XXX).y.[.j.k.z.}..XvX2XT.3 6.XXvXq._ _ E W u Q e.q.4.q.w.v.W.(.e.e.i.e.t.q.Q 2.t.i.n.w._ _ q.n.t.4.q.<.w.x.<._ ,.2.e.v.i._ ( n.y.q.5.k.H.lXA.N.XX4.W :X:.$ L PXSXF H m.[.S.+.` m +.4.W ( E W ( T ` T W ( _ T S Y e A ` c.+.m c % A ~ A T 4.W Z , A A _ ` m A W v ~ T v k ^ ~ A C v V y.2 1 ",
"C n.vX(.q.5.m.x.M ^ _ _ { ! T t.9.:.S m ,.Y 8 x _ v b T ! ! 3.q.3.v.5.) I o.) w.^ Y _ A V > F Y 3.e.t.q.u.t.D D q.A e.M.x.sX).y q.vXZX;Xu.e.M.[.v.f.p.t.n.(./.a.i.W M.M.g./.lXXXlXlXH.@X5.g.M.f.f.3.G.a.T.#XM.F ^ x.<.5.v.E./.lXxXNXvXvXXX4.-XH..X}./.).,X;XY.5 6.XXZXn.w.x._ w._ w.m.g.u.t.M.M.v.(.n.q.M.i.7.7.:.:.e.w.E t.w.w.>.i.n.4.q.( x.w.t.q.q.t.f.2.u.4.y./.i.M.n.G c.gXK.S.S.G t.>X> & 3XPXsXo.M k.k.^ ~ ` ` +.>._ _ +.` ~ D T ~ D T A Y D _ Y v @.c.+.A Y S F W ~ _ Y Y S e 0 A W o./ D W v ~ ~ _ T ! m Z C q 8 ( * . ",
"> ..gXu.! _ ! ` _ _ Y A Y a t.).M.m W w.w.T x m ` T A A >.( F 3.Z ( v.` @.#.o.` ^ W F c v > c ~ ~ 7.f 1.e.u.F e._ A 7.e.e.XX'.t ! BXZX.X5.q.w.[.q.i.0.2.v.H. XK. Xu.3.5.f.M.XXgXz.o.G.J.w.q.<.E q.t.g.f.g.a.v.w.x.j._ e.M.M.G.xXlX1XCXlXXX[.XXlX1X;Xh.h.'.$XT.1 6.cXZXw.W.n.! W n.m.m.N.M.t.e.t.2.q.r.e.e.e.q.,.1.7.i.u._ ! q.q.w.N.w._ ( H _ q.w.q.F.M.0.,.g.9.g.g.M.v.^ F M.[./.( H 4.u.XX7 + L fXqX+.^ H m ` _ _ +.k.c.C.c._ T T / ^ ` W v 0 Y ` _ ~ x ^ +.~ E T >.D , v ~ V Z Y S Z D W W ~ F W Y ~ _ e.,.e.C W T W A ` O   ",
"F ^ gXv.~ A , ^ H ~ T A A E e.(.e.+._ _ +.x.x A ` ~ q i Y 4.w.Y Y 3.b.^ H ..v.) ^ ^ v V 8 A ! >.A Y e 8.8.6.g q.W 4.u.M.E.lX`.3 ! vXHX;X/.M.r./.8.g.i.e.i./.&XK.H.g.2.@X( 5.gX{.O. .` ).`.M.( >.g.t.g.g.g.,.v.M.e.r.7.q.i.g.*XxXCX>XxX;X).j.U.*X:X-X'.t.`.'.g.1 1.cXZXM.w.n.M.` q.j.x.N.E.9.q.! 7.e.M.i.v.e.t.,.9.t.g.,.w.q.,.t.n.N.P H  .H E q.<.<.g.g.0.g.<.:.p.:.8.H ` M.w.( /.G _ u.W o.: : I z.D.c.@.W W ` ! +.c.4.w.c.` ~ E E ) _ ~ A S ( _ H c _ ` ` _ T ( >.D S V q D S E _ x V Y A S v T ~ +. .N.M.A _ A A A C H k.& @ ",
"a.w.S.w.A j T x.^ ~ ~ ~ +.x.x.5.x.x.o.) ^ ) x v T C i ,.+._ W ~ ! v.N.n._ ` b.) ^  .) T W j 0 3.T ! ` 7.:.Q u Q W i.g.W N.rX .+ z tXtX=Xt.i.i.}._.G.A +.<.Y.#X`.h.y.g.t.^ m..XXX;Xy.x.).T.g.! J.h.t.g.h.u.q.j.i.i.e.] ! <.E.OXvXvX>XNX;X$X'.).'.=XCXU.t.}.:XY.1 g `.vXv.w.q.v.w.q.b._ (.q.9.q._ e.:.<.q.! Y t.g.y.8.W H w.t.w.N.m.w.H H o...W 9.s.g.g.g.h.7.t.q.8.Q 6.A M.x.H j.[.m.5.m.( n.> & J lXiX+.T _ ` w.` w.n.4.` ` 4.W E _ +.( F ^ T T ~ ~ c A x ` _ _ _ ! Q :.>.F W W Y E S Y Y % > Y m H +.o.( j.5.j.` v c D M.`.w 5 ",
",.+.lXr., & 8 _ 3._ T ~ C.!.b.q.4.w.` x.` ! Z Z Y +.<.t._ :.! ! <.W q.w.! ` m.w.H ^ ^ k v W A A H w.! > S S ! >.Q q.7.W ^ 8X .$ n qX5X[.v.M.(.).M.n.( v.H b.`.O.#.S./.F H  ...A.A..X).M.&X/._./.M.v.i.T.t.u.M.v.v.e.! q.! q.).NX1X;XlXlX;XXX;X=X=X$Xi.M.-X-XY.* ,.M.lXv.+.w.e.,.q.w.t./.( ) q.7.2.u ] T ( D 7.( S F A.l.M.m._ q.n.w._ c  .P A 2.t.g.g.g.i.t.u.M.t.u.t.q.+.H H b.n.<.A x.x./.0 & | JXsX) T +.+.4._ x.w.4.` +._ ( ( +.+.~ ` F A ~ ^ T W x c ! 4.4._ _ ( w.3.A Y D Y A 0 8 0 Z 8 Y m P ` _ x q.q.w.` c <.q.D ( 7 3 ",
"> N gXt.0 7 i N.w.a.2.~ Q.!.N.M.w.i.v.5.E 8 D > T +.S.S.T i ! ] ! >.! _ Y A ^ +.` / / A T ! 4.Y W 5._ x c x 5.w.A ! e.e._ 9Xx.+ j rXfXXX8.e.S.;Xw.v.e.e.F j.m..XxXcX.XO.l.[.XX#.O.K.;.H..X;X$X`.M.M.Y.M.g.M.[.S.y.e.q.q.t.i.u.xX>XXX!.dXXX[.OX).=X$Xi.q.XX-Xs.. a y.XXv.` r.r.q.w.e.(._.E.4._ Q ,.<.q.>.W 4.e.A C F  .H./.v.F e.n._ q.q.m.o.` [ ,.0.h.t.t.! <.v.t.w.q.` P H ^ ` q.q.4.u.U..X, $ L mXiX@.+.+._ A >._ ` c.D.D.c.( +.@.+.+.@.o.~ o. .A e T +.~ _ _ W W _ x.` W W W v r V 0 v S v b +.H ^ _ x.v.i.4.7.t.>.x x >.= 1 ",
"$ > m.g.>.Y R m A Y ^ ` +.x.C.{.#.P v.! c Z Y e A W v.w.4.! ! S R w._ 4.` _ ` F x.+._ x.o.( ! Y Z T Y T Z W _ Y 8 x.i.t.E.xXF O % 4XmX;X8.q.b.XXi.C.w.q.i.t./.=XOXk..Xc...@Xo.O.A.A.z.[.m.;X.XM.i.G.g.i.i./..X(.M.i.e.7.u.g.x.XX;X!.S.B.) m.}.M.'.XXh.q.#X;X0.. e c.XX<._ q.5.q.w.w.M.t.D t.7.T e.7.:.t.q.i.y.C C F H  .) e.g.t.T T Q w.N.Q.N._ Q ,.! >.,.3.q.w.q.<.q.F j.b.` ! 2.w.q.T.$Xz.v = L tXdX{.+.T _ Z ! w.n.D.eXc.c.A.&.+.+.+. .U / $.$.^ W A ^ Y T _ 4._ W ` ` _ _ _ Z Y D Y Y T A x H ^ +.^ +.4._ q.:.,.e q > A @   ",
"% c {._ 0 V v k c e A ) +.+.&.k.c.) 5.W ^ N v w e _ 5.>.W _ t.<.:._ W Z >.w._ A +.o.F k m F c _ / ~ T ! u u Z C Y T W v.).sX5.O % 4XFX$X7.! n.v.x.v.b.e.i.M.#X).).;X(.M.J.n.+.I k.k.G./.F. X}.M.y.i.M.t.g.XXM.M.v.v.v.e.q._ w.M..X|.m.c.+.` c.h.}./.r.w.).=XU.1 f S.$X! _ _ _ e.v.v.w.t.A _ ! _ +.E e 6.i.w.w.y.A F D F C Z g.E e S 7.w.[.5.Q.n.q.! E ,.7.<.<.q.4.<.<.<.5.4.v.w.E <.t.J.5.D.Y $ L kX8X` ` >.>.w.w.+.c.%.+.c.M ....+.+.+. .N ^ +.+.+.^ T _ Y ! q.,.Y E _ +.5._ W Y Y W , E ( ~ T ^ ^ ` ` x.%.` 4.e ,.1.e x b O   ",
"% B dX( x v , , T _ ` ` +.&.` @.H ^ _ C C ~ W u q E ! ,.E D ,.D u ) Y S 0 ) / , Y c F c c A H ` ~ W Q S u Y Y 9 u ! q.E.M.;XT.= j V.HXXXE q.N.[.j.q.e.s.G.a.F.l.m.(.M.e.3.5.^ w.( H.J.E.(.[.M.M.M.7.q.q.6.g.5.5.5.v.M.M.i.v./.}.'.E.N.&./ ^ ` ^ ( w._ _ 5.;X0.1 0 5.o.V T _ >.' e.v.r.7.>._ 5._ ! 7.6.:.7.Z A ( r.H w.D W q.e.W > _ 5.N.{.H n.n.S.b.:.! q.<.2.t.q.2.:.q.w._ 4.! <.q.g.x.O.0XZ $ L fX{.i.u.q.q.4._ 4.c.C.c.C.^ o.@._ ^ ` ^ m ` +.^ _ ~ _ _ _ n.e.e._ W _ 5.5.W W W S S u S T ~ ( +.+.+.+.) _ _ >.q ,.2.& S t.O   ",
"% n z.B A > > _  ._ ` { P b F { _ ` _ v Y Y u Z Y _ _ _ W S e Z W ! W Z E :., u ~ / c c x E c ^ A w.! Z S Y S q e Y ! e.s.).h.@ > 8XtX(.q.M.q./.e.! x.y.J.V G f.5.e.J.f.A A S 1.q.7.e.i.e.S.N.e.,.7.7.q.7.2.q.x.E.M.e.w.g.e.v./.i.v.(.+.A C Z Z.Z.T T ^ (  X,.. f XXU.p ! ! ! s.q.e.e.q.5.e.5.t.,.W 4.! E W F A T F ( w.` e.q.e.7.q.(.N.v.m w._ q.v.! >.2.q.<.q.F.y.l.! ` _ E 8 t.6.<.F ) 8XE $ L wX0Xw.>.E E e.4.! +.c.c.c.+.c.n.~ m ~ H m +.` ~ T ( W Y Y w.M.v.4.` W 4.5._ ( Y S E W ! o.x.) H +.o._ ( ( ( <.f f g q Z t.w   ",
"j m D.F x > k.fX X`.E +.+.F v Y _ Y ~ A Q :.> 0 T _ 4.>.R >.x W >.S S u Y Q Q T ~ v N N c Q W n.! ! T Y ! Q n. X).E w 4.q.XXT.2 0 Z.ZXN.w.q.$XJXHXn.:.(.y.( 5.a.5.s.g.p.S >.a.p.a.t.p.w.w.w.q.i.Q 6.y.g.t.,.t.v.v.r.e.r.e.e.q.v.(./.Y.x._ Y {.nXjXsX0 A ( x.,.1 :.#X,X9.e.e.<XHXCX#Xi _ t.Q q q._ Z 2.v Y W C C ) ( S F ) A A g.e./.W.` _ ( ` q.,.` ` x.x.q.a.q.2.2.w.! _ x.;X;XlX`.e b _ rXu O L 7XL ` :.v.lX&XlXw._ x.B.c.` w.v.E & > N ~ ~ ~ _ ) +._ _ ~ R Q e.w.<.W R Q _ W Y S >.q.e.( ^ _ +.^ _ ( W ` lXx.J.s.9 > q 4.@   ",
"% A dXc j Z S.= :  XQ W +. .S A v > x V S S % x C 9 ,.W u , Y ~ T _ ! T ~ w.w.! ` _ H A c ! _ w._ T Z u >.b.xX3 7 O.i q Y [._.t 6.0X0Xm.n.n.JX6.:.&Xg.q.N.g.v.H.M.q.M.M.3.g._ G D W i.v.i.v.i.W.M.i.i./.M.t.g.f.E.E.i.M.e.t.t.}.(.(.v.b.( _ hX7 Z GXE v n./.8.. f /.*X1.! +XCXf ,.=Xp >.7.q.2.1.w.x._ A V x -.A W ` D ( ( ) F D }.[.4.v.w._ w._ 5.x.v.b.b.n.q.w._ _ Q ` _ (.K.w 2.CX,.T ` XX0 $ L 5XJ _ <.CX#X9 Q  XY w.c.+.( 4.n._ c m C A _ +.+.+.c.` _ x A E ` c Y S R _ _ ! Y 1.6.,.2.w. .o.+.T _ W W /.e.* >.#X7 v > W o   ",
"$ c iXc + S A.u Z lXY W +.x.5._ Z > > F ( 0 C _ <.& ; 8 8 ,.w.4.! q.w._ R q._ u R Y _ H ! Y T ` ` ^ T S 0 M.`.3 i xXp 9 Z A.Y.= x L qX`.v.h.LX2.A A.h.q.W.j.M.j.}.G.).OX/.a.G 3._.@X/./.[.}.[.OX;X;X}.OX.X`.T.@XXXOX(.(.(.g.).OX;XXX(.c.+.w.dX~ V.PXY x S..X0.. 0 H lXq.f.#X<Xd 1.<Xg Y 2.t.[ x.! q._ 0 C ( Q 0 e C F ( ) ) G (.N.w._ w.n.W _ 5.n.w.v.N.v.m.q.4.v.x.+.` ` /..Xu t.ZX8._ ` {.x & L 5X4XP 7..X,XQ N.xXu ` c.&.@.+.v.` c H T A ^ _ c.x.c.%.W Y ( _ ` ` v Y _ 5._ q.:.7.6.:.g t.A F ! Q _ T W T.e 7 7.^ - : > N O   ",
"% k dX` ^ , q.lX#.y.- x c x F c.N v & C c.j._ _ >.c T >.D ` V _ Y Y ,.Q Q 2.,.Q ! 4._ / u q > > R ~ Y Z 0 i /.`.;X/.* Y Y (.7.O $ ..qXj.n.7.NXcXHX9X< _ [.j.}.[.XXE.M..Xg.p.>.3.F &X/.M.lXc.Z.;XxXlXOXXXM./.).[.M.x.(.W.(.i..X.X*X}._.@.@.~ S.jXFX{.= ~ u.[.W . u F XX] 7.f.<X=X=X#Xt ,.q.e.q.<.>.,.T C W t.f : q T W ) ) ^ ) n.v.w.` c c.v.w.4.w.w.n.S.m.y.n.n.a.w.w.5.x.q.XXlXvXi.:.n.c.6Xx & L 5X| b.c.w.ZXZXFXG.4.C.D.B.H ) ^ ( A ~ / Z A ( c.x.` ` W ( A W ~ _ F v ^ x.q.q.e.t.i.1.:.,.q.E S ! _ _ ! E /.n. X9 + & 0 T     ",
"k  .z.Z W A = y 0 9 v ~ 0 O 9 0 A > & x c t.q._ W k _ <.c T A C W >.W 0 >.,.>.Y R ! S 8 v > Z Y Y 0 u A A w - Q p * , Y w q.d.  $ I sXj.4.4.s.t.,.w - ! A F M.(.M.e.q.F T 8.-.E x 8.a.E e.w.x.v.r./.M.t.q.6.e.w.v.e.e.r.v.7.q.i.i.e._ ^ +.^ 0 Y Y : b V q [.D 1 f m..XT ' u.p.8.g 3 f <.e.q.q.6.W V > C e.8.A S D 4.>.( ) F ( w.w.[ _ Y W.W.v.P m N n.w.w._ n.x.v.t.w.4._ _ _ 2.i 9 _ b.|...j $ L 7X..M.O.^ 9.g.1.<.c.c.B.@.H x.H T v c ^ Z / +.&.c.+.~ ^ +.` { w.x.%._ v.[.i._ M.a.i.t.7.,.9.% x ,.W ! A w 0 8 2 : j j x / o   ",
"n J O.T T ` ~ F v  .+.! Z , e : v ~ x j x ~ ) c x m x._ c x A v v Y >.Z E ! >.T A ) _ Z A Y A _ Q e A S R :.E , e , 0 ( >.M.g.  $ J 4Xx.5.5.+.u i ! Y W _ e.e.M.v.t.y.F n.u.2.2.p.1.D Z [ e.M.M.e.e.M.Q 2.a ] e.x.i.x.v.C.v.i.e.i.M.^ ^ ^ ^ ^ ^ ^ o.v Y W lXt.. w [.lXQ t.>.8.:.d a ,.<.4.! q.,.S V T e Y q.M.g.F 5.o.4.H F w.v.N.v.4.>.M.[.O.o.n.^ 5.W q.3.v.m.v.x.q.>.>.) _ D ` j.%.(..X#.z $ L 7XV.x.^ F ) W e.c.c.w...P  .v.W ~ j > , Z +.@.N F W T o.` ^ v.x.@.+.w.M.)./.i.N.w.u.u.g.u.<.:.T >.! W ~ 5.Q > 0 ~ ~ k j B + O ",
"m n $.e.e.4., v b c W _ q.e.,.v A W F D _ ) ( ~ F B ` x.m.B T A _ Y f W T e.! F ^ _ >._ / ~ Y [ _ Z [ 4.q.Q E :.4.` [ q.v.A.>.O % J qXB.o.4.b.=.C.%./.v.W.M.u.).E.(.E.e.n.G.f.+Xu.t.g.J.G.i.i./.E.r.M.M.i.t.[ } +.v.c.c.M.c.(.u.M.M.w.~ ~ ( %.x.n.e.! :.U.XXg.. 0 N.xXt.q.,.2.! f g :.,.q.] q.Q 7.<.Q 2.W F g.e.( 4.( q.) H 5.A ` j.j.N..XXXN.N.v.n.i./.w.w.n.v.n.Y Q Q C x W _ +.w.w.e.N.4X% & 3X7X4XB ^ M m P m.x.$.v.5.P I k.A Y T v 8 , T _ ^ m _ _ +.` ` c.+.x.x.w.<.W q.3.4.e.g.0.t.t.W ! ^ ~ E x ~ w.( ~ Y v ~ v $ n o o ",
"J 3XtX..;XXXT.n.w.$.k.T.`.*X;XlX=XF H Z.+.P o.B.V...y.g./.#.n.t.(.).w.w.m.OXN.A.iX(.i.E.` ` _ v.e.>.:.<.t.! >.e.M.g.u.q.! (.~ O $ J tX=.L k.N.i.b.v.{.W.5./.;X2XxXCX$X}.*X`.<X:X,X+X@X_.,X*X-XlXcXXXOX;XlX*X`..X;XxXcXvXxXxXxX;X;X*X>X>X;X*X;X;XXX>X;X*X;XXX0.X w v.xXv.M.e.] <.6.:.6.9.q.q.u.q.u.e.> C q.i./.N.) J m c +.N.M. . X.Xz.4XsXrXOXW. .&.` /.M.[.(.` M._ _ q.V C <.4.w.w.i.%.qXhXz & L 7XL J J J I #.{.A.D.XX X{.dX=.^ c c v , v S ` +.v.v.x.x.x.x.Q.Q.w.Q.N.c.C.U.N.4.<.e.u.M.x.! ,.) n ^ n ~ _ ^  .o.G v v B n + O ",
"L J k T U.U.U.g.e.i.t.7.u.g.U.T.u.2.W _ _ _ >.W <.Y.9.q.i.T.g.i.<._ _ F (  ._ w._ ` w.Y.Y.Y.Y.T.Y.4.Y.J.U.g.T.*Xh.#X$Xw.5.x.^ O $ L #._ +.J +.) ^ ^ ` x.l z j.#X'.Y.+XY.#Xg.#Xh.+Xg.0.Y.#X#X#X=XT.Y.g.T.T.0.g.g.Y.'.$X'.$X'.T.0.g.U.T.'.'.g.g.Y.U.Y.T.g.U.t.s.. w f.T.i.E.'.T.'.Y.T.%X'.T.'.( ) ( #X'.'.T.( F m H l.n.m P o.o.`.P A.gX#.Z.=.N.x./.v.^ h.'.#XJ.U.e.q.u.u.Y ( c v Y ! 6.<.i.J M $ L L n M n ^ ^ P +.S.l.#X2XH.5.5.` c A ( c 4.w.M./.M.m ^ v.w.+.b.x.( x.v.@.H.'.:Xu.'.Y.#XU.e.( u./.^ n.@.b.m.B n ..+.^ ( N n % O ",
"n +   - 1 * - 4 = = = 1 3 1 * 3 1 = = *     o * O O O o O O *       O O O O O O O O O O O @ # O @   * @ @ *   * * = O O + O + $ j z o O O O O O O # O       @ 1 1 1 2 6 @ 2 1 1 1 1 1 1 3 1 3 3 1 1 1 1 * . 1 1 1 4 4 3 1 1 1 1 1 4 3 1 1 1 3 1 1 1 . . .   @ . Y 0 * 3 3 t 4 3 1 1 3 X 1 3 4 # @ 5 4 6 - # + + + # # # # O & # O O % ; v j > & & # = - : = * = # * O @ @ O     O O 5 3 - $ $ j z $ $ $ + + & : w f y d 9.p 9 - = O @ O O * 7 = # + + + + o + + + + + o + 7 e y f w 6 1   o O * 2 # w 7 7 7 $ + & $ + + + $ % % ",
"z k :.7.e 0 ! ! n k k W x.>.e f > % $ % j $ $ $ j k l j % k l l n l l n N l n n l n n n n n n l j % k l j j % % + + % $ % $ % l z z % z % $ % & + ; & $ > C $ > a.7.w.v.+.C.Q 1.q.>.p Q 6.a ( ( ` _ _ ! u y 0 ~ / q.] W :.{ ` f f _ ` :.e g ,.:.a f y y 4 , , - Y / ~ _ Q f q.e.f T / ( _ f %._ ! ` +.~ _ z v > z j m z k j c J n L 4X#.L L L L L J n n n n J n j l l l j j $ % j j x v % j J J n % % j n j Z i.y.t.e.M.v.i.r.7.n % % n A :.Q Y n l l l l k j l l j l $ $ u W v.v.x.+.o.l n n J n J n J n n n J z k $ % j j j $ ",
"% | VX$.#.iXgX4XL ..B 8XlX).}.v.H c c l l l b n P =.qXV.I 6XqXhXrX=.!.8X4X#.J 6XhX0XrXeX4XeX0X=.S.Z.4X5X6XV.#.V.O.#.6XqX6XqXtXB j 5X5X5X3X#.#.3X . .D.D.{.oXXX!.cXVXcXsXfXVXVXlXMXBXAXAXMX[.Q.Q.sX|.AXSXMXMXMXuXVXFXFXVXAXSXVX}.XXOX/.M.f.}.OXXX|.oXgXOXOXVXgX- 0 fXuXMXMXBXNXBX.XoXyXyXSXMXMX[.gX.XVXAXVXsXcX{.{...4XiXiXsXmXnXDXDXkXDXDXDXGXmXkXjXjXsXpXfXtXqXqXqX7X3X3XL B #.J J #.L I n L n 3X3XL L 3X!.;XZXGXZXcXSXnXZXVXK.fXZ.0XVXnXgX.X XxX#.0X=.tX$.B.pX0Xb.sXc.K O.pXlXjXVXAXtXkXnXXXpXL 3X4X3X3XL L 3X3X6XK 3XL 5X% O ",
"% ..DX8X9X9XBXrXeXV.|.sXvX-XlXN.N.N./.@._ P A.+.c.iXjX X{.GXGXnXhXhXjXkXmXiX#.4XnXnXBXVXnXVXVXjXeXhXhXpXsXsX;XsXsXvXVXFXGXFXtX% j 3X7X5X5X4X5XgXXX'.>X>XcXiX}.{.cXSXZXZXGXLXvXxXvXlXBXVXvXOXNXBXgXvXBXxXOX-XZXGXLXGXSXFXsXfXSXCXBXCXNX:X=X<XBXNXvXBXZXZXBXFX.X* 0 sXFXSXBXFXZXCX=X:XNXNXNXlXNXlXcXcXVXsXcXsX0XD.8X0XkXtXD.fXkXqXwXwX7X7XwXDXKXkXkXkXDXDXGXVXVXDXDXkXkXtXqXqX6X6X8X6X4X=.4X4XL k J 7X4X6XVXBXSXUXPXJXBXGXFXnXPXSXFXD.qXGXAXBX>Xz.ZXvX9XFXVXvXvXsXlX[.jXXXiX8XNXvXqXGXPXfXSXjX0XD.hXjX8XrXCXsX6XqXVXrXsXqX#.L + o ",
"> O.nXz.) A j.~ B B ~ -.q.v.( Y q.:.~ ^ / m ~ Y / ` N.x.x.C.$.$.=.$. .+.&.b.N.%.@.+.$.C.V.&.+.O.X./ ^ ....+._ ~ ` +.@.&.Q.[.6X$ z 4XtXA._ Y ] e.w._ <.E _ _ E W _ M.i..XoXgXM./.g.M./.r.n.Q M.r.2.N.M.} } 7.u.).oXgX(.}.).^.~.e.8.U.).! ,.i.m.) W M.w.E.q.b.M.. 4 eXAXrXL.R.e.u.q.e.i.t.t.` C.q.%.M.Q.Z.v.Q.+._ ) +.V.b.Z.fXV.V.wXwXqXqXtXkXkXfX4X4XtX0XeXeXZ.A.VXnXjX0XS.6X .^ =.T / =.J J n k L 5Xb.N.OXoXM. XXX/./.gXxXK.MXW.dX/.j.OX(.4.,.4.!.N.m.OXxX).v.#.w.+.B._ <.e w..XS.|.cX0XOXO.T E @.&.=.b.M.v.P | ..^ ^ H H B + o ",
"x O.vXj.` N ~ ~ T ` F Z W w.( A i e ~ ~ ` ^ T Y _ _ c.x._  .X.!.P.$.+.C.C.B.@.&.&.+.$.$.C.V.$...o.X.+.B.O.@.J _ ( +.@./ +.XXeX$ z 3XfXq.>.! e._ _ { 4.( ( ( ` +.D n.y.[.Q.|.M.}.i./.g.M.! Q q.x.E.M.q.E.b.q.M..XoXgX|.~.|.^.!.(.7.u [.i.) M.m.W.e.+.H q._ q.w.. t.VXGXoXR.R.I.' :.E.i.6.q.Y / e.v.u.! x.x.C.^ Y ^ T @.` +.Z.^ @.4X#.#.#.tXtXeXZ.V.=.@.o.=.&.O.c.C.VXpXN.v.&.~ Y ^ v ~ +.B #.n k J 5X@.Q.OXOX/.i.}._.Y.|.pX.XgX .6Xo.H {.|.<.q.t.O.@..XgXOXi.M.[.o.` !.4.V E ^ D.V.$.8XMXcXXXM.Y ^ N ^ S.` q.` H P ~ m B +.J + = ",
", @.cXe.^ j x +.|.v._ T A ~ ` ` Y , W ^ , ~ ~ Z Y u { v._ V.S.Z.=.@.X.$.&.C.=.=.Z.Z.8XZ.=.&.@.o...$.+.C.C. .m x.w.T ~ ( ( B.XX% j 4XkX&.x.v.q.v.M.>.4.4._ _ 3.` ) x.(.OX.X[./.G.Y.M.v.G.7.] 7.x.[.(.{ &.D.] Q oXOXgXgX^.|.^.!..XM._ j.x.x.y.^  ._ _ ^ ` ! ! <.@ e.sXGXgX>X).e.u.p.Q ] q.v.u _ e.x.u.q.v.+.X.+.T / / +.&.B.@.^ +.$...I K rXD.!.B.$.Z.eX=.&.&.C.D.!.iX{.N.` ` E x.` Z +.@.^ #.J k J 4X4.v.M.w.E.'._.u.<.B.D.[.XXx.V.) t.OXM.F.w.e.!.C.j.OX.Xe.e.v.F 7.W.=XY.(. ...b.iXVXMX}.OXQ.~ b ~ ~ b / Y ! T ^ ~ B l j x.: @ ",
"x ` cXH m , o.nXK.xXq.0 C c , ! / c >.^ v ^ ( Y ( ~ ~ _ ! c.b.+.o.&.+.+.Z.Z.C.) @.$.C.8X=.Z.$.B J $.` B.Z.^ P nXnXdXW / T =.hX$ z rXkXN.M.e.;XxX#XJ.E Q 3.w.x.W T 5.M.OX.X.X/.J.G.w.@XG.y.y.e.%.eXQ.q.%.C.v.e.(.[.oXyXoX*.^.~.E.E.y.v._ e.7.<XlXA.=X_ q.] v.u.. i sXFX^.;XM.NX2X<X#Xp q.w.q.` q.[ e.2.w.) +.$.T ( ) +.+.=.Z.| #.#.#.$.3XqXeXrX6XP eX=.+.=.&.eXjXhXsX{.n.t.^  XtXhXw.T c.@.V.n l J 3Xq.(.w.v.ZXHXHXT.! V.OXY.(.c.z.l.n.N.v.n.v.t.V.+.v.OXb.5.x.v.n.m. . .o.(.N.S.N.m.cXZ.&.c.!.+.% x v $ e e.xX:X9XF W c._ N.$ @ ",
"C D.nXP A x  XY 0 H.i.> c > A ^ H F j.F ! x.( c +.+.V.+.T =.C.c.8X8X$.$.eX8X$.@.$.=.$.$.%.@.$.^ $.M  .+.Z.b.nXi Y nXw.Y ~ @.{.+ z tXFXr.e.U.CXy w `.,.i Q Q ` x.q.(.(.E.(.[.M.M.M.Q t.t.M.i.i.B.|.C.R Q.W.c.[.[.b.~.oXoXP.gX^.E.i.e.y.C e.g.CXy ,.vX6.! T v.9.. y W.FXoX).<XHX' 6.CXg q.M.e.M.e.r.r.q.+.~ $.n M A.c.C.C.P V.dX=.4X6XqXqXfXqX5XtXC.4X#.C.rXC.pXcXhXhX{.u.t.>XlX: t.>Xu _ Z.8Xm l J sXM.M.7.HX>Xp T.HX7.{.N.u.(.}.A.o..XN.v.m.b.w.#...S.!.dX|.m. XgXV.#.j.+.T /.S.K ..4X3X#.$.!.@.x C x C T /.+Xy o.k., v.! N.$ @ ",
"Y c.A.m v >  XZ A B.) x H x ~ A m F b ^ A ` ^ x ^ +.$.^ ~ o.=.8XeX8X$.%.!.eX@.o.@.8XV.$. . . .^ ^ B m M Z.S.xXu _ nXE Y +.c.[.+ z fXFX(.w.q.CX:.Q XXi E _ b.x.4.g.OX/..X(.M.i.q.M.M.q.e.i.i.M.+.+.E.` D.Q.b.[..X|.|.pXyXoX^.E.M.r.y.7.f.i.g.<Xd Z A.g 5.W _ 9.. g }.nXW.E.2XHX7.t.<Xg M.).e.w.r.v./.x.+.D ^ x T $.%.+.+.H rXdXeXZ.4X4XqXrX4X#.O.V.K 0XrX0X+.eXpXS.{.N.S._ `.'.5 ( *X9 T %.8Xm k J vXi.M.,.2X=X7.OXHXe  X'.t.5.}.[.m.).N.y.m.q.4.D.N.n.S.XXOXN.M.}.{.E.i.M.g.g.m.B.O.....J =.V.H > x c ^ q.>X*X' z.l.> F v x.& @ ",
", S.hXF W u u. Xz.k.: v > v N W T b x , T x.` x S _ $. .+.{ c.!.eX!.S.%.D.S.&.+.@.Z.=.O.^ o.o. .^ A Y &.D.%.M.lXnXgX* Y ` x.N.+ j jXGXXXN.4.'.*X;X/.- ! <.q.` ` 0.oXE.(.i.i.e.e.E..X.X.X(.W.W.+.c.Z.v.E.b._ v.E.|.gXpXoXOX.Xi.E.v.j.<.2.e.6.,XCXbXh.0 e.e.q.2.@ Q cXGXW.).i.>XLXLXT.p E.(.C.q.y.i.T.4.^ A T , v  .&._ _ &.rXD._ o.#.#.rXeX$.o.+.$.Z.eXeXZ.+.eXeXZ.D.A.S.` _ *X'.;Xu.- e ` =., l L SXG.E.w.Y.2X2XHXT.6.[.'.y.u.).-X*XS.n.v.M.4.t.S.i.4.n.+.o.j.[..X.XN.N.g.i.7.c.eX!.`  . .C.@./ A v A ` _ n.9X9XHX2.F W.x.M.= @ ",
"> E.cX .( [ T E Z 8 > C v m > x , & & e Y _ _ _ _ ` %.Y Y _ c.&.C.Z.+.W Z.c.$.+.$.8X$.$.^  . . .T V v _ C.` u >.q.Y r +.c.Z.dX+ j BXGXQ.N.i.2.g ,.e ) _ >.Q _ v./.[.E.M.i.e.i.E.M.W..X).[.}.b.%.&.+.n.x.%.v.E.|.!.|.XXgXoX[.E.E.i._ ! 1.7.2.g g.s.4 7.i.] q.s.* g.;XZXR.R.M.Q #XY.6.t.E.M.D.w.M.$X*XT.N.@.T Y T o.&.` ! _ B.&.` ` @.$.B.B.B...Z.#.=.eX0XeXZ.Z.D.c.C.c.` _ _ Q 2.9 , Q 8 +.rXv l ..HX/.).S.g.i E p.g g.m. X(.e.M.*X_ 5.C W 5.A l.+.4.4.<.v.n.M.5.o.N.@.N.q.q.q.) !.!._ b.eX!.S.C.( _ w.+.H 2.q.( 8.Z H (.M.w.: * ",
"x @.lXO.v.w.H _ v _ 5.T Y k C 8 v 8 % > S ! _ W 4.` o.c _ c.c.+.%.C.&.+.C.C.&.c.X.&.=.+.% N  .b D ~ F ^ B.` _ E _ B.+.@.c.Z.XX% n fXJXQ.S.! a.q.4.w.x._ T ` b.N.M.M.i.v.v.q.t.v.x.gX).e.[.}.M.Z.c.M.r.+.C.[.M.oXb.M.[.|.W./.q.S 9.q.q.t.s.8.1.,.1.e.E.E.q._ s.1 g.}.BXR..X}.v.M.q.e.T.'.E.!.;XXXq._ Q ) +.c.( T _ ( ^ J @.0XZ.^ ` B.#.O.B.=. .B.=.8X0XZ.Z.V.Z.Z.Z.D.c.x.q.x.x.Y c w.w.> m hX> l ..HXW /.}.w.q.u.D W i..X}.}.M.5.w.q.,.( j.c.w.2.` q..X<.M.}.XX(.c.c.C.C.x.q.+.@.V.!.4.w.S.B.S.S.{ / +.&.V.c...O.z.O. .+.j.4.+ * ",
"Y +.gXo.^ q.T q.w.u.t.u 2.W A C x & Z Y W e.T [ w.c ^ j.Z.!.8Xc.x.` j.b.C.$.B.c.+.c. .F x k ^ +.X.~ ^  .&.c.%.4.+.C.` +.C.0X|.= j 8XGX!.N.v.2.n._ _ w.Y W ^ x.[.r.M.).M.r.e.7.M.[.hXM.g.}.r.Z.eXM.!.c.c.^.gXM.W.|.[.r.v./.(.q.] w.i.w.q.i.1.0.p.q.e./.i.2.M.g.. Q XXVX).>X(.(.).q.7.7.*X(.MX}.v.M.M.M.N. .` w.Y ` ( _ @.rXrXD.Z.w.V.K V.0XB.&.B.Z.rX0XZ.B.C.eXeXeX!.x.+.w.4.x.5.F b.W.:.4.iX, j ..BXH /.g.i.( }.N.W E }..Xm.[.+.<.w.e.4.) j.q._ ( ( ).q.g.v.n.x.+.@.B.c.c.c.I S.sX!.<.v.!.S.S.C.c.H B.B.I P P #.O.F I ..n.).: * ",
"0 @.BXE.[ _ ! x.n.A A ; e 2.<.>.Z 0 _ q.` v.:.W q.j ^ x.C.V.C.x.c.c.x.c.c.%.c.C.o.@.~ ~ A A m +. .$.^ ~ ` x.c.` ` +.~ _ ` B.`.= j =.lXQ.Q.pXN.S.b.b.S.$.=.=.x.|.i..XOXT.).M.! i. .#.M.M.M.(.}.eX(.Q.C.D.B.gXE.[.}.iXt.r.}.XXn._ x.` _ M.M.q.i.q.q.e.M.t.q.XXg.. 6.cXVXE.M.i..XM.} 6.i.OXNXXXM.(.E.E..X}.&.&.+.w.` %.+.@.rXfXC.D.eXrX$.D.0XD.@.Z.Z.eXeXrXB.+.sX!.D.S.A.N.Q.^ +.c. .N.H A H #.k + P nXS.(.T./.S 0.Y.g.u.}.}.K.XXN.v.4.( <.4.` 4.^ 5.5.H j.u.x.H m H B.B.+.b.b...S.=.c._ +.@.eXS.&.@.!.D.D.I &.B...P 5.N.[. XgX9 * ",
"` XXFX|.E.e.q.n.(.) x.Y b ~ ! :.1.T W q.r.j.W ! r.v.+.c.c.x.S._ x.c.3.C.A.8XC.C.+.+.) H ~ / o.+.v &.&.~ $.+.C.` +._ +._ ` +.`.# v @.lXc.Q.Q.~.{.w.v.S.$.$.+.@.Q.M.M.E.t.e.r.e.e.H =.W.hX[.XXsXeXM.W.C.C.B..X(.gX[.` F 5.OXOXx.x.v.N.x.M.q.e.M.M.6.M.M.i.t.).g.3 e.MXZXM./.E.*X'.' t.U.:X:XXX(.oXXX.XgXXX&.B.&.D.+.+.&.+.B.rX0XeXeXfXhXrXeXrX0XZ.eXeXeXrXC.C.eXZ.eX!.A.XX[.v.b.eXiXx.T A F B.> % ~ 6Xn.g._.g.s.Y.g.g.g.M.0.w.{.v.j.4.Z q.v.T T x A 4. .( T D.c.M m C.C.+.+.x.w.S.| P 4.` c.eX!.8X@.b.o.#.Z.@.#.#.#.b.v.v.B.iX: = ",
"v +.hXM.e.! _ v.}.`.] e _ / { <.Q a ] i.9.,.T _ v.W.b.o.+.x.D.` c.C.` x.C.A.C.Z.` R ~ ^  . ._ _ ( =.C.+.C.+.x.%.+.` / _ _ ` G.* & +.>Xc.) @.$.4Xo.x.0XC.$.+.+.D.x.x.x.q.g./.] e.e.eXW.sXC.OXhXiXv.M.!.C.b..X).).W.o.m M.gX(.H B.b.v.v.E.t.e.y.w.i.e.M.M.q./.Y.1 t.cXBX(.}.v.}.;Xi./.`.Y./.MX.XgXxX.XOXXXc.@.c.iX+.c.&.o.c.eXsXA.D.tXD.pXm.A.0XZ.eXeXD.rXD.D.C.eXsXfXeXA.[.M.W.I K P H F ) @.7 j H 8X;X0.J.0.g.H.h.<.q./.E.M.E.F F F C H c.y.) m A G D +.m S.S...P O.m F o.` ` j.B.+._ F C.eXeXc.Z.Z.P ..S.Z.!.D.S.v.E.M.P {.; + ",
"k ..8Xb.` ' { n._.i.8.:.a w a a :.7.v.M.q.:.a Z ! ~ x.~ W ` #.&.c.c.c.x.c.%.` S.` W T ~ / ~ W ( +.B.4.C.!.c.X.^ B.c.( +.4.` w.* % @.;Xw.) C.&.@.!.8XZ.C.@.^ / 5.q.{ x.q.q.i.q.M.e.w.[.sXE.W.gXiXQ Q v.C.x.n.[.W.D.Q.` q. Xv.x +.^ v.C.v.i.M.e.e.J.f.q.q.e..X_.1 e.cX8X(.(.E.E.;XlXXXXX[.(.gX[.gXgXE.gXiX.X X[.vX!.+.&.@.A.rXD.c.D.fXeXD.fX8XdXD.!.sXD.rXeXc.v.A.eXfX8X0Xc.F o.M I H H m $.qXe % n 4XgXa.g.s.h.[.`.w.v.M.E.[.[.4.W 4.H P o.4.` D ^ D ) c.5.5.b.H.+.5.( W 4.5.P j.F +.%.) %.&.x.) I Z.@._ &.C.8XeXx.w.Q.x.P =.u + ",
"H 4XqXM.~ _ q._ T.h.g.8.6.g w u ! x.w._ 4.q.v.2.q.w.q.W u ` C.w.b.) +.C.S.x.e.q.x.x._ ` c.%.T / %.+.( B.C.B.B.+.+.` _ _ _ ( e.* x D.z.4.t.!.c.$. .=.B.x.x._ +._ _ ` ` ! ' e.v.E.e.q.N.S.[.W.eXeXW W [ ` ` x.M.!.!.c.q.q..Xi.,._ ^ +.S.n.S.E.i.u.G.a.t._ M.n.Y.* e.nXnXE.[.).i.[.;X}.Y.g.u.}.).OX(./.[.(.M.(.[.lX.XN.v.!.eXsXsXb.C.Z.Z.c.0Xc.5.^ B.c.+.Z.rXD.N.Z.B.eXS.C.N m P A F A A F I qXE % M jX].t.9.p.u.D N.(.e.M.(.W.W.e.5.o. . .H T b.4.5.W x.A.O.k.S.S.+.^ T >.D Q x.c.m F b.x.+.$.x.` &.S.V.c.$.$.Z.eXC.N.S.v.C.0Xu - ",
"_ V.kX..A M.M.b./.Y.i.q.v.e.<.T W 6.M.M.q.:.v.x.1.q.2.T W W [.( B.O.+.8XpX[.i.Y T W +.c.%.%.) @.V.$.^ +.+.+.C.+._ Y W _ _ _ e.* x V.nXv._ #.P B.m F +.@.c.x.q.W ( q.` W q._ e.E.r.E.iXC.eXeXsXD.q.e.4.x.v.q.E.OX|.C.E..X}.M.t.7._ _ e.M.W.(.i.g.(.i.e.w./.O.g.3 7.XXZX/./.E.G.(..XT.T.$X'.OXOX).(.OX.X}.v.E.}.i._ M.).oXOXOXxXY.i.W.&.n.eXD.m.5.w.q.C.Z.c.&.!.C.eXeXc.+.M H H  .P c V B $.0XE $ F rXT.v.W V 4.q._ /.M.).o.M.[.v.5. .k.S.b.` k.^ 4.j.x.S.F S.S.S./ ^ W 5._ A Q +.&.+.c.` Z.$.j.5.Z.S.C.x.$.^ c.!.!.iXw.( (.>Xw 1 ",
"0 H qX..` E.).}.g.u.9.1.! 7.8.7.e.7.i.M.M.t.q.[ q.2.q._ ! c =._ x.c.C.Q.iX}.M.` ~ A ` +.x.` W x.C.&.o.%.c.c.j.4.( ^ _ x.+.) M.* > #.NXb...V.I D.A ~ ~ x.N.` _ _ 8.q.q._ ` ! q.E.).M.D.V.W.iXgXD.v.q.W M.).! ` C.D.}.}.OX(.M.i.q.q.q.t.i.e.r.y.g.u.Y.,.4.D ) U.1 ,.XXxXr.e.M.u./.g.'.'.*X*X*X*XY.[..X(.M.v.r.q.e.v.W..XsX|.XXXX/./.`.Q.+.Z.0XZ.x.4.w.Z.c.&./ %.+.Z.0X~  .M P m c H c 0 _ B.D.E + N qX[.u.n.<.t.N.P v.(.OX.XQ.sXx.) ) N. XS.O.c.c.b.5._ ` i.N.N.+.+.o.o.c.~ E _ T c.@.N.x.!.^ _ _ +.%.x.` %.b.C.!.c.~.v.e./.:Xp = ",
"_ j.FXO.W M.M.`.)..Xg.1.,.1.Q 6.e.! ! e.E.q.T Y Q q.Q 7.>.c ~.w.E.[.M.M.Q.r._ ` +.` ` x.C.b.` x.c.+.` ~ ` +.x.4._ ` +._ ` ` i.1 & I  X5.o.S.k.C.R T N b.Q./.! _ 8.7.q._ ` x.v.E.E.}.eXN.b.D.iXD._ W W q.i._ ` x.W.[./.|.M.e.v.y.i.e.e.e.M.v.(./.u./.D y.g.[.Y.3 t.XXxX(.(.M.M.}./._.g.M./.>X:X:XOX;X).U.7.x.w.E.D.iXW.eXsXhXgXOX(.g.`.w.H Z.Z.P C ^ Z.C.&.` ` O.B.c.^ ^ _ +.c c P m 4.<.[.K.p + B sX}.u.t.t.,.M.x.5.#.c.W.|.(.W +.v.E.[.!.c.F ~ x.! ` x.b.S.S.b.N.b.b.+.m ^ A c S.S.c.S.S.N.N.x.%.b.&.` @.%.b.D.b.N.b.b.` =Xp = ",
"^ N.cXn.F w./.E.M.M./.i.0.9.q.6.q.t.e.q.u.! T T a T e v Y Q Q.E.(.(.r.v.[.v._ _ Q q.` %.%.c.^ ~ %.c.x.~ ~ _ ` E E x._ _ _ j.T.* > L qX! C P c.@.T c ) x.E.g.f.q.1.s.q.W ] e.v.[.M.v.#.x.C.c.|.W._ T e.M.M.q.x.v.[.Q.M.}.e.e.t.y.i.q.w.q.v.E..X[./.M.a.u.M.lXg.4 e.gXvXE.}.(.E.}.E.M./.T.).OX;X;X.X).E.y.q.v.W.M.v.C.|.}.|.[..X.Xn.h.J.n.F m K | o.^ ` ( +.( ^ B.C.` ` ` ` _ ` ` c.m b M.H.xXp 4 Z A.4./.9.7.,.q._ _ .X{.Q.v.y.T P ..N.S.!.c.A E 4._ x.{ i.y.N.!.S.b.v.H./.x.(  .c.c.!.c.c.%.x.x.@.v.$.%.%.` b.b.S.b.^ @...OXu * ",
"x c.6X(.A E.e.e.e.q.i.M.e.M.e.7.8.6.t.6.Y H j.! 7.T 0 W _ > P x.(..Xv.[.b.` _ 4.{ y.~ ^ _ o.^ / +.o.+.c.N T ^ Y e _ ` _ W q.U.@ & J 8X5.~ H +.P 3.M.m.x.5.Q 2.Z <.g.q.<.Q q.r.[.M.r.!.^.^.C.C.W.+.j.E.E.e.M.M.(.(.Q.M.(.t.g.7.M.y.u.w.w.M.M.M.e.i.g.u.g.t.XXg.1 t.xXvXt./.E./.).i.u.g.Y./.(.}..X}.).M.i.e.v.[.gXE.|.|.}.D.E..X.XM.g.)..X` M I P =.@.F m M T H H +.C.3.%.c.( ( 4.5.) ) [..XXX9 7 y.ZXlXv.F H /.(./.u.v.(.W.N.q._ x.v.+.b.S.b._ 5.c.` _ E 4._ c.eXeXZ.j.x.x.m.m M J ) N...O.J x.x.b.N.c.%.{ x.S.c.Q.b.c P !.gXO O ",
"B hXZX.Xi.e.! :.q.q.r.i.! e.y.N.w.e.t.Q ` F v.M.5.` R c r.i.H H )  .b.S.@.+.~ ` c._ T +.~ T Y x.x.+.+.x.+./ ^ Y _ 4.4._ w.5.F # % I ;Xe.w.x.@.+._ j./.v.( D g.A 0 t.g.q.g.q.` E.e.E.iXeXsX}.Z.W.b.M.m.[.(.(.(..X).|.(.(.M.i.a.e.t.t.w.w.w.M.5.<.e.t.u.u.8.'.g.1 8.}.>Xq.M.).(.(.E.(.Y.*X/.(.).)./._.i.M.i.N..XXX.XOX[.iXb.}.gX.X(.)././.c.B.m.B.$.V.$.M ..%.H m %.A.+.+.E Y ) 4.) A W /.lX[.9 w Y.ZXlXu.V H y./.Y.M.E.E.M.w.n.n.b.b.o.b.x._ q.q.x.x.5.q.` x.@.B.S.k.c.x.H m +.m I z.D...@.I x.c.c.x.C.` x.c.@.Z.!.5.( x.P n.= O ",
"Y .XlXE.q.Q F q._ x.E.M.M.(.i.x.q.w.M.[ e.q.j.M.A _ x.4.v.(.(.v.E.w.n.x.x.N.~ 5.+.+.Y T T A Y +.` +._ ` c.~ ~ ~ +.` _ x.M. .B O $ B XXN.` C.$.@.c _ /.[.t.2.s.q.W ` <.J./.7._ v.! x.c.D.Q.iX|.v.E.[.[..X.Xc./.(..X.X(..XN.M.v.i.i.q.p.e.i.M.M.e.q.q.q.q.` K.q.5 8..XvXe.E.(.(.}.}.T.t.)./.(.}.[./.M.M.y.(.XX.XXX(.XX.X|.[..X.X|.[.XX/.(.N.S.D.j.I $.@.P c.Z.j.c.Z.eX+.H x D c ) ` T _ 4.).>Xp y 9.qXz./.4._ v././.M./.w.n..Xm.v.D.I +.v.q._ k.x.x.x.v.v.N.b.M.A.!.k.o.x.c.m ) ^ eXsXx.` c. .+.C.%.` &.^  .+.%.%.x._ F +.H x.- O ",
"Y t.'.e.' ,.6.t.! e.E.E.v.v.x.e.q.! q.e.v.e.e.w.e.w.M.F 5.).[.(./.i.v.v.M.'.w.W ` ` _ T u A T %.%.x.c.x.c.W W _ ) ^ ) b.v.J ^ O $ ^ !.E.w.x.@.@.&.+.M.E.W [ t.W _ ` _ v.M.i.r._ ! x.[.Q.|.gXQ.M.E.[.XX|..X[./.}.(.(.}.XXi.f.M.N.(.M.g.M.i.i.i.e.w.t.t.q.3..X4.# _ XXvXe.(.M.}.}.E.M.i./.E.}..XlX(./.}..XM.}.XXOX}.gXgXgXXXXX}.XX.X}.`.'.).N.V.O.c.P c.c.c.H P c...n.5.c m C c m +.` +.) b.CXg 5 Q ZXxX`././.[.}./.M.M.N.k.S.{.iXeXD.S.x.5.n.m.c.v.n.i.t./.4.i.S.N.P F 5.S.` ` ^ B.$.%.x.+.N +.C.%.x.+.~ %.$.+.%._ Z c ^ P n.3   ",
"Q 6..Xi._ Q T ! q._ r.r.` N ! _ W Q e.e.v.w.x.w.) j.v.j.x.n.n././.N.e.x.M._._ e W A W ~ ~ +.^ %.` x.A.C.%.v.` _ ` ` x.x.,.) ^ O % P 8X[ q.+.` ^ +.X.q.>.q.w.q.Z T ~ _ N.M.M.7.+.` x.XXE.XX.X(.(.E..XcXXXW.OX/.(.}.}..X}.M.E.N.v.v./.[.i.7.e.e.q.M.M.f.u.q.(._ O x [.vXr.E.M.}.=XG.i._._.(.*X}.oX.XXXOX}.M..XXXxX.XgX(.v.XX.X).OX}.XX'.q.t.XXpXA.}.O.I Z.D.A.N.v.( l.4.` +.( ` ( c.+.` @.0XS.i y i.ZXNX/.6.i.(. .P F H +.@.b.C.c...@.x.x.v.f.i.[.).).).g.g.i.b.c.c.5.A x.b.` _ x.+.C.^ B.+.B O.=.o.b.%.~ ^ ^ / ` b.x.F ` +.I 9 - ",
"4.r.OXx.T W W v.x.` x._ ^ H ` j._ c.v.M.E.v.M.` C ^ v.n.(.f.e.y.M.! w.v.M._ Y ~ ( S , x ^ ^ ^ ` c.b.C.S.c.x.i._ _ _ _ v.2.t.^ O $ ..tX_ q./ ` / T ~ ~ c T u.e.W Z Y W _ N..X_ +.v.N.W.W.XXXXgXM.v.OXcX.XM..X.X}.(.XXXX.Xy.M.[.W.M.M.(.M.M.e.q.q.u.i.u.u.w.8X_ O l sXNXq.M.E.(.XXi.u.i._.(.}..X.X)..X).XX.X[.lX;X[.XX(./.lXOXlXxXXX;X5.5.w.lXXX( v.z.#.V.0XZ.A.C.D.w.W ) ) A c ) A.C.+.@.Z.c.w * f.CX X7.1.q.7.A F E ) b.+.x.b.o.@.o.B.H.[./.Y./.i.g.XXXXu.S.j.) c.^ b.F.n.o.W ` eXx._ ^ ~ n P +.@.c.@.+.+.^  .@.+.x.x.` ^ I e 4 ",
"Q M.lXM.Y _ 5.M.x.C.W.A F q.e.t.5.x.w.M.v.q.e.q.` x.W v.M.5.i.oXE.! e.M.t.` _ ` o.x A v Z F Y ` x.x.x.c.C.D.x.` x.N.x.w.q.M.^ O % +.rXb./ ~ _ ^ / ~ / b T w.` ~ T T ` ^ H _ / +.M.|.|.OXXXxXlX}.N..XlXXX.Xc.}.XX/./.(.[.w.v.M.t.u./.i.g.v.e.e.t.h.s.g.y.x.#._ O m eXcXq.}./.(.}.g.e.i.(.E.E.OXlXXX(.}.cXXXXXXXXXXX}.).XXxXXXXX;X;X=XXXU.i.).$XH ` A.z.A.B.k.@.c.#.F F M +.^ x m n.c.T Y V.D.7 + 3.>X'.g.e.g. .F T Y V ^ b.+.{ v.c.~ ) W.c.r.t.i.v.e.i.u.q.w.5.n.5.F A J.v.W ! N.D.@.) _ T c b ` { !.` _ / _ c.!.c.%.+.( F ) y 3 ",
"a e.*XT.:._ W ! _ T ] a 2.Y T T.(.i.M./.e.T [ / ) 5.( m.5.F k.OXE.w.M.i.e.w._ _ x./ ~ ~ W T %.+.c.x.c.c.x.c.x.` x.x.v.{ _ e.i.O $ Z Q.x._ / _ x.` T W A ` r.( ( _ T _ ! C ! ` b.W.}.XX|.{.(.v.{.W.Q.gX}.XXv.N..XS.q.v.M.i.e.7.! t.f.G.N.M.M.M.).XX`./.g.e.XX` # C D.sXi.}.(.[.[.(.i.i.[.XX.XcXxXlX.X.XlX.X[.[.OXXX$X).}.lXXX$XXX`.=X;XU.`.xX;XB.o.o.#.#.@.Z.Z.c.@.D.P M @...P ^ A ) ( A =.%.7 O x lX&Xq.i.q.w.v.q.Q _ w.N.N.v.x.v.S.v.N.XXi.5._ i.x.q.w.x.w.5.5.b.N.` +.4.A 4.N.C v._ W ~ c c x.` c.%._ ( ` x.S.%.c ` r.e.'.4 3 ",
",.M.#Xg.6.1.u ! _ v C Q e > m <.W C _ 7.! x y.<.e.v.+.m.N..XS..XXXE.(.*Xu.w.x.E _ ` W H m A ` +.c.x.b.x.w.Q e._ _ ( x.N.w.S./.O % ~ }._ ^ ( / b.{ v , a q.w._ ~ j.` :.T q.x.x.N.C..XOXN.(.|.N.|.N.[.XXv.v.+.Q.N.}.v.M.r.w.e.q.q.M.M./.M.i.M.E.(.}.[.M.u.e.;X3.+ ^ 8XV.e.)./.[.[..XM.M.OXXX}.OXlXgXXXXXgX[.[.XX;X.X`..XXXOXgXXXXX'.Y.$X-X;X0X@.A...O. .XXiXZ.Z.c.k.A.Z.c.^ M  .5.O...@.^ @.) 9 O % lX&X<.7.Q T Y C ( ` c.v.b.M.x.(..XA..Xh.u.q.! M.i.q.w.x.x.e.t.v.q.+.c.b.b.+.4.( w.Z _ W ^ +.S.+.b.x.x._ %.D.c.+.o.W.v.M.#X5 3 ",
"6.M.'.Y.a :.Q ! q.W <.Q Q T V t.q.x 8 Q w.A F _ q.+.c.m.+.(.}.[.XXM.y.].x._ b._ W A _ ~ A T ` +.x.x.N.x._ <.q.x.c.b.` x.v.D.b.+ j N XX/ ^ ~ T o.^ T 0 Q e.5.x.q.n._ [ [ e.x.e.v.e.E.OX(.v.w.W.W.N.W.`.v.q.x.N.x.N.M.v.M.M.v.2.t.(.).G.e.u.M./.M.y.i.y.i.g.>X8.# ..V.sX(.}./.}.lX.Xv.N.).(.XX;X;XOX(.XXXXM.(.).'._.$XXXOX.X.XOX.X.X=X*XT.`.H.A.$.#.#.P P @.&.k...@.A.A._ A H c.@.V.$.@.^ V.V.q # V +.T.2.q.Q a :.Q ! ! v.H W.[.Q.M.M.x..XM.).e.i.M./.M.e.b.N.x.<.q.x.b.) x.x.%.F y.y.C +.` A ` !.b.b.b.x.%.S.D.C.v..X[.w./.>Xy 3 ",
"6.i.lX_.W u 0 ( <.S W Q ! :.Q 5.) 5.>.! e._ W r.` A ) ) F v.f.j..XM.M.M.c._ c.b.) A ~ _ A A j.C.x.C.x.+.w.4.! q.x.x._ x.M.S.u.O % J D.! W / / H v / i 9 W ! _ M.x.x.) / q.j.x.` ,.M.XXv.` q.N.[.F.i.).h.u.v.w.b.[.N.N.W.M.y.t.t.w.(.G.0.f.q.i.v.M.e.M./._.xXq.- +.cXSX(.U.y.(.;X/.M.M.)..XOX$XXX}.}.XXXX(.W.}.$X`.'.)./.(./.(.XXgXlXlX`.S.A.D.I @.@.o.+.o.k.+.o...D.v.w.F m ^ c H P ` B ..j.e + B XX=Xu.g.u.t.q./.v.T q.` M.|.b. XM.v.(.g.(.y.M./.G.`./.N.N.x.` b.x.M.i.x.4.4.b ` j.F F o.m x.S.b.x.c.S.%.c.c.c.XXOX[.E.OX1Xp 3 ",
"a e.:Xg.a u Y q.H D 7.W g.e.` ` ] R Q q.C.) ^ x.~ 2.q.+.q.x.x.r.i.g.[.H.x._ _ 4._ W F ~ 0 Y v.H ) c.x.x.4._ x.q._ ` x.x.n.{.N.+ > ..S.j r u j P m F e , W Q Q y.i.e.w.w.v.q.` x.q.v.[.v.x.x.[. Xw.t.|.N.w.n.q.n.Q.n.M.` ` q.M./.e.f.i.M.e.u.M.e.u.f.N.E.H.iXu.w x.GXHXi.M.i.}.;X}.J.M.'._.).XX.X).OXXX.X`.[.[./.[.$XT././.E.(.;X;X.XXXm.D.A.K I M K I n.c.k.+.+. .c.l.4.` H M I K M ^ +.^ j., + m 8XF.p.,.s.t.u.g.h.q.7.G.v.}.}.{..XXX/.u.w.g.T.XXXX).E./.q.x.e.5.M.A i.P m 5.+.@.P O. .+.B ` b.N.b.b.x.x.x.v.W..X.X).oX5.].f 4 ",
"g M.lXg.0 e 0 t.c.w.y.Q e.<.T v.Z 2.e.M.E.v.H ..F 5.! _ 4.5.v.v.:.t.v./.N.x.x.+.x.~ ~ ` [ q.(.M.` _ { +._ 5.M.J.b.x.Q.b.+.S.t.O > ^ Z.x T v , H F ) T Z _ w.5.N.v.v.` M./.x._ w.! +.M.(.n.N.N.v.M.t.'.N.v.v.w.n.N.W.|.c.` _ _ }./.i.M.e.u.t.i.M.y.q.v.M.q.;Xf.5 v.sXxX}.=XM.[.XX(.H.h.Y.i.G.XXOX/..X.X).[.[.).).).#X}.)./.(.XX;X;X.X'.k.D.D.C.@.k.Z.V.C.Z.@.c.l.) 5.( A _ H ..A.D.O.c.P @.6X$ + W k.K.g.7.8.t.N.g.i.! i G.M.(.pX X.Xi.i./.i.T./.M./.Y.g.Y.<.] t.q.q.Z y.<.C w._ ` j.H F _ x._ b.Q.M.x.c.c.%.M.).).'.).).i.'.y 3 ",
"] .XvXe.e u f q._ Z u u x 1.q.x._ e.H ` ` x.j./ ! ! c m F +.` (.u.M.e.[.m.+.c.` T _ _ v.[.M.M.x.j.w._  .^ Q i.S.S.x.x.v._ A A   +  .A.C Y Y 3.+.^ / Y _ >.x.u.q.,.M.v.E.e.j.x.e.` +.v.(./.).[.).=X`.g.n.N.v.+.q.N.[.D.[.b.x.M. X(.M.M.y.f.e.e.i.M.q.y.e.t.,Xt.5 N.lX,Xe.:Xe.H.gXE.J.M.M.i./.(.G.M.M.}.`.M.}.).#X'././.Y..X}.}.xX'.'.{.@.n.c.m.w.5.C.Z.#.Z.) k.w.G ( l.+.B.k.^ #.I I +.H $.6X# @ i. X<X/.e.u.8.y.e.q.p.u.g.g.T.'./.)./..XXX)./.g.Y.E._.)._.q.e.w.5.! ` 5._ b.x.R _ C.P c c N.b.b.S.N.S.b.x.{ E.lXgXXXM.e.e.'.y 4 ",
"e.[.cXx.` :.! x.! V u q.x e ( w.M.C...C.+._ _ , Y e.w.B F w.N.M.M.M._ e.M.c.@.+.W _ ! _ [ i.v.v.` ! [.Q.{ Q ! ( @.+.W ! T , T O % X.C., ; x x.c.+.) T W W ` ( >.W 2.` q.! q.` r.+.+.C.m./.[.XXXXXXXXi.q.v.n.! w.E.(..XW.S.x.(.x.w.t.t.t.a.t.t.u.v.e.i.r.i.;Xg.1 i.lXxXE.;Xi.M.}.M.g.v.t.t.u.g.Y.u._.'.).E.).}.XX$XJ.g.J./.U.'.}._.t.A.b.j.l.n.3._ O...V.c._ ! 3.^ 3.5.j.) 3.c.c.P P +.5.B K , 1 e.CX>Xu.i.M.t.g.g.u.g._.J.u.u.G.U./.(.}..XG.U.q.(.XX/.).M.e.e._ _ 5.` ` %.b._ +.#.I $.J P P O.S.{.D.N.x.` Y q.lX}.E.M.r.e.*Xy 4 ",
"e.[.gX+.` A Y Y W A W :.8 _ F j.S.%._ ~ ^ 5.v.Y <.e.y.v./.g.).[.[.M.x.x.Q _ +./ Y ! _ 4.e.q.` x.x.` M.).M.q.Y ( c._ >.R : > ~ o + 8XV.T T c ~  .) o.^ ~ T A C W :.q.+.` _ 4.>.W W ) +.x.k.M..X.XxX}.y.i.N.N.r.w.M.M.W.C.Q.x.M.r.e.7.7.2.t.s.0.s.v.w.i.e.e.;Xu.3 v.lXNXW.}.v.(..Xu.t.t.e.7.q.E.T.M.`.g.).}./.).$X'._.u.T.}.E.G.M.M..XA.c.5.) w.w._ M k.c.F 4.>.4.3.j.3.` ` _ +.o.D.&.( c M #.i 1 q.;X$X2.t.i.h././.M.J.)./.t.i./.J.J.G.Y.G.g.q.! M.M.M.}./.U.M.q.b.S.x.` x.j.W +.c.C.C.P #.b.D.S.k.{.x.v.c.x.v.(.E.E.(.r.r.;Xf 4 ",
"9.b.xXx.A T _ W ~ _ Z q q.` ` ` ` ` ` _ 4.f.2.Y _ _ w.v.M.w._ i.w.w.v.E.` A x.x.~ ~ t.e.E.i.5.v._ W x.m.q.w.x.+.x.` Q ! 0 R ~   O M B.W Y T A N ~ b Z x x , 0 W :.<.x./ W 4.>.T Z _ +.v.v.e.}.OXlX/./.).(.G.M.M.[.}.}.A.[. Xv.q.2.e.e.Q t.i.g.i.W.v.i.e.e.XXt.4 v.MXvXM.OXi.E.(.7.Q 2.y.! e.v.g.M.w.W G././.E.`.$X}.w././.M./././.}.v.+.C.O.@.c.k.^ c.C.B.j.l.H 3.( _ c.F D A M $.H ^ ` ` N.9 5 t.>X+Xs.a.0.f.M.}.[./.U.`.i.g./._.Y.T.u.q.i.q.q.g.g.M.u._.M.J.4.x.N.c.x.4._ +.~ o.A _ o.o.` b.A.D.S.b.x.` ^ M.E.(.M./.r.}.vXa 3 ",
"v.S.Z.j._ _ e.w.T 0 j v _ F j.k.x.` v.x.q.a.:.0 ~ x.x.e.M.F W 6.6.,.,.m.x._ ~ ^ +. .x.v.W.[.` v.v.x.N.c.E 5.x._ x.c.q.! ! ! b   V ..XX, Y ( _ ~ T F x V v T _ ! W >.W j.( ! Y 0 Z ! _ w.w.N.}.)./.(..X/..X/.M.e.D.|.!.iX!..Xq.8.v.M.i.q.q.g./.E.M.M.e.i.v.;Xu.3 c.nXvXM.NXw.M.M.7.t.,.e.` u T U.M.g.i.x.v.w.! /..X.Xy.E.[.(./.[..X.XXXc.c.k.W l.o.^ C.D.C.k.+.W ! W q 3.+._ +.` _ _ _ 4.T U.3 w t.`.#X9.C A D g.g.,./.Y.M.U.g.T.(.g.M.e.M.Y.g._.Y.g.E.M.M.g.h.! ( b.v.x.x.5._ ~ W A F ` ) ` S.A.!.x.` ` +._ M.[.XXE.).M.i.;Xg y ",
"S.`.XXv.e.,.Q ! u 9 & Z A ) x.+.+.x.) A Y u 1.u u ] T : e q.v.x.` _ _ c.b.x.W ~ , v _ +._ _ ~ ^ o.) 5.4.Q v.q.u b.N.w._ w.+.z   u =.;XD Y > v ~ j j V Y S ` x.+.A Y T _ _ Y Z S T ! ! R ! [.(.(.M.M.G.G.}./.w.x.i.S.[.[.D.E.g.t.M.f.2.q.j.i.v.M.M.r.e.q.M.xXu.3 w.cX;X).<Xm.M.E.g.g.e.<.e.R _ M._.i.y.M.r.M.e.M./.(./..X(./.).'.).Y.g.`./.l._ Y W ` Z.Z.c.c.+.T >.>.E >.! +._ _ ( ! W W V G.7 3 ,.#Xy.,.Z E A ( 4.A D Y.g.Y.U.G.g.i.M.t.e._.g.g.Y.i.M. XJ.u.w.4.t.x.n.l._ ` ` / / _ Y ~ ) x.S.S.v.c.%.b.%.x.E.[.S.v.(.E.(.lX6.y ",
"M.'.:Xe.q.g g.e.Y :.T ! Z > x m x W e 6.t.i.D :.p y e a e 0 x n.c.C.c.C.c._ _ r u S i E _ _ Y _ W e Y q.4.h.e.Y _ q.t.q.q.q.A   = n.[.E E 0 Y A v , 0 >.E :.! Y u e , T Y :._ ! :.>.,./ w.}.(.}././.(./..X(.N.N.(.[.r.M.M.E.n.i.t.1.1.9.g.i.i.M.M.7.6.q.e.:X8.1 g.XXCX}.).v.v.[.M.t.g.e.q.v.E.M.M.i.4.i.M.M.5.) q.M.i./.h.U._.}.M.J.M.H.XX(.N.x.@.c.c.c.c.%.w._ 3.k.` ~ ~ w.( T T ` +.3._ S.w # n ;Xl.q.e.! A H y.}.N.n.0.9.( 5.M.M.v.<.t.i.t.,.M.).1.f.).N.b.5.! x.x.x.w._ ! R ~ R ( ` i.x.( N.` _ ` x.x.x.Q..Xv.q.M.E.E.;X:.t ",
"u.XX1X6.7.q.e.M.Q ] q.W :.> x _ ,.q.' ,.,.t.C u Y y ,.e.Y Z ` _ { v.%.b.w.E E E W Y Y ! _ Y ! b._ Y / x.<.q.] W W 5.M.q._ _ W   $ m.D.E _ Y A ~ N v S ! S E >.~ ~ T S ~ R Y :.Q E e E _ q.N.XXT.M./.M.M.XX).w.M.[.N.x.w.i.i.u.i.e.q.7.a.8.p.8.u.u.q.7.e.2.$X2.5 i.xXCXM.).M.E.[.N.t.i.i.7.v.w.M.q.q.A E.M.v.M.v.x.N.M.M.n.T.@X(.G.G.J.i.(.x.v.`.[.c.c.C.w.5.` ^ b +.+._ ( %._ ( ) Y E W &.A.w @ % 4XJ.W e.W W m.N.}.K. .H w.^ H _ q.x.q.(.i.7.g./.g.s.,.g.5.m ( 2.x.c._ ` R R ~ _ T _ w.A m m i.` Q _ ` x.x.) w.w.` E.E.v.=Xp t ",
"w. X;XQ f T e.Q 9.6.] :.W :.e.e./.v.M.w.Q s.2.Z W ! Y e.Q o.x.+.` +.` b.x.` x.j.T A ( _ ` ! q.v.W u ) _ q.q.7.Q w.N.v.<.,.R _ O & ).N.T W R A ( v & v S Q Q E ~ _ Y T W ( T e e , , Y ~ _ v./.e.t./.(.(.(./.w.i.N.M.v.v.E.g.M.(.x.4.e.y.a.1.7.i.q.i.e.2.1.=X6.w }.ZXvXM./.y.r.E.E._ t.e.e.w.n.i.W r.o.M.e.e.v.v.e.x.w.M.l._.)./.H.).T.g.T._./.M.(.(.(. Xn.c.c.+.+.c.k._ ` +.+.` S T ( T o.B.7 O k 8XH.A <.4.n.m.n.w.v.H _ _ F ) W Q E.v.r.y.e.Y.g.g.U.8.u.u.<.! <.q.q.w._ x.( x._ _ _ ( c m ) ` q._ ! _ _ x._ e.` w.M.e.w.XXa p ",
"x.gXcXq.Q q.x.A f g f ,.v./.'.;XD G =Xk.V E T u T q._ e.q./ _ c.` ^ ) c.x.o.x.x.+.` ` ` 4.q.b.q.Q Q q.e.e._ y.t.M.x._ w.4._ W = % +.XXY Y Y W A 7 c u e Q ,.S v A T T Y >.Q >.! T _ w._ ` a.w.x.j.[.W.5.v.OX}.M.i.q.` e.u.e.C.M.e.f.M.e.e.f.g.e.e.t.t.8.2.XX6.y .XcX>XM.-X)./.;X;Xn.r.g.e.M.M.M.w.v.v.v.e.M.r.x.E.(.v.y.J.)./.J./.H.h.) n.l.(.4.i.i.M.N.E.[.D.C.@.c.+.( ~ ~ @._ ! _ W ` +.B.7 # l sX X( q.v.).U.M.e.T A ` : v (.) :.E.M.i.x.v.Y.6.t.T.u.Y.t.( _ T %.e.x.{ _ _ P q.( [ ^ v _ e.b.x.{ ` _ ! ) ) ( ^ A x.M.i.=Xg 4 ",
":.iXBX5.! e.7._ T A _ _ Z R V ^ x.T  X*XF C Z W T :.Q q.r.q._ c.@.W +.b.b.` x.c.+.` _ _ ` w.F j._ _ y.C w.( i.q.r.! _ x.x.B.j.: j ~ ).C r Y ^ ) ~ Y A ! 4.x.x.A 0 W e.e.2.! ! R v T w.n.n.n.M.W.v.E.M.M.(..X}./.y.e.r.q.2.2.6.q.y.N.(.i.q.7.1.e.i.7.f.M.M.XX,.t v.XX2XT._./.'.}./.G.<.F i.i.e.i.W.W.M.x.M.W.N.x.v.E.M.i./._.i.i.M./.`./.j.N.v.M.q.w.v.v./. X{.+.k.c.c.`  .+.` q.g.g.>.) ) j.# @ n qXlXw.w.w.N.E.R e.A W ! x A H.P Y g.M.y.v.x.e.2.N.XXs.i.J.w.%.A x.^ ^ { v _ +.x._ ` _ _ _ [ x.e._ W _ w.` ` { i.q.i.M.M.>Xa 4 ",
"a  XSXq._ q.q.q.^ H 4.W Y W m F j./.m.j.! ~ _ ` _ _ ,.7.i.E.N.b.S.c.c.b.N.b.c.` j.j.` _ ` 5.( ` 5._ _ c T <.M.w.M.M.i.m._.cXm.= z _ x.> r u ` x.~ A v Y A +.x._ ` [ v.v.t.>.Y T T A 4.n.n.v.).(.M.N.v.N.x.M./.M.i.v.q.M.t.2.:.2.i.i.x.q.i.g.t.i.M.M.i.E.N.;X:.w c.vXCXg.T.h.t.i.w./.J.q.M.f.q.M.W.r.E.r.M.(.w.>.w.w.i.M./.T.v.u.v./.'././.'.M.i.q.q.M./.G.[./._ c.c.c.+.&.A.^ q._.g.q.D ^ ` 5 # l 6X X4.x.` 5.v.F W e.u.8 x q._ F c 0.Y.e.e.M.M.w..X.X[.e.0 [ 5.e.*.{ ` x.} ( 5.x.` ` ` _ R _ w.e.! u ` x.^ q.` n.E.E.e.v.-X0 3 ",
"6.(.NX8.! x.F H t._ W W ! ` b F 5./.N.b.q.^ w.w.e.x._ W E.}.[.E.n.x.b.x.+.c.C.o.m m W C ) ^ ) _ x.v.q.w._ e.e.i.M.T.q.n.e.(.M.# % ^ 5.0 u u Q 4.u q A Y T ! W W _ t.7.q.q.q.Y A ^ +.M.M.M.i.(.(.M.v.v.E.v.E.}.i.v.e.q.g.s.8.7.i.v.t.2.q.e.e.q.M.M.i.M.).E.;X:.2 M.ZXvXu./.f.i./.M.x.*Xi.W.M.(.S.b.m F 5.N.M.e.W x.E.i.v./.i.t.u.M./.[.J.G.`.}.v.j.q.M.M././.(.x.+.c.c.@.@.c.(.i.G.p.1.:.+.x.7 O j Z.k.( w._ _ _ e.! <.e.6.Y _ T q.! e.g.t.u.v.w.2.t.v.v.q.E e.5.F *.w.%.w.v.[ x.` _ { / _ R q.M.x.x._ x.j.F 4.4.{.[.E.e./.[.f 3 ",
",.M.ZXe.q.M._ ! R ! R A m x.P H 4.4.m.Q.S._ 7.g.E.x.[ e.M.[..X/.E.W.` P P k.S.c.F c W D _ H F T ) _ 4.w.x.q.e.8.7.t._ x.x.[.v.@ & ..Z.D T E E _ _ A T Y _ v._ W ! 2.7.7.2.` 4.T v.i.i.i.v.v.M.M.(.}.(.r.i./.).i.u.2.7.s.8.0.i.i./.g.v.i.2.q.t.g.N.v.E.(.H lX:.* j.hX:Xs.g.g.M._./.e.M.1X2X[..XXXn.^ m W Q i.e._ 5.F +.[.(.XXn.n.XXS.XX)..X)..X Xv.W././.E.i.[.A.c.C.c.+.x.i.M.f.t.q.u._ c.v.7 < n jXXX` x.+.x.[ A C Y e.e._ <.q.q.e.e.s.i.1.Q q.4.x.x.q.q.T u.i.n.v.v.+.x.H P x.%.{ [ / _ _ x.i.e.y.x.C.c.+.+.@.x.w.b.x.M.OXp 1 ",
"' }.ZXu.e.e._ _ Y x.%.) c ^ {. .+.[.OXgXD.H e.u.E.M._ Y.(.).).M..X.Xn. .@.c.C.+.x.w._ W ( x._ ` ` T _ x.` ! q.q.7.<.w.x.v.gX^ * $ O.!.F Y Y 9 ! W S e C ! M.M.q.n.u.>.2.Q a q.] M.x.M.E.M.(.).}.E.N.v.M.e.M.).M.u.q.q.f.q.f.g.M.M.g.t.f.t.e.e.i.(.v.M.E.W.;Xe 3 s.D.$Xg.p.s./._./.g.i.}.CX/.).[.N.m q.q.t.E.g.4.q.x.N.(.(.XX{.N.c.D.N._.).`.'.}.(.XX}././.i. XK.D.D.C.q.q.x.v.2.q.q.j.w.5.x.5 @ J sXcXj.` x.c.H ~ v A e.M.w.e.q.E e.r./.e.Q 2.q.q.5.n.q.! ] u.M.(.).r.` ~ m F %.x.{ } / / _ _ w.e.x.c.c.c.` A x.+._ ` _ 5.iXy 3 ",
":.XXNXE.q.] Q ~ _ 5.B.` c ^ x.[.).OXxXc.@.H N.M.(.}.e.y.w.e.M.e. XXXE._.w.w.B.H  .x.^ m ` x.j.x.c.+.+.N ! e.e.Q 7.t.` ` ! |./.# z $.iXb U T W A S Y ~ A Q i.r.e._ e._ 7.,.p T j.x.x.M.N.N.(.W.[.M.y.(.(.n.[.}.i.M.v.a.t.M.M.M.i.(.E.v.e.e.e.e.y./.E.i.i.E.-Xf * g.cX:X,.q.V ( ).E.i.M.=X*X}.(.v.n._ _ _ x.A.r.v.v.i.M.E./.(.c.O.c.c.w.u.g.g.`.).M.}.XX).M.[.).XX{.!.N.x.! T q.! q.T _ _ T m.* O M sXgXR _ _ T _ _ e.u e.w.<.e.Q W 4.q.e.t.6.q.i.q.e.x.+.Y ] e.u.r.E.} } ` / *.v.{ } _ / _ ! [ q.5.q.5.x.C._ c H +._ _ ^ H gXy * ",
"Q |.NXe.! ' Y e w._ b.` T v.(.OX(.XXXXj.^ o.[.(..X(.q.M.x.q.E.v.(.(./.O.F A b.v.( ` _ x ~ x._ ` c.c.%.F _ e.e.2.q.q.W _ ! |.'.# l =.iXb ~ W _ _ Y A v v W x.c._ u >.q.a.! W ( +.x.w.N.v.v.W.M.v.r.w.i.w.x.N.).i.W e.e.q.q.(.v.n.S.E.n.n.v.w.q.i.(.t.q.a.i.>Xf 1 g.lXj.S 0.2.M.H.E.i..XCXE.c.A.c.x.` _ ~ 4.v.v.M.>.+.H o.A W m o.B.j.j.t.t.E.M.N.i.(.}..X}..X[.[.(.G.e.q.t._ t.e.` D T _ ~ c.7 = n sXcXj.x.b.x.5.Q 7.] e.y.7.e.e.,.:.Q 2.i.<.M.E.x._ ` ) Y ! w.,.Q L./ } } } N ` } r.r.} e.g.r.q.F Y w.w.c.x.` c _ _ ` x.+.;Xy 3 ",
":.}.xX( W ~ _ Y Y ! w.w.t.E.}.(.v.v.P F F  ..X.X XE.e.v.q.! v.M.g.u.5.H F ` E.i.v.N.b.` w.( +.c.%.c.c.c.^ W Q Y Q Q T E T v.h.# j $.Q.~ _ W v S D A v Y W ^ T A W Q ` e.>.` q._ M.i.v.M.M.M.i.i.t.t.t.7.7.i./.E.q.1.e.2.q.M.v.q.e.i.y.q.t.i.r.q.e.q.q.2.q.;Xw 1 M.lXl.s.0.t.u.8.q.E..X1Xe.+.c.c.v.x._ W Y 5.` _ ^ ` c m A E F +.` ( 4.7.q.q.,.q.M.G..XXXXX(.[.).M.M._ W x.r.t.<.Y Z W Z W b.9 = J 8X>XN.b.x.c._ _ 6.t.t.6.e.e.M.,.:.! ] ! v.E.q.^ _ T Y Y _ _ _ R } } ] } v.~ ~ I.U.} i.E.i.e.{ P ( c.c.x.x.q.Q ! 4.W W w.:Xw * ",
"Q {.lXq.V v c W n.W ! v.i.] g./.N.w.}.P ( 4.M.M.M.M.v.t.u.M.G.i.q.t.<.q.i.).).E.i.M.i.x.T ~ x.c.+.+.S.c.` ~ Y >.q.q Y _ 4.m.h.O % E.).Y W u S 4.>., > E S A v e W _ ` _ Y _ [ ! e.M.e.v.M.t.,.e.t.i.9.8.i.( M.M.7.7.t.7.,.q.E.M.E.M.v.r.e.7.C q.0.1.e.Q q.;X* @ 3.9X$X6.,.i e..X*XM.E.=X/.x.q.+.+.x.` Q S w._ v +.+.^ c W W Y C x _ 8.e.q.u.t.u.M.(.'.XX.X/._.[.N.m.v.e.e.6.7.t.Z C T T ` A.: # J fXCXm.N._ Q q.<.p 6.7.a 1.6.6.7.[ Q W Q ) ` e.W C > Y _ _ Q [ [ } ( } L.^ A v.E.( x.M.w.t.! %.z.D.C.b.+._ w.[.5.E _ 4.4.-Xi t ",
"a E.xX! Y T {. ./.N.u 4.i.:.M.(.5.i.T.H v.e.t.M.q.<.M././.M.i.M./.M.i.g.M.).T.e./.v.S.x._ c.C.D.S.b.b.x.x.Y n.G.i.e.9 _ _ x.Y.O 8 v.{.Y , $ }./.h.q.2 e Q y 9 9 W q.e.] q.] q._ [ e.e.M.t.9.8.t.i.y.8.8.<.:.,.<.:.Q u u T v.M.v.W.C.b.M.M.7.k.:XCX=X1.Q 6.$X4 @ <.cXNXM.0.v.HX;XZXHXT.;Xi._ w.q.` ( _ _ W ` _ o.+.+.^ c E E ( _ ( w.8.7.8.g.g.u.M._.Y.M.S.x.c.Z.) +.v.M.i.t.CX-XXX4.e +.%.S.9 * l tXcXb.v.i.;XlXlXu.Y Q Q 6.7.6.s.q.:.1.y.v.q.e._ Y S R Y Y R [ _ } _ q.( q.Q E.E.e.E.( ( t.i.q.N.S.b.x.` 4.xXXXlXn.W %.v.:Xp 3 ",
"Q [.vXe ! M.HX4 : (.4.! w.M.M.7.E j.C W N.w.y.i.t.u.M.M.M.i.i.i.i.q.t.g.g.Y.i.M.v.4.i.S._ S.S.!.{./.N.b.x.` .X* 7 .Xu E ` M.5.+ % b.XX> > F l.1 i J.4 q E :.q S _ 5.e.` M.i.q.A ~ _ W q.2.q.q.q.e.! ] 6.1.f Q Q 6.8.Q :.! v.j.N.[.c.N.k.v./.2Xt ,.HXg q.i.[.- 1 5.cX>X).Y.HX2Xg u.LXg.M.(.E 2.q.` ~ / F ^ _ ( +.c.V.` ~ >._ +.&.` e.q.8.g.M.7.f.g.'.)._.w.` c.c.c.+.` i.y.:X=X1 _  X9 +.c.{.0 # J qX].<.q.;X`.u <.;XQ _ i.y.q.e.i.M.e.i.)..XM.^ _ W Y : u Q R } v / { R q.(.E.e.I.g.E.` e.U./.q.` +.+._ _ i.i.9 q.XXe ` h.>Xp 3 ",
"Q x.1X/.e.! CX8.! S.i Z _ ~ ! g.H.F i.h.w.` { n.u.t.e.M..X[.e.i.u.0.M.G..X(.;X}.v.v.w.N.x.N..X.X{.sX!.x._ w.lXu ` hXu A ` S.` O % ..K.C Y A O.e ! ).5 e >.e Y / W >.q.` q.q.( ~ N N _ M.q.v.M.i.x.! W q.s.e.<.q.2.e.e.q.e.e.q.x.v.x.M._ r.o.G.f q.CXd 7.<.`.6 * j.BX;Xv.T.1X<XS j.CX,.(.[.7.e.:._ +.N ~ +.^ ` &.c.+.+.l.x.H c.m.).M.i.G.i.q.g.}.Y.G.`.).w.<.+.Z.c.c.[.M.e.-X,X:.-X<Xy v.}.cXi = F mX>Xt.i.;X].e ,.;XQ M.t.Q ] Q _ e.M.^ P O.^ A F >.! W >.Y Q %._ A _ _ R E.e.b C /.i..Xi.8.i.e.Q _ %.` _ /.M.Y gXlXE i.'.>Xg 5 ",
"a E.XXq.).:.t.;X{.4.* ~ v E W U.4._ i./.w.v._ _ R _ w.M.E.M.e.i.e.( e.q.g.M..X}.e.+.c.D.c./.}.XXN.b.N.S._ _ ).nXnXv.7 x.v.@.u.O % O.0X_ w.v G &X.X2.5 S S Y :.~ >.Y T ! _ :.Q b v A Q e.<.q.y.v.M.5.2.,.6.8.e.,.6.q.2.4.q.8.r.e.v.x.` ( <.6.2X2X2Xd.w 8.:.5.:   A fX#._ q.6.<XZX Xs.<./.t.g :.:.Q Y Y ` o.x ` _ ^ c T _ ( c w.i.w.v.y.g.6.6.g.T._./._.G.q.q.3.+.&.c.b.x.2.0.CXHXPX8.Q .X(.vXa t M.ZXCXS.N.i.xX;X>XU.' q.,.,.a a g a.4.H i.F C H A C C _ R , _ } } / q.H F _ F r.q.M.U.U.e.t.s.t.2.u.v.+.4.E J..XxX<.W M.}.;Xa 4 ",
"A B.ZXM.W ) c e : - W ^ N ~ W q.E N ( ! <._ y.t.E q.w.e.r.q.i.M.t.Q 2.8.t.M.g.U.v.b.A.S.c.x.}. Xn.n.N.N.v.x._ 4.u 7 _ @./.` u.O > #.0X_ q.A < e . 2 W A Q 2.T W ( :.( _ Q f Z v Y S w.q.! q.v.E.x.v._ e.7.:.a 7.7.7.6.q.t.Q q.w.e.q.w.e.t.t.1.9.t w 8.t.! O.#   k #.| v 4.W 2.6.p g e.0.0.y w f _ Y T W ( W ~ W T ~ W W _ x ! u.^ w.! q.8.g.Y.U.u.g.E.y.2.7._ ` +.@.+.+.j._ _ h.g Q S.W.).CX:.t C.SX|.b.x.w.Q a p u } ' Q ] ! a 1.e.h.A w.( ( <.C e 7.q.~ Z _ } ~ c ` x.j.v.A w.e.( <.0.s.,.i 7.f.e.` ` _ ~ u i i <.J./.T.*X9 = ",
"l J nXM.e.` N.n.( +.` ( F E q./.q.Z b _ q.w.+.5.( ( n.q.C Z E.M.7.t.y.q.q.i.M.(.E.[.!.Q.5.v.{.!.{.Q.W.Q.v.x.c.` ( ) ^ F +.x.4.o j $.S.~ _ ! _ u 7 >._ W ! _ T e :.u >.t.<._ ! b Y :.,.u.e.` x.v.q.v.q.e.t.8.2.! 8.t.e.q.7.2.Q e.x.M.y.e.t.7.Q :.e ,.,.8.q.}.- o j #.0Xm D B n.e.5.M.g.Y.g.e Q 4.T Z , 8 V T / ^ c v Y W x _ q.( A e.e.e.i.T.'.g.t._.g.e.7.e.w.) ) @.+.~ A ^ ^ ` r.(.M.}.lXCXp w A.FX(.r.x.w.[ ! q.q.e.] Q ! ' ' a q.y.~ j.v W Q q.7.t.,.u ] _ W v _ ` v._ i.A ( e.T ^ Y.g.q.f ] e._ q.4._ ( _ 5.b./.).M._ X.& # ",
"z I 5X .q.^ _ E Z ^ T Z ~ _ w.4.n.w.w...@.+.+.+._ +.5.e._ P q.i.Q 2.x.e.6.q.E.).}.XX`./.E.v.S.XX[.q.(.(.v.i.t._ +.T F A >./.<.@ z .. .C Q q.q.! t.R Q Q :.,.,.a a Q e.7.2._ >.a q.q.,.t.i.q.x.q.e.M.q.e.(.v.i.e.u.e.i.e.7.7.1._ _ y.u.e.g.q.4.E s.7.8.i.j.=X; o l 4X#.N ..v.4.g.M.M.q.U.M.+.+.^ , 8 C Y W _ ` ~ c x T _ ` w.4.A q.8.t.T.}.}.).e.s._.Y./.E.M.w.( +.@.B.@./ ` _ ` [.v./.(.BXNXp p x.BXxXE.(.i.e.e.q.[ q.[ Z 7.' :.u Q e.H v F q.:.! >.q.q.i Y Q T T } q.r.e.x.( F W e.U.i.M.u.7.Y x.x.M.2.u W x.w.(.}.}.c.X.#.% + ",
"l L 3XM J L #.^ c.N.M.=.B.[.;X1X>X]. XrXZ.V.6Xx.j.$.Q.bX;XK.=X:XT.U.'.'.'.>XxX<X<XCXNXZXNXlXlXcXxXS.V. XpX{.|.|.sX8X+.4.v.$.g.4 :. X{.n.+.}.}..X}./././.'.*X=X$X$X;XXX.X`.#X'.'.#X;XlXxXxX}.xXxXgXXXlXcXcXfXfXiXK.D.[.[.M.y.e.q.5.M.i.2.q.5.A a.3.q.u.u.F O.> O l 3XL 4X6XpX;X;X>X/.n.{.sXXXO.Q.sX;X$X>X;XN.c.m.B.S.j.^ w.j.O.;X#X'.xXCX<X:X1X$X;X2XNXZXVXxX).b.!.iXtXD.x.B.iX|.XXD.|.iXZXOX0 t x.FXcXE.(.E.i.E.I.} *.} i.U.] ] ' q.e.w.[ v q.e.e.] u.U.g.i.E.P.X.Z.+.).w.M.}.N.( .X*XoX}.*X$X'.T.'.-X>X/.).`.&.;X.XM.V.=.3X$ O ",
"J K n + $ & % j v v u A _ g.Y.Y.g.u.T _ 5.` ` ` ( ! g.#X,.Y.'.T.s.0.g.g.Y.*X#X'.T.T.T.=X#X/.M.w.x.` 5.^ P ^ +.P ).`./.i.) _ Y.9 Y _ w i 4 6 9 w - 9 w 9 3 e u - 0 w 0 w f Q 2.,.,.9.7.t.i.M.e.7.! i.g.e.e.e.i.i.M.i.i.g.q.y.q.8.U.g.g.g.0.u.:.g.u.9.4.q.Z A x o l l $ x Y j u :.E % x , x > > > Z , 7 q x A A b ! T W Z Y S g.s.8.Z g.T.g.g.U.u.u.'.=X*X'.T.U.w.e.;X`.i.t.W e.U.g.T.=XXX)./.Q 4 $.#X9.e.0.e.Y.#XY.g.M.g.0.U.u 8 ,.:.i._ q.t.e.7.,.f ,.,.f g g W Z q.W > x = 9 p y p a a a a a :.g 9 : , 0 u 9 , Q p - # $ c z + ",
"j % + + $ + + O + : - 4 w t w d y 5 + O + + + + = t y y 4 w 4 5 3 5 1 1 t y y d d t t d , $ O $ $ $ $ $ & $ $ j % $ + + + = w e 0 * 1 . . 1 1 . * 1 3 3 1 1 1 X 1 . . X 1 1 3 1 3 1 1 5 y t 5 3 4 y 4 4 y 4 4 4 4 1 1 1 - . . 1 3 1 1 w 3 1 3 3 2 O o O o   + + $ o o O + + @ # + + O + + o o o # O O o     o + O o o   * * 1 1 1 * 4 3 3 2 3 - # = p p w 4 - - 7 u # O O 3 1 3 1 1 w y 4 - a u Z 5 3 4 4 5 4 y t y w 4 4 4 4 3 1 3 4 y 3 3 3 1 1 3 * . 1 1 3 3 O 2 4 - * .   1 1 1 * 3 4 3 4 * t = O + + O # # O O   o O + % % ",
"l J m | N _ +./ n.S.v.u.r.e.t.t.7.Y ! _ w.x.` x.i.M.r.c.}.N.r.6.d [ 7.8.g :.` w.6.6.e.M.N z c J I J M J L n n P ..N n B U j R 7.e.t.9 e W 1.j.` :.a 1.6.r.M.s.,.:.6.i.q.! q.` ] i.e.e././.E.q.q.M.[.E.D..XW.[.E.E.x.x.x.x._ _ e.x.` ` C.[.W.E.[. .B ~ l n n J l k n k l 3XL J J L l J 3XJ b z N J H B J l j % l l l j A F : Q ` q.M.v.i.w.Q Y A M.(.M.M.e.( l z z n ^ J +.x.` ` _ ` D.v.` x.q.9.M..Xv.N.(.N.w.e.C.[.!.N.t.i.e.' _ M.E.C.M.e.>.u 5.,.2.,.2.,.W W +.` C.` T > > v F / / x.v.x.C.W.W.L L L L L #.J L J J J J L L z ",
"/ [.SXGX).).gXOXAXBXhXMXGXGXSXcX.XoXgXMXMXgXcXlX;XOXlXMXVXMXoX:XxXgX1XOX[.hXpX{.!.gXcXnXhX{.S.pXhXcXpXjXVXsX=.sXVXcX[.gXpXo.N.i 7.FXcX#.0X6XhXlXz.XX*XlXAXvX1XxXD.1XMXAXMXxXAXcXcXcXNXGXAXGXgX2X;XVXGXBXBXMXMXNXAXMXSXMXhXAXAXOXAXVXSXSXPXGXSXMXqXZ.8XeXrXkX5Xj n 5X7X3X7X7X7X5X7X3XqXIXwXqXrXqXkXjXjXkX6XL =.4X5XwXVX[.X.oXOXSXGXGXGXSXpXiXpX=.iXVXBXhXrX4X6X8X| 6X6X6XpXcXhX^.OXcXGXcXlXcXE.5 i.PXJXGXLXJXPXLXGXGXGXSXnXGXGXGXFXPXGXGXGXlXXXgXlXXXcX|.[.#.#.MXrX4X6X^.Q.{ H ..hXyXgXuXVXVXBXnX[.qXqX5X5XqX5X5X7X5X5X5X5X5XL = ",
"u t.:XNXi.g.g.i.'.M.W.OXMXBXxX;X}.|.XXBXBXNXNXNXNXNXZXxXNXBXXX).;XxX>X>XfXhX|.iXpX>XNXZXnXkXsXrXfXjXNXGXGXBXlXSXVXZXcXBXcXlX).6 ,.cXGXc.8X6XlX;XdXxXlX;XxXCXvXZXBXvXBXnXiX;XZXZXZXGX;XsXCXGXHX2XCXJXPXZXxXxXlXlXGXgXLXCXS.BXVXXXBXZXvXZXGXGXNXxX6X6X6X6XfXVXB.k J 3X7X7X7X5X4X6X7XqX6XfXhX#.4X6XqXD.sXnXjX8X#.8X9XqX X<XbX:X:XGXZXBXZXvX8X| 4XtXrXnXVXfXjXsXcXnX|.DXqX5XqXcXxXT.CXGXNXCX<XNX6.5 (.JXvXz.xXlXZXZXFXZXlX(.{.dXfX[.NXLXqXnXvXxXcX;X>X,X#X`...k.{.iXlXjX;Xx.N.l.K.H.BXnXMXBXZXsXnXSXcXjXtX7XkXkXwXtX7X5X5X7X7X7Xz @ ",
"O i xXy.t.7.i.e.g.g.E.(.).).M.e.! x.q.r.(..XM.! e..X.XM.W.|.q.Q 9.t.,.g.+.N.w.e.}.g.g.).}.N.c.+.x..XE.}..XM.W.x.S.S.c.%.` e.` y Q dXNX;XN.g.v.).[.M.f.t.a.g.).(.E.e.W.Z.r.e.oX)..XXX/.OX}.xXHXM.g.}.xXxX;X:X Xq.OXD.OX+.&.0XQ.` D.dXiX0X|.S.&.x.O.B % | =.qXo.z l L 6XI 4XI b #.#...K V.b.@.) +.@.N w.b.n.M N m H  .5.W u.>.u.m.XX}.x.C.^ ^ ^ @.O.+.N.N.w.m.v.N._ b.Q.&.+.c._ 1./.(.M.g./.<Xf 5 v.GXG.H M.g.w.hXhX.Xx.+.q.i.q._ (.|.$.c.q.w.v.r.x.! ! :.Z W ^ H q.V.E.W :.H c > v.v. .` +.W./.OXQ.!.B.!.8XP.Z.4X#...P ..6XqXl O ",
"O b cXi.9.M.E.e.i.(.(.E.}./.(.M.6.W.M.v.Y.u.6.6.u.E.(.}.(.oXe.t.t.Y.u.g.e.v.M.'.}.'.'.E.'.*XM.M.).(.M..X(.w.W _ ` c.c.` ~ _ 7.4 ,.D.xX(.M.M.7.e.y.t.9.7.s.u.g.i.v.q._ M.e.t.(.).xXoX/./.(.1XxX_.i.T.W.e.i.'.1Xq.v.q..XE.+.C.x.( %.Q.[.W.C.v.v.] ~ x m .. .8Xm x l L qXM =. .B ..@.+.c.#.C.Q.w.x.c.^ _ Z.c.%.o. .M o.2.) ( C  .$.XXE.(.+._ C.+.&.C.c.c.S.c.c.b.N.` b.Q.Z.+.C.7.q.i.U.).t.g.;Xf 3 q.FXcXH w.y.6.E.[.W.e. .F e.6.A F x.w.|.A T ! ! T M.u.6.Z Z A B w.H C ) 7.^ e C c.` v./ H W.i...P Z.k.B.=.Z.x.+.&.&.%.&.C.sXj O ",
"$ ~ dXq.e.v.t.T.CX-XE.).}.E..X(.x.%.M.W.u.u.7.g.i.E..Xi.M.v.q.i.i.g.9.g.y.u./.).(..X/.).}.).v.(./.r.W.oXN.` W v.M.x.+._ ` +.w.: 1.XX2Xe.i.i.t.*X#X6.8.e.2.q.M.M.e.q.j.M.{ r.M.).k.4.! (.*X.XOXY.g.'.(.t.0.8.E.$X}.y..Xy.c.&.` _ c.b.W.C.M.` r.'.>.x b  .B 4XB = J #.tX..rX@.X.!..X^ +.&.@.b.w.w.c.n B P $.x.+.o.B.x.A <.W 4.y.v..X[.b.M Z w.C.&.B.c.D.!.b.b.b.x.q.C.b.x.@.+.w.'.T.M.i.e.u./.t 4 e.NXO.w./.q.).HXxXM.r.v.%.E.(.H ) D / c.F > _ ! 4.j._ q.! T c ^ 5._ C T 2.( & F %.%.}.n.+.N.w.(.B.$.v.N.C.X.c.XX[.+.@.$.=.hXk o ",
"+ T ;XQ q.! -X2X=XHXY.7.W.[.M.v.c.c.` W.r.6.t.i.e.C.|.W.D.v.e.M.M.e.g.t.q.M.OXT.M./.i./.OX!.S.!.(.E..XM. .Y /.BXxXcX4.` +.( ` 4 q.lXNX#Xq.i.HXHXCX:Xg y.e./.{.OXN.N.x.(.N.E.M.4.#.o.i.w.XX;XNX*XY.).lX'.g.Y.E.=XSXXXOXM.W.C.S.C.S.D.sX|.|.xXUXHXA.H Z  .b $.H O l 4X6XP =. .vXXX`.b.N B &.X.x.N.=.+.P H P J H H c.+.x ) F D 5.XXgX|.Q.0X%.>.w.c.Z.c.D.D.C.A.b._ 4.S.x.{ W S lX<XHX=X,.i.e.}.0 3 ] ZXvX(.i...VXCXHX:X! r.M.H H F ^ H H B.C.e.) ` k.n.T H w.q.[ W ` w.a.w.A A :.Z ~ +.0Xz.` b.H pXpXpXC.+.V.=.nXZXDX.X .#.Q.hXm O ",
"+ v.NXq.q.7.CXp ,.<X:Xq.}.[.e.E.n.C._ n.r.q.M.e.] q.E.[.gXb.9.e.! ! v.e.0.h.(.M.7.i.M.U.w.b.A.C.N.(.M.x.` E xXE u lXv.Y _ ~ _ 4 e.lXNX#X7.&XJXh p.CX6.e./.).OXdX(.n..XZ..X}..X(.|.m.).>X;XxXZX;X$XlXNXlX`..XlXXXcXVXNX(.[.[.XX!.A.XXcXMXPXLXHXQ C.kXT @.M =.^ + k 3XfX@.O.{.gXN T }._ ` 8X..^ x.A.x.) H H F 3.o.&.|.w.n.5.w.`.pXA.[..XiXD.l.A.C.D.A.eXZ.c.c.` W _ sX!.c.=./.`.5 8.HX6.7.e.xXu 3 u.GXHX(.e.HX-X` e.HX6.r.).+.A V ^  .) N.oXx.v.v.$.t.^ A S ! v.E.}.M.2.i.(.g.] :.x.c.b.Q.v.Q.|.D.jXiX..C Z NXN.: c.PXe.#.pXlXv O ",
"# w.BXx.7.q.2XY.g.HXY.6.}.E.e.v.q.+.Y W v.E.M.9.t.7.6.t.E.E.y.w.>.t.e.M.e.4.4.` m.w.v.i.<.4.S.b.b.c.` ` _ E lX>.` vX4.A / ^ %.4 M.ZXZX,Xi.*XHX0.s.CX6 W j.i.M.x.M.M.W. .[.W.W..XoXw.2XCX*X.X>X'.G.!.Q.N.Y.T.XXOXv.E.MXe.(.}.(.v.b.|.|.ZXAX'.HX6.C.GX! Z.=.c.A & l 6XfX .H i.VX` v.bXW &.#.I c A x.n.4._ 4.>.>.~ +.b.! x.v./.M.O.O.@.x.c.5.E x.c.^ ^ D.c.` ` W ~ _ eXS.C.S.M.).w Y.CXy q.M.2X,.t `.JXFXXXi.=XCX_ T.HX6.5.7.y.q.Z Y A E.^.tXj.5.x.v.M.H F A M.B.w.w.e.A r.M.M.e.,.Q x.M.M.q.!.N.P 8XrXF A Q *X=XE ;XBXi b.Z.XXN $ ",
"- q.cX/ q.q.Y.2X2X=Xg u.(.W.y.r.7._ :.t.{ e.M.{ _ w.e.(.(.(.g./.t.Q i.q.q.w.! E ` ` x.w.q.e.S.S.S.c.+.` %._ /.xXnXdXu T / ^ @.- :.;XJX=X<XU.2XHXHXY.5 i.v.E.C.j.W.C.[.[.[.M.x./ .X=X=X}.[.Q./.5.w.c.` ` _ 9.g.W.|.D.VX`.(.{.[.S.W.sXOXLXcX9.CXLXnX_ Z X.eXc.E c J 6XfX~ F T XXNX*Xq.T b.+.! e Y { ` Y _ x.4.S D _ j.W x.5.n._ ..A.S.^ @._ 2.n.` _ ` c.c.x.4.D ) ` c.y.q._ q i.XXCXd.p t.i.1Xg s m.GXmXXXq.,.:XCXxX4.A k.5.x._ _ ! _ <.P I q.x.x.T F ( v._ n.D.m.C.c.) N.M.C.5.w.y.W.[.!.n.B.v.C.~.Z.R _ w.8.>XxXlX_ :.(.[.gXT O ",
"4 q.cX[ ! q.q.6.8.1.t.7.E.OXr.e.v.W.M.E.i.b.x.+.^ j.w..X[.v.q.q.M.u.i.M.i.g.E _ _ <.x.b.b.x.c.c.S.C.` c.C.S.4.q.w.E ~  .T T _ - ,.XXCX2X>XT.g.s.d d t.8.r.5.E.v.v.r.E.OXE.r.x./.1Xv.m.{.(.b.y.>.4.4._ T _ _ n.(.|.!.hXNXW.v.E.M.v.LXZXhXOX.X'.>.T , ~ +. .#.) z n 4XqX .r._ v.t.p T b.b.&._ W S Q _ Y W +.T E 4.W j.A W q.w.! n.Q.b.i.[.H u.` v _ +.4.x.c. .F +.( q.4.4.e.Y 7 i p ,.M.e./.CX1.4 P LXm.E.e.q.6.! T Z ^  .x.^ c v F XXF B @.x.m ` _ A Q T A x.D.P O.@.) }..Xq.! q.q.[.XXiX( c.V.x.m b._ +.+.2.,.8.Q 7.v.[.|.BXT - ",
"i e.cXe.7.q.M./.[.E.e.t.e.E.}..X(.(.(.E.(./.b.` w.w.` Q.E._ f.i.u.g.M./.(.,.Q _ x.<.e.S.D.S.S.x.c.eX!.N.c.S.x.q.w.c.` _ _ [.W.4 ,.cXNX$X=X#XT.U.8.u.t.q.b.E.W.7.q.M.i.[.E.E.[.HXm.` ).XXiXS.N.b.c.c.w.) W ` @.x.S.{.iXgXNX/.[.(.NXsX4XqXrXc.=.T O.@.( @.~ z.@.c n #.nX_ w.N.Q.`.eXQ.S.P.&.^ C V Q 4.W c j.A T ) ) j.^ w.y.N.x.v.x.}.M.Z._ b.c.b ) x.c.x.4.5.v.c._ _ 4.w.w.4.` _ M.).i.M..XCXp * o.JXvXM.M.M.M.B.@.H A C.O.^ c x u ` m  .O.O.@.m ` M.w.F W M.D.m c H n.[.[.5.M.M.C.W.E..Xv.b.Z.=._ v._ +.=.N.v.c.C.i.w.N.sXMXY 3 ",
"f w.lXi.e.q.i.(.}.[./.r.M.M.M./.E..X(.e.g./.M.w.w.W q.(..Xi.t.7.,.9.u.(.q.a ! _ x.` 4.x.!.!.!.!.!.S.!.C.C.c.` q.x.x.4.! e.OXlXt E dX2X*X>X).T.)./.i.g.y..X[.N.n.M.).(.[.}.).1XOXq.t.{.sXsXD.iXeXZ.D.c.c.c.B.Z.@.@.=.eXeXxXOX(.xXC.8X0XtX0XB.` +.Z.@.) @.o.D.j.v.L V.BXq.7.N.Q.5.Z.S.C.!.=.v q ~ _ _ m m P o.c x ) c.x.j.N.M.W.N.Q.S.M.OX[.C.c.^ ` c.c.c.4.4.c.c._ M.n.` 5.q.x.b.M.T.).i.}.z.8 = XXPXSX'.(.i.v.0X..+.^ sXA.^ ) F 4.eX@.c.=.#.C.~ ~ x.j.` T k.=.F ` m.[.[..X[.rXgXE.e.v.lXx.P N.W.x.v.+.=.C.Z.b.eXQ.q.4.eXsXZXW w ",
"u ` xX_ 2.u.g.i./.(.E.E.i.(.}./.M.(.E./.E.M./.i.n.x.N.gXhX_.g.e.u.u.M.g.6.e.i.w.` w.` b.!.S. X[.hX|.!.S.C.C.b.x.w.x.q.q.y.OX'.3 0 #.NX-X;X).}.=X)./.i.i.[.XX}.XXOX[.gXgXXX.Xn.lX/.H.pXgXsXsXdXD.D.D.c.m.C.C.A.B.c.B.B.&.C.cXOX%.B.tX0XrX0X@.@.=.eXB.@.@.) V.) m L 8X4XF c.P $.b.!.S.b.!.V.W ` 5.A ( M F @.^ m ) j.o.o.+.V.v..XXXgXv.M.hXXXA.c.+.C.$.+.c._ W W T n.XX(.t.t.q.q.v._.:X/.q.i.z.p w {.FXHXH.OX`./.c.#._ x.A.k.o.+.H n.hX0XN.$.=.x.x.H +.) m C c.[.(.m.v.`.}..X}.XXXX7.M..X(.H ..n.E.sX[.) 0XpX0XB.{.[.+.w.eXMXZXT 4 ",
"0 x.lXW ! g.g.v.OX}.W..XM.w.Q.c.c.w.M.M.M./.e.i.v.E.G..X}.i.e.e.e.i.w.[.(.(.E.q._ w._ c.c.x.).(..XN.XXD.S.D.x.%.` x.v.E.[.(.G.1 ,.sXZX$XT.=X}.;X).M.g./.XX.XXXxXlX(.XXxXOXN.n.xXXXm.sXgXiXsXjX0XD.A.n.C.N.C.Z.D.Z.B.@.B.V.rX6X4XrX8X0XrX0XB.@.B.rXV.@.&.B.V.C j J #.0X/ N.!.eXx.!.c.x.pX$.A b n.` _ C T c.A D W ` c.` j.c.x..XxXcX) F 0XcXS.c.+.+.+.C.C.` _ _ _  XXXXX(.e.t.u.g.M.h.i.<.2.h.w y lXPXfXz.4.(.).).S.F +.V. .` k._ ^ #.J A #.#.#.D.9XsXn.j.N.D.(.E.{.XX}.XXOX}.).XXM.S.E.W.[.[.M.gXgXv.+.V.0XiXZ.~.hXv.c.eXMXnX, * ",
"- _ gXq.y.e.e.M.[.t.M.|.x._ c._ w.c.<.! r.M.q.e.e.t.E.M.C.[ ! 4.n./.e.).M./.M.q.` x.` x.N.b.Q.XX).e.[.S.C.b.x.x.W.M.M./.(.!.$X4 a lXZX*XT.'.=X;X'.J.M.M.}.`.). XM.n..X.X/.H..XdXcXA.iXsXsXsXsXiXc.c.w.v.C.Z.c.c.c.@.B.#.V.rX@.Z.rX0XV.B.B.V.@.&.0XZ.&.@.@.c.~ v J 0XhXT _ b.!.c.C.c.+.!.sX` x <.3.W C Z ` C F D <.^ E >.4.4.m.lXXXD.b.hXcXx.&.@.^ ( c.` ~ +.+.E v.XX.XE.e.0.s.M._.G.M.q.<.T.4 - gXPXJXXX[.o./.OXMXv.) [.@.+.( ` F I ..A m #.| H K.|.N.v.M.[.N.w.M.OX(.[.M._.i.i.(.M.M.E.}.(.M.hXxXE.Q.@.=.~.=.C.hX+.@.Z.yXMX, * ",
"9 ` lXx.v.e.q.y.i.Q v.b.@._ x.Q ! x.! ~ e.M.h.0.u.q.e._ _ ! E.{ b.n.u./._.(.E.S.!.w.` b.S.N.Q.m.[.t.y.b.[.Y.i.v.E.q.y.i.(.XX$X- Q gXZX:XG.g.*X`.).T./.M.H.@XM.[.v.v.W. X}.).'.XXhXsXsXsXsXsX|.n.j.C.w.+.c.c.c.V.B.@.@.@.eXrXB.=.V.B.@.B.&.@.@.B.rX$.+.B.) @.` v n kXVX+._ b.!.!.S.c.b.B.pXx.` >.! e W W %._ b v T ( >.) +.+.c.cXxX[.v.0XD.o.c.c.` +.+.` D ~ S W ! i.i.,.e.q.u.g.Y.T.u.g.q._.5 @ XXPXGXOXXXN.v.XXcX[.A.pXXXN.( _ H P $.A F $.x.^ Z.+.5.p., H x.w.iXQ.v.N./.n.( q.4.x.N.v.M.M.E.OXlX[.Q.=.J P ) v.|._ +.%.rXZXY = ",
", x.cX` x.r.v.q.e.w.x.` / ! n.<.! _ ! _ M.e.i.8.t.x.e.` x.h.i._ N.b.m.(./.e.q.i.M.n.w.` x.x.S.b.w.y.y.S.W.i.(.oX'.E.M.M.(.OXN.4 q.lXZX;Xi./.XX>X}.`.g.t.0.f.e.v.i.r.M.[.v.E.'.XXN.XXjXiXsXD.{.n.n.j.4.w.n.j.k.@.B.` w.V.0XV.=.=.Z.@.) c.@.@.B.V.Z.P +.@.@.b.4.j n tXjX+.b.S.!.S.b.b.c.%.hXE._ W S 0 e W c.` c c +.j.@.P +.c.Z.pX.X` H S.^ c @.c.C.c._ _ W S > W %.x.w.+.w.e.q.e.e.e.<.u.5.`.e 5 x.GXZXN.|.gXN.{.eX .+.C.) ^ G ( e.+. .T ` ..v.!.0Xc.N.u.C  .S.x.pXV.=.` u.w.x.Q ~ +.!.N.b.x.n.OXgX[.C.=.+.+.q.{ ~.v._ ..V.BX, + ",
"j B.BXW.x._ v.q.E.v.x.x._ ` { 4.q.4._ 4.! y.u.8.<.! e.M.M.g.Q Q x.x.[ t.u.q.e.).n.i.q.` x.` v.S.x.i.N.N.N.'..X.X}.).).e.M.}.$Xy ,.cXNX*X0.Y.*X}.).M.g.8.:.w.G.v.5.v.M.M.x.v./.oXg.N.XXS.{.M.N.D.c.w.w.w.4.4.w._ +.~ +.0XeXk.c.B.C.n.@.+.@.+.@.O.Z.@.x.c.Z.fX5.v J ..nX_ S.S.+.o._ %.b.b.S.~.c C T S x +.( W ) P c.x.V.Z.C.x.C.x.` $.%.!.A @.Z.A.D._ ( ( E _ v Y %.x._ ` +.x.q.h.}.u.4.M.` =Xd * e.FXcXk.OXcXjXcXV.o.( ) ) o.^ F m.P I ( W ..@.!.B.!.N.x.w.J.b.N b.b.=.c.+.+.+.( A T _ { x.b.Q.pXW.v.B.x.b.+.` @.C._ [ =.qXcX, $ ",
"% =.jXx./ _ 7._ v._ ` x._ W _ v.v.) _ ) ) E.M.w.M.r.E.}./.M.<.x.{ i._ ! t.E.(.(.M.E.q.` x.` N.S.N.N.w.b.N.U.'.T.i.U.Y.t.e./.*Xy g XXZX-Xi.=Xg.T.g.f.9.,.,.f.g.M.E.v.x.v.i.e.v.}.M.(.cXlXOX}.{.B.w.+.w.+.w.v.+.! Y / c.fXeXZ.@.@.c.c.+.+.) / ~ T B.c.&.B.0XfX5.Y L c.hX~ b.x._ ^ ~ F C.S.c.c.S.) ( A +.@.M.Z.A.!.C.+.#.8XZ.+.c.@.C.!._ F W j.V.8XA.) _ 4.( W A A _ +.+.+.c.F ~ N.).h.a.F 3.XXi 5 W ZXcX[.xXD.XXOXpXO.` o...^ H H +.H J H +.C.w.x.M ^ 5.n.v.x.{ F P H ..V.b.^ v _ Z Y Y x.x.x.b.%.B.b.J b.+._ x.b.v.{ _ %.tXxX: $ ",
">  .pX[ _ v.M.i.v._ W _ _ ` x._ +.~ Y _ x.[..X(.(.}.E.[..Xq.x._ _ w.x._ ! e.r.M.i.E.w.x.c.` x.S.N.S.b.b.S.N.`.).i.g.i.u.u.M.'.4 E  XCX'.T.'.t.U./.y.8.2.8.u.i.N.M.v.x.c.r.v.XXXXW.XXNXlX[.XXD.c.A.C.c.+.+.c.` n.m.Z.Z.6X#.V.&.+.) @.@.+./ T T +.Z.Z.B.+.B.iX4.v J !.cX/ C._ ~ _ ` ` %.@.c.c.c x c x / <.i. X~ v v.$.O.$.D.o.$.O.D.c.F &._ ( ^ c.c.+.) 3.T S Y _ +.8Xo.+.c.` _ v.M.5.2.W F /.7 # F ZXCXXX.Xm.M.c.z.o.+. . .D ^ ^ F H P +.( H ` N.B c c w._ N.b.^ C.c.+.b.t.w.~ _ A S _ @.$.b.S.+.C.w.H c.n.{ %.c.b.{ x.&.sXcX= O ",
"% J hXe.M.i.i.M.Q.x.x.w.n.i.x._ ~ ~ _ q._ i.M.w.M.N.v.Z.[.x.x.` ` 5.x.` ` ! q.q.e.q._ x.!.x.c.!.x.m.N.N.S.N.m.).E.g.E.g./.i.i.# j c.>X=X'.i.i.Y./.t.q.t.g.).'.(.v.M.C.S.(.[..XXXlXvXxX}.gX!.Z.c.c.c.D.{.c.N.+.w.v.B.Z.B...&.B.D.+.) @.@. ._ ~ +.V.Z.c.+.@.Z.4.Y J hXjXx.b._ W ` x.c.&.J &.c.T e 8 , +._ %./.x.o.v.c.A.y.A.@.P  .A ^ W c.` N &.c.c.( ` ! S 7 E c.` &.^ %.c._ _ w.q.W E E 4.5.: o k qXCXv.( .XA.B.k. .o. . .( ..H %.!.k.k.c.M c.D.c.H T W v.b.c.x.b.b.{ _ x.` _ _ ) _ ` @.=.+.C.!.c.b.v.S.w._ %.%.%./ x.C.|.eX+   ",
"j +.BXt.i.i.e.(.N.x.x.v.w.n.v.+._ W ! _ q.g.g.9.i.x.5.c.D.S.c.x.` w.` _ W ! q.r.e.e.{ c.b.b.b.!.x.b.S.i.x.x.{ w.i.t.Y.i.v.n.Y.@ % N. X'.'.g.g.h./.e.e.i././.'.}.x.M.W.[.A. XW.[.;XXX>XlXpXc.b.c._ ` N.S.iXA.T T n.N.Q.rXV.=.+.&.{.N.@.` ` _ / ` +.c.B.c.&.D.M., m cXcXq.c.! W ! ~ +.+.C.x.) _ ~ Y S ( _ H E S ` +.` _ T ^ _ G ` _ +.^ m ^ =.D.c.( m 3.T D e _ %.+._ D +._ ~ _ 4.4.4.( W ` m.& O z qXdXF A n.#.k.B.z.+.c...P O.o.c.Z.c.c.!.+.%.x.w.w.( H N ( V.v.b.) { w.x.A W >.F +.B.x.+.) C.N.c.S.x.( b.v._ %.v./ x.@.eXpX; # ",
"% _ vX/.g.e.r.M.b.{ w.w.>.! n.` ! Q Q W ! u.t.u.g.w.x.c.x.` _ _ R _ _ ` 4.Y ! q.M.v.x.v.b.b.x.b.x.b.b.w._ q.w._ q.g.E.u._ x.'.* % V.dXM.'.0.8.g.Y.i.i.t.u._.@X#X/.M. XXXM.v.N.}.(.v.`.lXcXnXlXlXdX[.j._ ` ` W v.(.n.Z.{.B.&.@.D. XW.B.B.Z.5./ / _ 4.` ( {.sXw.9 c nXnXx. .( _ +.` ^ H C.D.+.v W  .E S E +.W T ) c.x.l.!.c.3.` ` w.^  .m +. .Z.c.A ~ Y ~ F e Y o.$.` ^ +.` S D W 4.! W _ ` N., O B CX-Xn.^ ~ F @.#.) j.+.I P b.N.C.Z.!.b.$.$.+.w.` ~ l.j.#.C.=.v.!.+.o.) H H _ x.b.b.C.b._ _ v.N.b.n.w.` C.c.@.=.@._ +.+.V.gX= O ",
"& N OXq.i.1.t.+.x.q.q.<.2.q.q.7._ ! Q _ ! 8.u.i.8.t.x._ ( ~ _ W Y A E 4.` _ ! q.v.r.+.b.b.n.x.c.c.b.S.b.w.4._ _ >.q.v.4.! _ M.3 % 0XhX/.N.<.0.T.e.7.u.W W m./.g.h.M./.(.E.4.w.v.v.e.y.v.!.iXA.D.nX(.M.gX|.4.[.(.|.c.&.C.c.m.c.0XZ.c.&.N.Q.m.n.+.n.5.5.m.N.N.<.= z nXsX` b.` _ c.c.+.H c.C.c.T A +.+.` D Y _ H H O.+.c.^ c.` _ _ ( m ^ ` `  .C.+.~ T F A S T T ` +.B.+.c.c._ E >.( >.E ( l.x.2 @ B CXXXt.v.q.D B.S./.j.+.+.b.N.{.pX$.b.@.+.@. .M P ` t.v.V.C.$.b.N.x.@.O.c.x.x.x.+.b.x.b.b.v.b.n.q.n.S.B.%.F x.+.%.+.` c.!..X= O ",
"> S.lX_ v.q.4._ Q Q _ q.<.Q ! <.w._ _ q.7.q.e.2.g 9.Y Y A W _ Y Y Y Y r u p.e.w.E.r.v.v.b.x.x.b.n.x.b.x.b._ _ _ >.4.x._ _ 4.y.3 j 0XnXcXx.c.m._.i.j.v.+.4.q.J.i.M./.[.N.N.M.x.N.b.w.c.D.N.N.D.nXnXN.N.sXdXN.v.` v._ _ ( k.c.B.c.D.hXhX{.c.4.S.D.{.N.v.4.` m.y.+ z |.{._ +.` ` c.@.^ ^ +.c.!.@.` c.c._ Z A ! Z W $.%.C.H c.m c F ` ` +.c.$.o.+.$.Y C V e T _ H +.+.` o.` ` ` >.E ` _ E ( +.c.7 < B {.XXt.M.A ^ A.{.S.N.S.b.!.{.z.@.@.o.&.@.+.@.J H ) W +.x.+.+.b.+.=.!.S.c._ c.B +.@.c.` w.b.c.m.M.Q.S.^ ) +.x.N.v.+.Y ^ 9XgX& O ",
"+ w.OX~ [ w.q.w.2.! _ x.n._ Y q.<.E u Q 8.9.t.u.6.Q , R T W _ Y Y E A A ! ,.! T E.}.[.N.b.x.S.N.q.x.q.x.c.` 4.>._ 2.4.5.W W w.5 j tXPXK.C.c.c.N./.M.f.n.j.b.a.u.H./.M.v.v.v.c.D.D.A.c.D.D.lXnXVXlXsXsXD.C.c.+.w.k.` 4.w.k.c.C.m.D.tXsX{.Z.@.B.|.dX[.Z.+.D.rXq.# l rXpX` C.c.o.%.$.^ b @.C.D.D.c.o.( C Z W j.+.o.W _ ` H I F A _ b.v.!.C.&.+.B. .~ T A S T ^ ^ +.( T 3.` W T 3.! 3.! ! ( ` 0Xe $ H Z.;Xu.u.) H +.P P P v.S.P {.G.b.Q.@. .c.V.+.c M _ [ t.q.x.5.v.x.V.0Xb.H ^ B H F ` v.( e.n.b.N.S.iXS.C N _ H +.`.v.{ x.C.OX#   ",
"+ ! XX,.u.[ _ { w.{ { _ C E _ _ Q i e R t.t.e.e.2.Z Y A ^ %.` _ W T Y _ [ t.W q.i.M.U.b.S.x.w.w.x.%.e.q.x.q.5._ ! Q Q q.<.i 4.1 j jXhXG.c.x.b./.).g.g.g.n.C.j.w.u.y.r.y.q.v.b.N.N.D.(.A.cXlXXXXXXXjXsX{.eXZ.Z.D.c.c.n.c.+.&.C.c.{.D.sXdXD.B.@.c.hXD.` +.eXD.4.# n fXsXb.N.S.x.^  .` _ c.C.V.N.x.+.( x V x F x.o.3.) +.&.A.c.x.P A.0XsXD.c.D.Z.^ _ _ F ~ T _ +.^ ( 3._ ` +.3._ 3.5.>.4.) @.lX7 $ B 9X;XY.A F Q.m...F H N.Q.P eX/.pXsXx.c.b.eX@.F v.w.[ f.h.{.{.A.S.B.@.B.P ` N ^ c o.x.` [ w.w.w.S.{.c.( x.b.m w.=XT.M.w.m.'.O   ",
"# q.jXv.i.W ` x.+._ W E _ 2.7.! T ~ Y Y w.r.! 6.w.` x.W ~ _ ~ T Y ~ ^ / q.i.M.v.v.q.M.x.b.q.4.x.x.n.q.<.` ` ` _ E u E W S 9 4.2 % m.hX).x.` v./.e.v.M.G.T.e.y.n.4.4.` w.e.g.i.v.c.eX!.XXnXXXXXlX XdX|.gX Xv.c.+.n.w.D.D.4._ B.Z.D.D.eXD.eXpXB.+.c.` ) +.Z.D.t.# J nXnX` +.y.F _ +.%.` ` %.c.W.w.M.` _ T _ F j.+.A.C.D.V.^ x.` ` D.0XsXV.o.eXc.` +.x.^  .~ ~ +.` ` c.` ^ 3.` 3.+.C.` j._ c.dX& $ H jX6X_.F c W ) I H x.` v.S.pX{.pX!.S.S.N.{.Q.b.D.{.t.t./.pXpXm.iXS.` x.w.m O.v.B m +.{ c.S.w.x.{./.v.N.m.M.v.[.lXM.t.0 XX.X@ . ",
"0 e.XXq.i.` o.c.c._ Y _ _ _ w.! ! ) _ ` { ` Q Y ` ` ` +.~ T A A b _ 5._ v.w.M.E.E.q.w.x.n.4._ 4.! v.i.Q x.x._ _ ! S E W , v 4.2 % {.vX`.4.<.N..Xs.t.e.e.i.v.e.b.+.` +.5.f.`.).M.[.iXiXdXnXnXXXlXlXN.{.dXD.c.k.+.w.n.D.D.c.c.B.m.D.sXfXrXsX{.c.C.Z.@.+.+.+.!.q.O j {.bX! e.v.w.W.` c.%.` c.@.` F E W c x ` W ` j.eXD.D.Z.C.m.b.b.!.pXiXV...c.` ` H ( T T / ^ / +.` c.j.~ ~ ^ W l.+.` w.` N.V.$ + m @.w.Z , , / F P c.N.B.{.`.{. XhX;XXX|.).S.S.+.{.[.S.dXN.{.{.N.pXA.^ n._ > _ x.^ ^ c.F o.C.b.Z.A.S.b.{ n.v.M.M.[.w.! ^ .X[.* . ",
"w 7.`.! 6.q.x.{ b.x.` Z Z _ _ x.) A _ E u T Y Y _ ! _ ~ ^ W b T W T _ _ _ q.M.v.n.q.q.v.q.x.b.w.q.x.b.w.{ w.x.x.5._ _ ,.,.T <.. % D.cX).x.<.w.-X$Xu.q.t.i.v.n.` ` _ _ g.J.+X_.$X{.sX{.[.XXdX(.gXnXN.[.!.0XA.C.c.` 3.N.N.c.l.+.@.{.sXsXrXrXeXc.B.Z.Z.c.B.c.D.y.O z /.CXv.).(.e.v.w.) ` x.+.%.+.w.D e S A 4._ D o.c.S.A.eXiXH.y.S.D.iXrXA.v.` x.4.T ) T E ~ ~ ^ ` _ _ 3.^ ` +.D _ c.` 3.4.n.@.% + j 8Xv.v Q :.} +.( j.N.c.M.].XXiXhXhX|.Q.Q.n.v.{.{.x.G.hX/.{.|.c.P x.c.N.` _ _ _ +.x._ c +.x.@.Q.c.S.N.x.v.w.q.i.(.' ! e..X[.* . ",
"0 Q )._ e :.8.t.v.{ _ Y E Q 4._ _ Y T E e u E Z E _ _ x.Y ^ / ~ +.W Z ~ Y >._ c.x._ x._ _ e.x.c.b.w.4.q._ q.w.w.! Q ] ] ] Q ,.  + ^ XX).x.<.5.;X=Xi.M.t.i.T.G.v.w.u.g.M.g.g.@X#X-X.X(.N.[.[.[.nXdX[.[.{.N.c.w.+.n.w.4.` ` 4.4.+.N.{.{.eXD.0XC.B.eXZ.&.+.Z.0Xu.# z M.$XM.`.E.x.q.F N ) q.B c.` _ _ W W 4.` 4.E W _ x.C.iXiXD.n.A.{.D.D.A.(.x.` _ _ W T >.o.` c ^ _ _ c.j.+._ ~ ( x.3.W 4.N.S.; + j 9X=.v ` v / e.w.w.m.n.n..XXXdX|.{.).Q.{.S.c.!.|.{.x.b.{.G.N.I H !  .c.` ~ _ ! c x.v.) x.H P Q.N.v.c.5.q.E.v./.oX0 :.Q .X/.4 * ",
"w a .XW Q e.7.t.u.t.! Y ! _ %._ ` _ 5.` E i ! ! <.! [ x.Q R _ ! ! _ W Y ~ A _ ` v.q.v.` _ 5.N.Y.u.y.M.N.b.y.v.i.! Q 8.6.] q.<.. $ #.hX).5._ 5.'.).y.M.t.f._.$X/.h.g.u.u.h.G._.;X;XOX!.H.(.H.XXlX XN. XsXD.j.k.c.m.c.c.C.c.j.` n.n.N.[.!.k.c.D.Z.rX0X&.&.B.0Xe.O j N.*Xt.}.e.E 5.c m H _ b.c._ T _ Y W 3.<.w._ ` %.b.c.D.iXS.m.A.D.H.n.b.N.x.( T ( T ~ A / j.G ` k.P ) ` S V E 4.q.>.<.q.w.@.: O z iXc.0 0 C / Q.Q.%.[ N.Q.]. XOX.X{.Q./.{.{.Q.|.dXdXN.m.`.[.{.D.O.C.$.c.S._ H ^ c v.x.b.Q.P o.Q.z.S.x._ e.M./.)./.! Q V ).U.4 1 ",
"y <.&X:.T y.M.E.M.u.e.q._ ` _ +._ ! _ _ <.q.q.! w._ R _ R Q q._ w.<.~ W W ~ ) ` x._ Q w.x.b.M.M.e.i./.}.v.i.i.M.q.q.8.6.q.i.q.@ % $.dX/.4.>.w././.q.0.f.i.+X`.$Xg.t.u.e.e.).@X#X;X$X;X X X[.XXcX{.N.D. X XD.+.C.A.c.D.Z.) +.c.C.{.[.CXXXc.Z.C.Z.0XB.B.&.=.8Xw.# % {.>Xi.T.i.! o.m _ 5.` ^ x.` +.) T T _ 4.y.w.W ( _ C.S.{.D.c.c.{.!.v.b.c._ ` T T _ Z S D E ( _ 4.( D v u e E 3.w.4.x.w.+.$.+ o c D.x.s.6.,.W O.b.x.v.N.Q.dXdX{.pX{.W.h.`.!.N.c.N.[./.|.D.dXc.dXsX0XD.A.o.c ~ ^ C b.x.w.i. .{.pX6XiXb.v._ w.v..XXX_ S v m.h.4   ",
"p 0.,X7.:._ e.v.v.i.i.t._ _ _ +.^ W ~ ` q.x.c.w.M.y.y.v._ 5.M.M./.i._ ( 0 T T ` x.w.W W w.m.e.e.! i.i.t.x.M.M.M.i.q.Q q.q.q.q.  $ z.8X/.t.<.<.n.[.M.e.i.@XT.$X&X+X/.M.i.M.@XT.T.T.T.'..X`.(.(.nXcXsXm. XjXD.C.D.D.D.C.B.c.c.` C. X>XCXxXXXD.Z.rXD.B.B.@.V.8Xv.O z !.*XM.T.t.>.( F A ` ( ( W _ _ _ ` %._ x.S.` T x.` 4.c.c.S.S.c.A.c.N.x.c.+.+._ _ ) T _ ( W W _ W W D S u e S >.4.4.<.q.@.@.+ O x 8X+.Y Q ,.) H _ +.Q.[. XdXhXD.b.Q.{.{.{.m.v.+.` {.pX|.j.!.[.dXV.{.N.N.N.^ c H ^ ^ H ( n.S.sXS.Q.Q.N.S.+.%.b.{.hXw.A F z.j.u 1 ",
"2./.9XN.e.q.5.v.M.v.e.e.! ` _ _ _ _ ~ ` ` q.w.M.E.M.N.N._ x.w.7.v.t.>.T :.2.Q e.q.` _ _ ! y.e.q.e.E.E.q.r.x.e.w.M.i.e.8.Q W t.1 i gX;X'.v.5.) @.A.N.e.4.)..X&XG.)..X(.v.v.H.`.'.g.T.U.(.M./.N.lXnX{.D.gXsXD.Z.rX0Xm.c.A.C.A.x.].;X<X2XlXOX{.D.eX0XC.@.@.0XpXu.& J sXcXU.i.R T _ _ _ W o.x.4.` _ 4.j.x._ x.b.4.( D.@.T c.A.c.Z.B.A.A.A.y.q.` c.x._ / A W T _ D W 3.` 3.( W e S E 5.<.4.<.q.$.; # B iX..R ! <.4.x.+._ ` {.{.gXhXv.b.[.D.V.b.x.w._ +.N.N.{.{.K.G.H #.N.+.m.` _ A H F ) H @.V.z.Q.v.!.iXQ.Q.x.b.x.{.).5.w.v.A.#.7 1 ",
"C c.qXg.f.e.x.E.[.E.i.e.! _ ` _ w.x.+.W T _ 8.s.7.6.q.i.6.t.t.q.e.y.T >.8.t.q.u.e.q.q.4.e.e.e.i.e.E.g.t.i.7.:.! i.v.M.e.q._ h.3 g *XCX*Xq.4.N.|.N.4.M.e.M.J.).).[.XXN.c.v.G.v.G.i.T._.(.`.(.b.gXnXdX{.hXsXB.D.I A.c.Q.h.M.[..XXX}.1X<XxXOX}.b.D.0Xm.c.) ~.NXY.4 N.VXNX_ { 4.T _ _ _ ( ( c.x.( x.x.w.` ` x.c.4.( x.C.c.c.!.A.B.A.+.P B.S.c.c.C.` W T ~ T T $.o.` 3.3.3.` T D D +.y.3.3._ a.c.* O n 8X$.! 7.i.w.n./ _ w.m.[.|.[.N.N.v._ _ [ &.+.m @.x.v.m.{.{. Xn.O.iXm A _ _ c C F v.x.b. .k.n.w.x.!.{.x.n.v.j.Q.w.` q.W k.n.w @ ",
"E F k.G <.q.e.E.(.).(.r.~ _ c.+.` x.! A T Y 8.M.7.2.q.e.7.t.e.i.i.i.<.t.u.t.i.e.U.i.e.t.e.u._ _ _ 4.7.e.t.t.:.g t.M.q.e.q._ g.5 ,.XXCX:Xg.<.i.{.w._ ` /./.).XXXXOX.X/.h.g.g.i.g.(.[.(.[.lX{.c.H.cXN.iXsXrXB.V.M A.N..X(.M.i.}.).2X<X:XgX;X[.x.` {.0X+.o.lXvXY.w w.BXlX_ 4.` 4.` _ ( D ` v.b.` _ x.c.` c.x.<.>.3.x.c.+.x.S.D.D.!.A.O.@.c.c.c.c.+.E S ~  .Y ` +.~ S E v b W W D ` C.4.4.4.N.W.@ O n 8X@.g.t.u...w._ _ 7.w.W.N.N.N.b.w.Y Y q.x.+._ q.n.{.{.{.N.b.o.( x._ A T c c A o.n.P O.F x.! q.b.N.S.w.w.n.N.e.) n.5.) H.H.- * ",
"1.t.z.<.g.e.e.(.(.).(.e.! _ b.%.%._ Y ~ ~ ! 8.7.e.q.7.:.u 7.y.e.y.M.u.u.q.7.u.M.M.i.M.e.e._ ` w.` _ <.y.5.e.q.W q.q.` e.e.M.U.p <.D.vX>XT.w.x.!.b._ ( ! M.}.[.Q.pXS./.`.q.! i./.(.XX X XnXeXD.D.gX[.c.D.B.c.c.Z.|./.(.).M.i.M.}.<X=X;X{.;XxXN.+.D.A.` R v.NXY.3 8.lXOX_ _ _ w.b.Y Y _ %.c.` c.+.+.j._ o.` <.3.` 5.x.+.4.x.C.^ H @.eXV.@.+.%.C.C.E 9 D ~ , Y  .7 % Z v : D V e ! _ D _ W W _.= # n rXB >.0.u.v.N.w._ _ x.v.w.v.n.v.[ _ _ ! ! R ! q.G. XK.{.c.P +.` M c.~ V C C m o.n.A ) x.+.c _ S.!.b.{ ` w.` q.t.q.v.5.nXsX: * ",
",.M. Xe.q.W [ e.E.).v.i._ _ x.c.C.x._ _ ! 7.t.t.i.e.7.t.q.Q M.M.t.i.i.7.! q.i.M.e.e./.M.v.5._ _ _ >.q.v.x.v.<.q.e.x.M.W.M.W.T.t 7.gXxX$Xi.i._ n.c.+.` _ b.c.C.c.C.c.v.).M.y.e.(./.H.XX|.sXrXA.{.[.iX Xc.D.D.c.N.).u./.}.e.v.}.#XOX`.*X.X(.OXXXx._ ) _ Q y.CXg.1 6.=X$X! _ Y ` S.! T q.x.C.` %.c.C.S.c.c.+.x.` ` c.c._ Y ~ I P F F `  .J @.+.&.%._ W ( Y Z Y ^ v A S A S T V ~ ( ` ~ W Z Y v.7 O z hX(.q._./.[.{.n.w.u.N.x.w.v.b.n.w.` c T R , _ f.n.c._ x.c.o.n.w.+.5.q.( ^ A x A +.~ _ +.x.! _ ` ) v._ _ ` q.T q.2.4.A K.k.$ O ",
"0 w.xXq._ ! _ _ v.).y.g.! Q x.x.` ` _ w.u.q.e.u.y.u.u.e.q.q.M.i.e.i.t.7.q.q.t.q.i.w.M.T.n.w._ ! Q Q r.i.r.M.t.v.M.i.E.(.(.E.'.4 ,.cXvX$Xe.t.t.m.j.>.W ` ` %.c.c.c.4.! i.i.7.' ).(.m.c.Z.sXsXD.[.iXrX{.N.[.M.'.*X;XXX*X;X}.}.G./. X@.OX(.(.)././.v.W ( s.J.vXg.5 M.cX;X_ _ _ x.` ! _ _ x.` ^ ` +.+.c.c.c.&.c.+._ x._ T ^ X.$.4X..M M H M ^  .+._ _ o.o.~ ~ T T ~ +. .F A ^ ~ _ b H T ~ ^ ~ @.- # n iX;Xv.N.[.[.Q.x.N.n.n.+.v.S.S.N.v.` m A ) Y ! a.w.x.x.) m x.w._ ) c ^ ^ H A T (  .o._ A T _ _ ( w.n.T _ ! w.F w.q.D ( ;Xx.+ o ",
"> ~ XX] _ ~ +.v.M././.g.! ! _ ` %.` 7.M.t.Q :.6.t.t.y.e.7.q.i.M.i.M.M.q.t.e.q.] Q 2.<.Y.u._ ! _ _ ,.e.i.M.t.Q e.u.g.E./.G.M.'.t a cXZX*Xg.t.Y.T.t.W ( +.` ` +.` j.` 4.' ' q.7.N.x.c.Z.D.eX!.b.[.[.eXN.v.G.T.T.$X.X(.q.t.M./.i.'.n.[.;X.XM./.G./.).i.q.u.i.lXu.3 M.cXgX_ W _ { +.` ` ! w.N.+.+.@.c.O.+.+.&.C.k._ +.3.T ^ +.B.H J J ..J M H ^ ^ C ( D T T S S Y ^ / N V T Y Y T Z b c C ^ ^ x.2 1 j =.F.q.i.N.[.|.v.v.q.q.w.b.|.{.{.[ _ ^ x.q._ ` n.a._ +.x._ ` c x x F ` H _ C , e +.m.! A ) x._ T x.!.c._ _ n.v.u.g.q.t.>Xn.+ o ",
"j F =.q.! W ! w.n.N._.).q.Q _ ` +._ 6.t.] ] Q 7.Q e.i.y.7.7.e.M.(.M.x.i.g.g.g.t.! 6.] e.v.` Q E ! q.q.e.e.Q q.Q ] /.M.g.g.M.Y.3 v sXnXT.9.,.g.Y.g.q.+.&.+.` +._ c.+._ _ ! ! ( ` _ j.C.b.D.c.c.eXeX0Xv.w.M.u.t.8.M.E.M.f.i.XX).`.#X'.=X;Xw.i.g.M.).Y.i.g.u.$Xs.2 / sXdX` ` ~ +.c.+.` ` x.b._ _ %.` S.c.B. .H ` j.` A ( F ~ S.c.+.+.` m ` w.+.` +.c.` 4.T 9 8 Y A N C V Z T ~ Y Y v Z Z T ~ b.2 * z 6X'.T T r.[.N.w.w.q.n.w.W.|.[.Q.+./ ) +._ ) / ~ Q +.+.) x c F A x W H c _ A ~ ! S.v._ { k.S.O._ x.Q.o.F ` x.n.M.7.q.q.>X[.+   ",
"% / @.] Q :.E w.n.q.u.h._ _ _ ! q.r.1.Q ] t.q.e.u.g._.M.M.M.G.(.[./.(.v.i./.g.e.e.e.g.i.i.Y _ :.! W W q.e.w.v._ ! N.).M.g.i.4.@ $ 8XnXi.:.q.M.M.M.v.+.+.` +.) 4.` >.` ` _ / Y ( _ +.v.n.(.N.D.dX}. X/.g.T.J.g.s.T.M.E./.v./.( i./.$X;X'.M.e.q.e.E.M.M.i.n.S.9.* z eX'._ 4.( ` c.x.x.%.` _ W ` q.~ T ` j.4.5.` +.x.~ / ~ W ` ~ +.m ( _ 4.c.&.^ c.+.4.+.` T Z Y A T ~ b Z Y E Y W T Y Y A v ` * #  .fX-XC Y e.W.v.v.h.g.u.w.N.N.[.x.x._ _ _ ^ b.+.^ ^ ^ ) x.o.m ^ F _ ( ( _ A B ` %.Z.c.x.w.^ x.c.m.N.S.( ! _ F _ ^ C Y 4.gX/.+   ",
"% B b.Z 2.! >.i.v.` x.v.4.x.i.e.i.y.[ q.t.7.t.i././.).E.v.N.M.(.N.[.}.e.i.M.r./.(.E.i.M.H C ` 5.` W ! _ w.x._ q.q.v.(.M.i.+.` O $ 8XfX/.Q u.M./.G.q.( ( +.c.c.<.W 4.4._ ` c.+._ _ ` v.q.N.S. XvXxX/.t.g.g./.i.j.u.q.E._.}.XXA 4.Y.#X=XT./.M.w.] T.(.e.q.` D.t.@ n eX_.! 4.W _ %.i.w.b.r.Q e.n.x.( ` 4.` ` ` c.A ~ T A ` ( m c ^ m v _ F M J M 8 _ %.` W W Y Y T S Y W T D A V Z D Z v A N ( * + J 8X/., ! t.n.v.w.'.'./.v.7.! |.{ _ +._ >./ @.+.` +.^ c +.N.!.+.P N _ ! W v c F +.c.!.D.` $.C.S.S.@. .x._ x.) x F ,.e E /._.O o ",
"a e.D.q.w._ _ F.n.{ { _ ! e.i.i.g.q.v.M.e.9.6.t.M._.).v.N.M.(.N.v.W.M.i.v.M.v.r.( v.E.S...x.w.x.n.5._ ` w.` ~ q.W.E.M.Y.<.w.j.@ % 8XfXG.! ! M.w.A E / _ j.b.4.Q _ ` 4.4.j.` c.c.{ { r.b.x.N.|.cXCX).u.Y.M.i.M.M.T.8./.0.i.OX XM./.'.=XG.u.q.i.e.=X/.M.v.+.D.t.O n x.H._ ! _ 4.v.b.w.!. XN._ Y ( ` H W +.` b _ ` m _ F ` P c x ( V c _ F ^ c.k.b.w.x._ 3._ T S ~ ( T Z T ^ F c T v Z , , x ^ = # J #.v.! M.0.w.M.q.t.U.E.Y.6.q.{.q.+._ W Y R F _ R Z x c m c.{.S.x.H ~ x c Z R c.c.` q.Q.x.b.S.b.S.N.b.w.E W _ c _ <.<.3.v.Y.@ . ",
":.N.gXe.` 4.n.x._ _ w.W _ ! 2.7.9.e.q.M.E.E.e.6.9.g.M.y.E././.M.v.v.E.M.e.i.M.M.m.}.[. X XN.x.x.v.x.x._ { b.n.m.N..Xu.e._ ` w.= $ V.tX].4.W { {.x.E  .@.c.c.4.4.4.4.! >._ W _ ` %.x.c.C.S.(.|.xXCX).E.$X;X(.M.M.T.g.g.g.XX.X(.E./.'.'.M.r./.u.M.*Xi.M.n.` D.t.# z _ G.H ( ` w.C.C.C. XS.c._ _ x.x.A ) ^ ` ^ T ` j.( 8 W @.H W _ c F ^ H F H [.c.w.c.F A / Z D +.~ ^ / F D ~ A T H , $ x N +.# 1 z $.M.M.i.g.[.XXN.g.T.M.)./.q.x._ x.&.^ _ _ A ! Y E e A x.F v.v.v.P A W _ Z W ^ b.w.i.Q.A.b.c.S.N.S.K.{ w.4.W ) ` w.5.` [._.- . ",
"E C.lXt._ _ l.4._ _ x.` _ q.Q a 8.i.q.e.e.e.e./.i.g.g.0.G.'._.).i.v.M.M.q.<.e./.(.E.OXE.N.) _ w.n.i.q._ x.Q m.n.(..Xv.4._ ~ _ = % 4XqX[.t._ c.D.+._ +.c.A.c.l.w.w.4.4.3.W E W x.{ w.b.[.!.N. XxX1X.X'.`.vX}.y././.M._.T.)..XM..X).'.=X}.e.M.7.e.`.v./.F.` 0Xu.= k K D._ ! 4.x.c.S.b.4.` q.x.(.S.b.4.^ H &.) ) c.c.j.>.4.x.N.x.^ P ^ w.`  .k.N.w.3.( ~ ( F A ^ +.Y ) ` ^ T H ~ D T & % x x +.- @ l 5X{.M.u./.|.XX X}.Y.Y.'.M.n.b.@.x.+.C.x./ R ` ! _ j._ _ F _ b.x.v c T _ q.b.m.Q.S.N.pXpXS.+.S.Q.S.K.S.b.c.` ` q._ _ _  X#X4 1 ",
"% ` ;X( 7._ w.e.E Y _ _ ! i.[ T Q t.q.i.y.7.6.e.r.M.`.(././.(.'.'.U.M.Y.i.i.M.M.e.M./.E.w.` H ` ( ^ n.` +.N.W.Q.XX}.y.i.e.^ _ # j 6XtXrXx._ Z.I c._ ` ` c.0XS.<.x.<.! 4.<.Q e.b.q.e.W.eX!.N..XgX>X*XT..X;XM./.}..X/.}.=Xg.i.M.).OX.XCX=Xy.e.Q i.&XG.E.y.c.0Xi.= l 3X#._ ( j._ n.c.w.W ! x.w.c.v.c.x.x.c.c.C.@.c.q.l.(.v..X[.w.H j.+.o.+.}.;Xn.F T >.A E Z 7 e C ( ~ Y ~ H P / n x > F x % F = # L 5XhXM.M._.XXgX|.).M.h.#XM.v.0X!.N.v.+.^ ~ R ! ` ) ) +.` P 5.x.w.4.5.` S.o._ m.|.iXx.D.sXsXc.S.iXD.o.N.M.x.x.v.!.c.` ^ dX'.* O ",
"j / .X5.e./ _ _ E W x.5.t.] ! W 7.q.e.M.7.] t.,.a T q.M.v.(.(.y.}.}.}.(.M.(.M.(.w.x.i.i.w.x.^ o.c.P ..b.b.N.W.N.(.u.i.c.^ ..+.# % 5XtX8Xb.w.Z.O.c._ ` +.c.b.D.3.l.x.4.w.` 5.w.c.N.E.!.!.C.M..XXX>X$X'..XOX)./.}.K.i.).'.q.7.'.*X'.T.<X.X/.Y.2.q.i.T.f.u.c.C._ 1 l 5XO.` m x._ w.c.b.` W 4.l.x.v.c.4.4.C.+.c.x.c.` x.M.e.` M.5.F 5.n.o.+.(.).C.+.4.5.c $ > 0 , D T ~ ^ H ) +.^ +.^ / / x > @.: : L 5XXXe.i./.lXXX[.M.r.i._.(.N.b.Q.b.v._ / _ R R [ _ ! w.w.A v.n.q.w.S.{.N.n.v.S.S.S.S.z.S.!.N.+.+.N H x.x.x.F.x.iXb.) _ XX].-   ",
"j / 8Xq.5.W ~ e e ( ` h.u.,.2.:.7.7.i./.6.Q ] a Q ] Q u ! M.w.<.M.}.(./.e.e.y.}.E.e.M.i.4._ P P m +.I F v.v.q./.U.u.i._ v ~  .O % 5X5X8Xx.w.C.D.` ` ` +.D.c.D.N.c.c.c.C.j._ _ b.c.S.D.S.S.i.N.XX].`.).*XOX).).}.`.6.U.g.2.t.g.=X#Xg.#X'.T.2.:.<.g.i.s.e.x.XXt.O k L H F %.` ` c.c.c.x._ +.w.c.c.c.W E ` c.c.C.c.o.w.w.w.q.H.x.3.l.+.3.5.5.Y ` ` _ S e & & x Z Z ^ / D Y W +.~ H @.~ > c ^ $.- 2 L 5X{.v./.).XXXX/.g./.e.M.! _ { ` +._ W ` +.~ W ! ,._ v._ _ _ q.q.w.n.@.b.v.S.N.S.m.N.Q.8XD.D.A.S.b.N.b.5.5.^ +.c.`  .y.dXv.O   ",
"% +.fX_ W A ~ A v ^ [ e.e.8.0.9.8.7.t.i.7.:.Q 6.a :.Q u :.e.U.M.q.e.r.M.n.i.q.A i.g g.i.F x.` ( c o.b.H H n.w.'.T.x.w.( c A ~ O j 4X5X#.^ N.S.Z.+.^ _ +.c.c.c.x.c.c.c.x.( Y W 5.` +.D.D.C.b.n.[.M.u.e./.}.v./.;XM.Q :.,.,.t.q.#X_.i.`.g.g.6.a f u.i.e.! _ ;XD @ > ..n.T +.+.` %.c.B.O.W c.c.c.o.m m _ ` _ +.C.D.!.k.[.O.H (.x.( XXk.^ x.N.H c v A T v $ > > 8 c T H T ~ Z v k j k x j ^  .X.O O L 7XV.k.}..X.X`.u.u.T.t.w.w.^ ( o.c / / ~ / _ _ ! _ ! W / _ ,.! w.5.w.D n.w.v.v.Q.{.S.!.!.$.c.A.A.S.S.m.4.T j.( +.x.>.4.{.u.= o ",
"z ^ 8X~ W v A ~ Y ! e.! e.i.e.g.i.M.i.g.7.a :.q.:.Q ! Q 2.t.e._ ( 5.u.q.M./._ c e 7.g.g.C V i.Q >.A w.H n.` ( M.v.` ` F F m x # % | 5XV.x.` D.b.` ) ` ( ^ c.Z.C.&.o.+.T T ( ^ ( ( +.A.c.` c.c.b.` v.q.v.v.x.M.(.e.1.1.8.Q q.y.g.g.q.g.6.t.2.W 1.t.u.y.7.t.=X9.. g ` k.! _ ` c ~ ` +._ w.x.` ` %.c v _ +.` _ _ c.cXV.[..XC _ (.B F [.P o.c.4.C c x C q & S Z v q D H v T D > Z c x N j % z X.$ + P 7X8X{.).).M.M.u.g.Y.u Y n.m H H m ~ ~ Y Y Y Y ! w.W i Y S _ _ ` _ q.<.q.5.n.n.N.!.S.!.iX@._ w.x.! _ q.W T ~ ~ c.C.W ` pXM.= O ",
"n #.8X7.! , w q.M.q.,.q.q.M.e.E.M././.g.>.Q a :.6.q.6.<.6.8.u.q.! e.q.A ` e.^ 8 E A 8.7.C e.q.Y A ` _ x n.H c *X).Y W _ ~ ^ C O % $.5Xc.` Z q.cXgXW W ( _ D.C.Z.o.F A V ( _ F ( o.+.c.c.( c.+.x.x.w.y.e.M.q.H.w.T e Q 7.2.<.q.g.<.,.<.2.7.1.1.$X*X1.Q 7.9.#X0.1 ,.m.) E E : 8 XX/.u u q.E Z > ~ T A ) 4.` 3.W E. X1Xn./.N.F M./._ ^ c.m c x A _ ( e > > v % & q T v v H ^ Z D j.A Z v N b ^ = @ B 5XD.{.E.).ZXHX:X<.f.W A Y _ m ^ N / v T Y u Z Y T 2.6.f i R _ A S Y +.` x.b.n.x.#.C.x.S.b.x.5._ W _ ` Y u q.v.q.! ` _ XX/ + O ",
"$ M 6X] T u (.t.U.:X:.q.g.E.t.}.(./.g.7.7.1.g 8.u.6.a 6.s.g.Y.i.q.,.F A _ t.u.W A e y 7 a 8.Q ! _ _ V A m.q.CX2X}.$Xu ~ ^ ~ b O $ @.0XB.^ 4.SXnXXXXX8 A ( _ _ 4.F ` D A 4.4.W _ _ ` +.+.c.$.+.c.j.R 7.a.w.o.( ~ Y e E ! i.q.q.W ( D Y W :.,.*XY.=X<X5 S 8.*Xs.. u ).;XW E b.vX0.).J.Q i.u u 8 V _ A ~ _ 4.` W ( v.XXH M.(.F T v._ m +.H m H F c b E k x > j > V v T / ~ Z 4.{.n.K.w.> v v H * * 4X7X` ` i.LXLX#XCX=Xs.q.,.Y / j H m q.Y T u 0 u u f ! 5.W :.~ e Y E , _ x.` ) S.Q.N.i.S.b.b.b.!.iX+.R T u i.)./.ZXt.E e.v.W O   ",
"j  .pX` :.T .X1 a 2X8.u t.i.g.(.}.E.e.7.Q 6.' t.e.a ] 6.6.U.U.+Xq.9.0.Z 8.g.9.t.,.Q : > :.a e ,.w.~ w W w./.2X4 i XXW v E ~ c @ $ 6XnX#.A i.GX<.<.FXH Z W i.}.(.4.D <.q._ ( ( o.j.c.q.%.Z.$.@.b.b._ W 4.l.j.( ( ^ T _ +.) x.v._ ( Z _ ) u 7.#X3 Q CXp ,.e.$Xs.  e XX>XZ > XX/.- E nX7.e.e.Y x A A N ` ` _ _ ( v.H.}.M.E.[.N.m ^ %.H b F m P  .H F ~ m C A b c x A / @.v Z N.w.7 A {.: x x A - : 4XwX=.o..XUX#Xp s.CX6.v._ @.@.+.m  .{ :.q > 9 0 _ 2.x.y.l.q.+._ T Y ~ +.q.x.) S.N.{ ` S.n.D.iX!.!.D...^ +.lX9.e {.-XQ x.Z.( O   ",
"% _  X_ ! _ ;Xg t.CXy u ` r.q.i.(.[.v.8.:.Q _ ! _ ,.q.6.:.g.0.8.E E f e ,.,.7 g t.1.: V Y ! <.u.D A 0 W 4._.>Xi T eX9 > v N F O j L o./.! _ FX4.+.FXG.4._ l.lXgXN.( b.y.4.x.x.c.S.H.H.S.q.c.S.!.pX`.u.4.e.w._ x.` ` x. .~ w.M.w.` x.+.) D p *Xg i.2X3 1.x.'.0.. 0  X.Xw._ e.;X<.A.XXi v.M.A x T x F +._ _ ` n.n.(.M. .M.XX[.c.M M ` ( +.` m M m H @.H H ^ x c c c.{.rX+.( m.S.Z D.K.* ( @.V.- : L 7X4X .x.1XHX}.xX#Xi n.) V.0Xn.) / _ ! W ~ T W W w.XX`.s.u.j.v.c.@.8XsX0X{.S.Q.Q.!.S.N.{.Q.S.Q.{.S.+.@.~ ).h.,.NX_.Q x.rX+.O   ",
"l c J.E ! Q 8.#X=X0.y ` v.r.q.E.}.M.e.e.7.T Q 2.,.,.' 7.q.x.e.] E i ,.u > q > e E t.,.8 Q e.q.7., S Z _ n.Y g.-XiX! = ^ c F N o % K XX'.w._ {.nXnXv.E D.F  .%.c.b.( _ 5.3.4._ x.N.` x.x._ 4.x.D.XX[.y._ _ Y T _ 0 V ~ ~ b Y , e ( o.Y F Y : >.M..Xg 5 ! q. Xg.* T fXXXe.! u q.&XG.d 9 ! w.<.e e > > F T W T C > e.E.}.e.5.) w.m m ~ ~ _ 5.M ^ c x ^ H c k + x T c.rX+.+.@.Z N.S.D.e 7 T !.gX- $ 3X7XV.q.x.7.>XCX#Xh a <.Q ` v./ %.n.Q W ! _ T u a 7.! q.e.Q Q :.~ x.x.@.S.V.C.b.4.[..X/.N.n.w.b.S.x.w.x.Y E ;XCX<X,._ ~ m.w.+ o ",
"l | sX] Q Y u a 3 0 e._ v.E.M.E./.y.5.e.2.Q :.s.g.u.q.e.v.` e.[ u Q 1.' , > > S W M.q.Y p.p.2.Y ! _ v _ 4.u f :.- : q.n.c m m O , iXCXG.{ x._ E u E c.b.$.+.+.` ` W _ _ _ ! 2._ a.n.b._ ` ` ` (.).v.q.E W A ( ` ~ A D T v F Y , A w._ D , q : 7 * w a Y f.N.u.1 q.fXM.:.f Y 2 * 2 9 E ! q.7.u E E E x x Y C Z ~ ^ ).^ A x v T ~ c 8 C 0 ~ ^  .F ^ ^ _ c A Z _ 5.N.` +.) ^ ~ v 0 = 9 W _ w.-X4 + 3X7XJ ) M.e.a 5 5 Q ! ` [ _ ( A ,.e.! q.y w y i :.,.] W Z 3.q.W ] ,.,._ w.N.m.w.q./._.U.v.w.5.x.{ y.b.b.w.Q y d y R r.q.x.M + o ",
"z ..{.6.f 9 ; ] ,.:.t.q.q.v.t.i.e.i.[ ] a :.Q s.Y.g.U.g.y.e.q.t.M./.q.s.a > v q 8.t.u.g.s.p.8 F 7.2.A v e q Y D _ q.W T ( n j @ p /.vXn.9.v.N.x._ ` c.x.{.c.o.b._ W +._ W ! 7.:.Q e.N.N.%.n.v.).).y.q.Z T ~ _ _ W D C A Y D A E w._ ~ W q.D 7 q R T f 9 6.=Xu.1 ] sX(.W f a w E E ! D 4.q.W e Y ( T 0 C / Z ~ ( ( e.) w._ e.4. ._ V v 0 ^ ^ H / / ^ +.( _ 4.w.v.m ^ @.` ( ` +._ ` +._ _ t.(.- > 5X7XB  .o.^ ! q.` ` 5.M.v.N.e.:.f f ! e.W W T g :.Q Q Q v :.u ! g.! Q e.N.S.x.e.i.`.E.e.M.(.S.N.w.v.S.` q.b.Q 6.e.q.u.e.'.F O o ",
"j J dX:.,.<.q.q.:.:.q.e.g Q 6.q.` v.x.` _ 8.8.s.i.i./.`.M.e.i.g.G.G./.g.6.' u :.6.8.8.s.e D >.f.q.( E 7 0 E :.Q p.7.Q f :._ p . y i.CX:XT.M.|.{.i.m.N.{.hX|.{.W.t._ _ e.e.M.<.:.t.T.'.(.XX.XOXlX,X).W.x.4._ _ w.E S >.W / _ ~ N.! +.n.>.Y u.i.Y M.e.Z W '.;Xs.. g sXXX1.u a :.<._ ` _ ! 4.0 ` m.^ T w.w.W c _ Y _ m M {.(.[.v.+.^ Y ~ ^ ) ^ ^ ~ ^ B P P j.+.N.x.M $.@.@.+.B.&.@.@.+._ Z v.$.7 % 3X7X8XZ.W.v._ q.v.v.^ n. X[.M.q.4.! ` x.` _ W e Y q.t.t.4.! q.M.M.E.v.n.)..X[.W.[.[.)._ ^ M..X!.S.n._ ` S.b.v.v.v.&.~ _ ).t.O O ",
"+ +.lXH./.&X$X'.'.'.`.'.#X#X:XXX}.=X'.T.].*X'.=X=X:X2X2X:X>X2X<X:X;X:X*X*X*X'.Y.t.u.T.g.g.<.E g.5./.E i V :.6.a f 7.t.7.,.].U.. f .XlX=X*XY.'.`.;XvXhXcX;XvX'./.h.M.'.'.}.=X*X_.T.Y.'.;X-X#X;X1X>X$X'.5.m.M.u.w.F _ i.4.W.E.;XXXF.n.(.h.A ! $X=XT.'.g.g.Y.=Xs.. 1.vX_.`.'.T.M.'.`./._..XXXm.S.b.b.F +.+._ F F A m.#.V.A.4X0XxXXX/.+.k. .I B.m.P rXB.0XZ.0XD.rXO.z.8X8XV.Z.iXD.D.{.XX@.@.6XL $ $ 3X5X#.#.=.[.n.H.'.}./.#XXXXX:X).i.E.U.).$XM.g.8.0./.:X'.G./.).N.v.b.N.O.@.v.XXxXNX$XOX!.Z.Z.vXlXsX0X5.M.G. XCXeX#.4X#.#.J w.O   ",
"q.t.f p w s w y w 5 w w w w g w 0 f w 3 - 0 u y p d p 1.g a a a w w f w w f w w w w d f p 4 s w y d y 5 # p w 5 5 y y w 5 4 s.. :.).,.4 t 3 3 w u 0 0 Z Y 8.6.g 4 w 3 w w w y 5 1 1 5 f 6 1 t f p 5 5 # = < = = * @ O       i * - 7 9 2 # 7 5 g w 3 3 3 t 1 - @ e 5 * 1 4 3 1 6 w 9 : 9 p 9 + # * # O : # O # # # & & & $ + 7 w w w $ < w e e $ 9 8 9 : E E i e E Y # , , u % 9 > : $ $ % z j % K % % % $ $ 9 0 5 5 3 w 5 4 f 3 1 3 3 w 4 - - = 5 - w 9 5 * $ = + & = : $ + & v Z 8 8 q 0 p i f p :.a p 9 q % > % Z f u % c # @ ",
"g p y w 6 6 0 t 5 3 3 3 3 * w t t T u Y 0 0 , 0 u t 5 w 6 y a p w 3 2 1 3 5 3 5 3 1 1 @ w w 4 w 9 u 0 - - 5 3 1 1 1 4 4 3 1 3 4 W 9 w 3 3 3 1 5 9 = # - y a g d 1 3 1 . 1 5 . 1 1 1 3 3 1 1 1 5 3 1 . o   O + O o o o     O j + $ $ + $ * y w d w w 6.8.9.3 o o o @ 1 . 1 1 7 w 3 O O + O o   O o   o o o   o o o o o   + + o 6 5 4 * # = o + + + + + + # ; $ + + # = + # & # + + + O + + + > _ - @ + + + # - 3 1 1 1 . . 1 1 1 1 1 1 - - = * * * 5 5 1 1 @ o O o O O O O O O O + $ + + 2 t 6 4 t 4 3 t 2 @ = # O 1 1 3 1 1 w w ",
"e.GXVXXXE.}.hX(.g.i.g.g.*X).OXgXW.E.v.(.oXW.M.E.r.g.}.w.i.XXhXhXgX[.E.v.W.q.b.+.{.xX.Xc.D.cXrX+.|.pX[.cX|.M.v.` :.x.[.OXb.F NX*Xw.[.e.e.q.e.7.x.v.n J +.C.n.s.8.t.,.q.[ q.M.7.6.Q ,.9.5.T l.:.q.2.W ! Z x c n x ~ o.v b A e B v ~ n B +.! e.E.r.` W.rXC.jXtXJ % k #.D.q.>.5.v.v.o.k T +.O.N :.E Z ^ ^ c c z z l j l J l l l n iXXX` H A.D.H +.J J j J L L 3X5X3XL L J J B.n.[.V.J J n J | A.XXU.W.M.N.Q.Z.x. .M.v.M.E.+.x.M.E.W.M.w.=.x.c.%.` c.c.M.W.v.&...b J J M I J I #.| J J c z ..c.l.3.t.M.5.D $. .[.XX/.e.7.Q c.v.).r.Z ",
"f cXIXPXPXLXLXGXSXPXPXHXPXGXPXLXGXZXNXSXZXAXSXLXGXSXPXVXJXPXPXPXPXPXGXDXjXCXPXPXDXSXNXLXDXDXDXIXPXDXqXLXDXfXZXNX=XNXFXFXFXJXUXQ H FXZX=X;XXXlXBXsXnXZXGXvXvXxXlX>X;XxXNXZXcXxXS.[.1XCXsXlXiX$X=X*X:X;XXX].gXgXgXgXCXCX>XXX;XBXgXhXVXlXVXNX;XVXBXGXLXGXFXFXDXz + n DXPXNXgXvXvXCXVXcXvX8X6XxXhXNXxXnXVXZXZXcXnX8XqX7XwX7X5XqXnXkXFXfXqXHXHXqXlXHXqX8X9XkXDXPXDXIXIXGXGXLXPXtX3XtXmXmXkXDXPXPXY.a gXJXFXqXz.VXGXSXVXPXPXPXLXLXPXPXGXSXZXcXBXcXBXBXGXGXPXGXVXMX;XGXsX#.5XkXkXqX8XDXDXnXDXDXkXDXPXGXSXnXvXPXGXVXFXGXSXSX2XSXSXLX~ Y ",
"e ^ kXcXNX}.BXCX'.'.=XT.;XCXHXVXlX;X;XxX>XlXXXxX=X>XCX;X>XNXAXVXZXnXZX#.8XCXHXxXlXZXCXvXFXnXVXVXBXXXnXVXVXnXcX$X).xXZXZXcXNXCXT ~ xXHX$X-XxX;XgXgXNXsXxX$X,X*X,X'.T./.[.;X_.T.4.y.$X-X X) ( _.'.Y._..XM.c.x.A.Z.~ 4.` ~ ( c.sXV.=.$./ ^ r.q.+.+.C.B.|.w.x.lX+ O F GXZX*X$XXX|.{.eX(.N.(.n.H.w.n.A...N.c.N.S.4.x.k.dXiXI @.#.#.K A.$.k.4.k.cXk.j. XlXB.{.0XFXnXDXmXNXnX0X;XsXL =.sX8X8X|.jXJX9.p iXPXBX X#.jXBXXXOXgXcXNXNXNXVXVXBXBXlXgXNXlXMXMXcXVXSXZXrX!.|.BXxXS.|  .6X .+.XXsXV.pXVXFXNX.X[.XX.XXXxXgXc.w.y.q.M.g.! .X{.T 9 ",
"7.A qXNXY.T.OXe.U.8.8.g.T.).OX(.M.9.6.u.E.M.t.i.y.E.OXE.E.E.(.OXgXgXOXR.SXXX XQ.(.hXlX.XXX ...) Z.j.Z.C.y.vXS.q.Y ! Q..Xm.m.dX:.Z cXvXf Q q.q.x.+.c.+.[ 2.q.W 7.:.g Q ! ( 1.t.<.t.g.y._ :.7.:.e f <.! Q A D A A v E 2.W e _ $.~ ^ +._ / M.M.I _ W.S.c.+.+.XX= = w.nXlXq.>.^ ^  .^ Y S e E E S W _ x Y _ ~ T S 7 4.! _ x.^ x n k C ! -.S x v.G A H k.v.H x.cX+.+.C.m.o.J +.( P ^ @...x.v.iXZX,.a iXGXv.M.+.b.W.v.v.b.S.W.S.&.C.c.C.S.&.W.C.x.C.~.!.gX|.Q.@.~ ^ !._ ! e.2._ W Y q.w.M.XX(.M.U.M.E.g.H (.oXOXy.r.e.e._.g.s.q. .& 1 ",
")./.VX}.w.OXv.t.g.s.T.*X'.T.i.g.g.t.6.t.M.e.q.y.i.(.;XE.).I.i.S.[.XXN.b.CXA H |.}.W.S.|.gXm.N.D.gXcX|.` }. X_ :.f :.M.[.}.~.lX3 T gXvXq.5.v.v.+._ { o.q.q.q.! S q.e.q.4.W 6.t.s.9._ ( 4.W :.2.Y e Q 6.1.Y Y Y A _ Q Q 4.! ^ ^ ( ^ ` x.w.c.W.C.x.v.P H &.+.D., * e.gXcX_ W +.+.+.^ Y W W E S C Y c > W F ^ ( W ` +.T 5.x m m x m m W _ ! D ` P ^ A n.[.+.b.;XM._ x.b.F 4.x.q.e._ A @.O.M.(.nXi a sXGXv.v.(.[.W.v.v.W.W.S.c.+.&.B.&.b.C.v.c.x.Z.|.{.|.|.c.) ^ A ~ _ ! _ q.a.Q f.e.r.E.gXW.e.u.N.}.E.9.(.OX(.] 8.e.w./.i.W ( H - w ",
"o.A.GXCX[.q.x.>XCXY.6.Y.T.).T.g.U.i.e.t.g.! ! e.e.E.OX/.).(.w.x.W.N.^ pXxXA (..XoXN.c.(.|.E.N.}.eX..$.T k./.6.s.T.,.t.OXOXlXNXt _ gXS.q.x._ &.xXG.S _ e.7.f 1.2.q.q.x.M.i.t.1.g.t.Q W i.W S ,.>.v 7 6.,.i ( _ W ! q.e , e ^ ^ ^ ^ _ v.M.C.x.XXCX'./ Z x.x.|.0 * q.sXcX` 3.( A.gXv.7 T _ _ ( A W ` _ ` ` _ T ) ~ > H M k c k c c m _ _ _ _ ` M b Z w.+.+.b.XX(.w.v.).0 Z _ _ xXK.` ! ` +.x.9X& : hXZXq.v.).E.;X>XU.+.C.x.+.c.v.c.b.x.x.c.c.&.W.D.|.gX|.D.%.^ Z T Q , q.7 :.1.g.e.t./.oXg.e.).OXhX.Xv.E.|.E.c.bXHX'.e.(.M.5.M.- 7 ",
",.D.DX0XW.' CXHXY.g.a a T.T.T.T.Y.i.t.u.v.e.E.M.r.(.MXoXOXoXE.OXyX|.^.CXxX<.XX|.|.w.W.OX{.Q.N.E.M._ sXW.P 4.1X=XT.<X1.M.cXMXCXt _ gXcXM.v.x.NX].}.#Xu x.q.Q Q ,.q.q.q.i.i.4.t.M.^ D W <.A E 2.E S 8 Q ,.e T _ W S Y Y e e ^ @.v H @.v.` %.v.HX#X=X:XW B.m.pX, # c 6XdX>.>.5.VX[.[.4.0 +.+.c._ +.c.Y ^ W T T A T D @.P x x c O. .n.c.+.) +.c.^ ` ( ) H P C.{.D.C.C.E.( Y Y S.gXg.gX(.8 b &.9X: $ L jX%./.e.;XHX:XCX/.x.W.+.+.%.v.x.S.C.M.b.&.b.W.[.~.@.Z...m Z ~ 8 Y q.4.Y Y :.Y u./.}.T.t.M.[.M.D.r.(.OXr.1X'.( xXh.7.w.P U.u 0 ",
",.).VX:X[.g HXM.Q :XT.Q T.T.#X+Xg.U.g.t.i.I.R.M.r..XNXOXoX*X_.gXgXgXOXNXlXw.OXiX|.)..XgX!.k.Q.@.S.M.m.[./.y.HX1 2 2X0._ }.XX;X2 ` jXvX+.^ !.;X, u lX7.e.7.6.7.q.q.W q.` e.( ( 5.x.u.t.t.F <.T.) _ C g.w.Z S W W A _ 4.! ~ +. .c x @.Z.v.c.xX>Xw _ ZXE &.@.Z., + j 6XiXE S XX.Xb b  X9 +.c.c._ c.j.W / k c +.m F +.P ^ A , ^ c._ y.k.J H A.C.` x.b ^  .H m n.V.c.c.D._ ( Y XXe.9 m.0X* ( {.lX: + ..DXE.i.r.HX=XW E.CXe.W.c.C.&.x.x.x.W.v.c.W.W.@.O.#.O.#.@.&.^ F 7 W Y ( e.r.( ! M.E.XX).x.c.W.M.E.e.W..XE.CXd.: ^ &X8.M.[.'.Y 4 ",
"6.lXSXNX|.a CXbX(.HXd.] /.T.M.g.e.e.t.u.L.e.7.g.Y.).MXCX1X).Y.gX^.(.[.BXgXF ) W.}.(.(.N...P  .H N.t.A A.2XT.2Xh 9.HXg Q XX~.;X2 +.VXlX_ ^ _ ;XQ <.lXp u.:.7._ q.q.` Y W q.q.t.A ) <.A U.M.G.5.W Y A t.w.e e D e e _ _ S ^ +.@.+.! +. .j.C.(.CX[ iXlXq  .N B.> + k 6X0X2.E M.lXT _ H.9 +.+.E ~ v.c.{._ Y @.~ v ~ ( ) ~ +.Y ^ F ~ ` m B m c.` _ q.4._ _ _ W w.D.n.x.+.^ W > ) .XE S.M.9 n.x.lXq + =.GXq.q.v.=X=Xq.;X1X[ [.c.}.C.%.C.M.|.C.M.C.E.C.B.Q.&.C.+.@.~ Y e w Y A q.q._ _ (.i.[.M.E.v.M..XD.i.n.!.(.<XH.>.A.y.e.N.W...T 4 ",
"n.xXJXxX}.,.U.&XCX*Xa g.).5.F ( 7.u.i.e.e.g.U.g.I.E.gXM./.1Xi.gXgXg.;XlX|.W  .W.}.E.)..X .F A F 5.g.) S..X;X'.<X<Xd.w r..X.XS.a M.cXgX~ ~ e e.5.).2.u 9.:.T _ j.M.5.H v.! W a.q.H o.m.N.q.M.w.A ( A A q.E e 9 w g f p e ` _ b.{ q.b.) %.@. .N.OX.X,.N  .^ @.7 @ j rXD.>.2.u .XXXH.E :.i.q.W ~ N.Q.+.V v ^ Y +.j.` +.N ^ F N F F e > P F c.c.c._ ) _ _ _ 4.w.` ( H.!.^ Y , , y.XXw.e E Z T lX, ;  XGXe.t.v.q.:XCX2Xu.x.W.+.S.!.c.C.W.}.c.S.x.B.Q.!.D.C.C.+. .~ S A Q >.C T _ ! u.i.Y.).t.M.E.W..X=.q.k.Q.~.e.&XbX,Xg.j.H v.` T 9 ",
"e.cXJXxX[.,.2.+.] 7.`.).[.(.` ` C E.E.t.U.T.r.e.M.W.xX(.e.).>XOXoXi.xXOXgX4.W.!.Q.i.[.[.Q.v.F C >.5.V OXCX;X! ! d 4 7.E.E./.G.] q.(..X~ ~ W v q w e :.a W ) v.x.v.v.x.q.e.7.W e.( H 5.5.F ).t.V S A E e.2.g w u a a g q.N._ C.x._ b.%.x.C.X.U T u ( c.=.C.eX, O j 8X{.S E >.~ D 9 Y i.i.U.q.W _ ` ( _ ) Y v T ( +.F ~ A x m ..^ _ ~ @.@...+.+.+.( ` _ _ Y 5.w.T (.hXc.4.[.v.v e - x v C F XX, > [.ZXv.i.v._ ! ] <.` x.x.+.W.^.b.C.W.D.M.S.C.S.Z.$.=.S.Q.q. .! Y C T f.T ( ! p.f.u.J.*Xu.v.E.E.x.%._ C...@.x.! 6.,.E.v.v.[.XXW 0 ",
"q.cXPXvXW.e.g.OXeXW.}.M.( E.M.[.` E.T r.=Xe.M.i.E.W.xX.X].)..XNX}.).cXMXcXx.v.S.v.M.i.j.#.v.e.i.t.>.G.>X( p.t.e.S S <.E.E.i.*X! [ E.OX_ _ 4.4.[ 2.7.,.:.( T n.M.q.W ^ _ v.i.F F C A M.^ H v.Q 1.g 1.g.s.g.! f ! _ Q 8.v.E.M.b.b.b.C. .+.=.=.@.!.%.@.S.eX8XeXW + j qXiXY >._ W ` ^ 4.M.y.i.x.q.+.Z.+._ ` T T b A v H F ` Z ^ +.c.x.m ~ _ ) o.c F ~ ` ` H F H 5.4.A.z.( 4.v.` W ^ ~ T A c H #.e , dXZX<.i.v.b.` x.v.x.+.%.P.Q.|.W.|.M.C.W.Q.[.[.C.c.` C.M.^ +.Y S 8 S v > Y <.9.g.J.M.(.r.i.M.W.e.%._ %.Z.b.Q.M.` ( M.( n.W..XW 0 ",
"C.BXPXNXE.e.oXMXOX(.).F H ( D u./.+.j.;X'.E.).E.E..XMXOX;XxX.XSXcXM.lXNXA.M.OX!.e.E.F x.#.` e.t.v.t.-X'.` q.9.s.f i.9.i.}.i.*X( ] N.B.] ] ' 1.Q 6.:.:.! v./ ^ x.W F H x.c.M. .A c C W C ^ ) x.f.e.:.g.s.u.2.1.[ v.q.e.E.(.}.v.w.b.=.o.eXrXP.=.8XV.C.8X8X8XB.W : k kXsX^ ~ 4.Z.B. .T M.E.(.XX.XS.B.c._ +.` H b x ^ _ T c.x.C.c.4._ C E E w.@.B H ` ` ` %.^ P H o.k.{.v.4.` ` E 4.W Y T x ) {.> : N.ZXr.v._ ~ q.b.W.x.+.C.&.@.c.D.oXi.Q.b.pX[.|.D.eX|.c.%._ @.W _ V W v.W.` W Q [.|.n.[.v.v.E.XXE.x.] M.~.}.E.(.M.F M.i.w.E.{.T 0 ",
"r.cXLXxXE.i.}.cXlX).(.v..X'.m.) '.W.).(.I.).).E.E..XMXOXNXxX+.A.OX.XcXHXBX[.[.D.W.M.w.S.w.C ( v H  XT.'..X^ C ` t.@.A v.OX`.=Xu 0 c.n._ ! > x w.] x.eXv.x.M.q.W ! i.C x q._  .A x S W ( _ ~ +.n.v.s.1.s.7.t.8.:.q.e.i.[.[.x.x._ / b.=.B.!.V.&.*.eX|.S.sX8XB.T $ j {.{.T F ` qXz.~ T x.[.}.XX}.N.w.c.B. .^ T x c o.m A c.+.+.j.y.v.x.S A P M M B c.%.F m B O.@.c.A.{.{.C.c.+.! c.^ H W { {.{.: * S <XM.i.Q ! ] q.W.x.+.D.^.D.^.rXpXc.MXeXOX.X|.~.gXgX . .! +.Q x.A _ S.D.x.x.r.sXhX` (.i.v.[.gX[.q.q.v.x.v.W.(.M.+.E.E.+.x.OXu , ",
"w.gXGXxX(.E.OXOX}..XN._ XX/.N.;X}..X.Xn..X).).E.E.).A.XX;X.XW A.S.m.gXvXSXNXlXlX.XE.v.E.gX.Xh./.$X[.).gX|.u.A ^ :.S.t.E.(._.:Xi a OXXXW b x c ) 1.C.gX/._ q.q.! Q q.4.C >.8.v.A V C D A v x C x.r.9.s.6.f 9.t.q.7.q.M.v.%.q.e.r.[ x.b.x.b.c.@.=.%.M.b.eX=.Q., & z N.S._ S W 8XB.T F ( .X}.W..XeXD.c.c._ T ~ ^ ^ c.5.c.c._ ` W b.N.S.j._ C.+.+. .B H m P I z.c.+.P o.|.Z.D.j._ c.c.b ( x.A.6X; O C `.r.q.[ q.Q ! (..XD.eXhXMXMXhXgXA.hX.XgXOXC.B.D.gXeX` _ W.q.W 7 u +.c.j.b.w.w.}.H._ _ N.oX.X[.C.r.r.W.M.W.M.e.W.M.M.(.(.OXa 4 ",
"x.gXGXlX(.E.(.M.M.(.N.e.i./.$X.Xj.` E.E.).E.E.E.).).A.$.XX}.xXcXOXXXcXXXVXxXXXNX.Xi.2XHX2X;XT.M./.(.).S.rX_.e.t.s.+.A j.o.).>Xu q.$.XXQ T Q ] Q Q ` x.v._ q.M.e.! C ] /.e.! A A A A E V C c w.E.v.q.0.s.,.0.i.M.u.e.r.i.v.r.E.r.5.v.@.V.=.=.=.=.C.[ { &.S.lXu ; [ hXXX+./ W $.&.~ A A x.[.Q.+.c.c.c.+.o.&.c.J N H H A ^ P x._ c.x.>.x.P Z.B.c.%.m m ^ c.k.A.) H P  .D. Xc.j._ c.Z.B Y ` dXeX$ + W '.e.7.! W Y / W.[..XgXhXhXhXgXgXx.B.|.c..X@.Z.C.}.dX+.M.(.W 0 T f T ~ T ` ` M.) g.)./.(.W.OXhXD.5.~ oX|.W.M.e.M./.E.M.[.xXQ 4 ",
"D.gXmXiXM.M.E.M.b.F ( 7.Q M.S..X(.H M.E.).W./.y.v.)..X@.Q.OXlXlXgX.XcXxXMXOXn.Q.M.h.OXXX).:Xg., : W /.OX=./.q.n.7.x.4.5.c.`.:X0 W O.|.] q.! ( ,.Q ] >.Q :._ i.e._ x Q i.y.A 8 T 8 S ! W T q.q.c.x.4.8.2.s.i.t.w.i.g.E.x.E.i.M.e._ S.!.&.$.=.S.Z.!.C.c.&.&.lXZ , c.kX).` @.F ^ ~ D T T ` +.+.^ ` o.) ^  .Z.Z.F +.P B c ~ H 4.` C.Z.c.B.O...B.c.j.m m H F H $.M ^ D.S.C.XXj.+.+.c.Z.B.+.) {.[.7 + Y .Xq.7.i.x.! c.W.[.gXhXsXeX|.^.MX/.[.O.$.OXD.V.V.N.m.).e.c.H x Y :.u +.e x [ E.! g.T.).(.}.S.gXQ._ #.D.oX(.r.i.M.M.E.E..XNXQ y ",
"iXcXFXvXE.N.v.v.b.A e.u ! t.H ).E.K.(.(.}./.M.n.k.)._.^ v.n.4.XXgX).gXOXMXXXN.N.v.r.v.x.M.G.4.( A 4.( N. ._.) H W M.W.E.XX.X:X0 v 5./.W ! x H Q s.v.! ! ! 2.t.q.w.v.e.u.v.F W W A E 2.q.e.! x.x.2.<.8.,.0.M.v.e.u.q._ v.i.q.e.x.x.Q.pXB.x.C.Q.Z.c.S.D.D.S..X0 = ! gX).] / e F ~ C T ~  ._ D Y ~ ^ +.c.c.Z.&.` j.n.Y A v A ` +.j.F +.C.K I c.D.c.P P M +.^ P P N @.S.P {.N.^ @.+.c.+.+.@.{.OXq o c XX~ E ` ` 4.Q.|.|.pXoXgXD.c.` 0XQ.|.W..X.XW.c.%.I $.+.w.S.c x c T W ` ! ! q.v.i.n.v.OX[.}.P.8XM.i. ..X}.(.M.q.M.M.M.S.XXNX_ a ",
"eXBXJXNXv. .e.q.v.) R Q q.4.F ( e.`.}.M.}./.5.H N.E./.M.N.XX(.[.(.E.}.XXcXc.M.M.r.e.w.v.w.5.F ) g.u.T E. .(.+.H E.b.~.OX(.).*X9 8 ) n.q.! Z q._ 3.N.R _ q.q.q.q.` v.g.g.W C A A ! ,.D F q.:.4.q.a f 6.7.g.M.M.M.g.q._ M._ 8 Q _ x.Q.sX~.Q.Q.eXR.v.E.M.eXS.).a 1 T nXOX] u E W T Y Y S _ E Z >.4.%.` +.~ $.%.W 4.` Y E _ ^ o.F E A M $...=.c.c.c. .P c.%.+.x.B F F +.F v.N.! ( T ` +.` +.{.OX9 + J BXw.W _ T 4.M.pXB.^.|.W.C.F ..E.r.oX.X.XW.x.v.) B | B A 0X/ A C q Q M.e._ ^ H }.)..XXX(.(.@.P +.w.<.S.gX/.E.y.M.E.M.[.cXBX[ Y ",
"w.gXGX>Xw.x.w.%.e.E.R Y _ 4.5.x.' e..X1X*XZ A o.|.[./.=XOX(.M./.x.x.Z.(.gX.Xi.x.e.t./.N.v.v.H  .3.D M.[. .N.(.k.rXV.OXOX(..X-X; > k.c.T c E A H q.E.W.x.q.a.t.! q.f.p.0.f <.C T D E q./.i.q.1.Q 2.,.e.g.M.i.e./.G.7.6.(.q.u Z _ ` E.gX[.[.Q.D.Z.x.E.v.P.!.XXQ 5 _ jX(.T Y Z ~ ~ 0 V V _ _ ^ 5.` _ M.Y Y c.D.C.+.+.+.o.D T ^ ^ ( ( c.V.V.rXc.c.c.+.^ C.+.o.n.+.+.^ +._ +.A.v.3.T _ o.~ H C.}.- # H nX}.w._ Y e.q.!.Q.[.x.M.M.x.N.W.W..XXXXX}.M.v.v./ &.F Z D.A W _ E ! q.2.e.A H /./.c. .).S.H ^ +.v.(  .oX.X'.T./.E.i.(.*XNX! 3 ",
"^ B.nX-X_ n.c ) { M.<.! _ ` M.e.! 6.t.t./.5.F W H m.G.M.M.g._._.x.c.+.(.c./.4.M.v.J.5.;.w.5.W ) ) F F E.j.o.v.v.k.$.(.`.).;X>X: ! A.A.4.` ~ C w.e.c.M.7.1.,.7.a.q.q.8.1.,.f.M.y.D ,.8.M.i.i.e.6.t.t.M.M.M.q.e.Y.J.i.t.(.Q W W ! _ ` hX^.Z.N.W.x.` M.x.B.eXOXa 3 W D.Q.A S v ^ ` T Y T T q.2.t.e.w.k.[.+.+.Z.B.` x._ W ( >._ m.+.Z F $.rXB./ &.&.c.Z.Z.I o.c.+.^ B o.` H P o.T T T Y m M $.dX7 w _ ZX(.x.> F j.v.}..X}.E.M.c.b.|.|.M.+.M./.(.W.c.b.M.|.[.(.e.T W >._ 5.T ! e.q.C e.e.) @.gXhXN.+.S.S.+.^ +.lX.Xi.i.i.g.g.'.NXA = ",
"5.S.ZX1XG.^ _ v.! _ q.7.q.n.W.v.W e./.4.5.u.Y.y.O.k.H F i.T.).).C.` _ e.#._.u.q.A T 5.A W W T _ _ x.C ^ j.x.F b.[.P &.` J.xX;Xw Z W.xX2.T ( _ j.v.Z.q.2.1.1.! f.e.! q.6.E a.8.s.2.8.e.e.e.i.r.q.q.r.[.M.e.q.y.M.q.r.w.x.e.! ! _ ! W sXiX .O.|.W.x.v.W.W.^.lX:.1 Q Z.K.W T T o.) _ ~ Y T Q ,.g.t.u.b.M.m c &.c.+.! T S W ( w.g.T ~ ~ ^ o.@.` C.c._ Z.Z.+....._ ` H o.^ _ c H.0 S W S E T @.lX8.U.J.nXv.M.(.( H E.[.OX|.(.(.c.[.hX.Xe.` r.e.i.5.w.v.%.Q.M./.7.T Z ] e.y.! <.] q.e.r.e.) b.).gX}.^.{.n.M.u.i..X(.E.e.i.E.M.(.xXv - ",
"q.S.JXBX}.w.w.m.4.x._ w.M.(.}.XXq.t.g.W 4.F A h.g.>.5.T.i.).g.g.5.( H x.O.(.U.5.` y.w.D F S S ( ! ` 5.o./.j.H P n.H.N.e.f.[.'.4 0 H.$XA V C >.w.j.x.q.t.! W 1.g.g.9.1.u.i.<.s.7.q.x.v.E.W.M.v.t.u.E.M.x.e.M.v.u.u.e.e.(.i.q.e.Q 1._ c.%.v.Z.b.%.+.W.M.%.x.lXW * j S.V.~ T T ^  .~ Y Z _ q.Q g u.T Z ,.<._ _ ` +.T ( ~ ` _ v.M.H +.+.+.Z.&.Z.B.Z.%.Z.=.c.^ ^ %.` x.w.m ( 5.n.b C i.(.i.q.b.9X>.w M.VXOXi.q.e.e.XX.Xw.E.E.E.(.OX(._ [ x.x.e.M.x.i.(.(.@.( G.u.` >.4.e.7.u.g.>.! 4.e.e.i.}.E.W.}.{.|.v.A.).(.(..X(.W /..XE.E.lX> - ",
"w.z.JXHX_.H 5.w.v.x.x.( n.`.}.OX}.E./.D ( ^ 5.v.) >.U.Y.Y.'.T.U./.x.x.OX{.XX.Xu.q.M.M.>.<.<.F x.) D  . ._.N.H ^ F ` n.c i.[.'.u a M.G.>.x c j.v._ 4.r.! :.1.e.e.u.s.8.t.M.i.g.e.v.M.i.).).M.E.g.i.E.w.e.M.M.t.g.u.q.E./.e.e.e.2.M.S.+.D.R.M.b.x./ ` W x.M.XXY O j C.V.N A T +.Q.v.q.Y ,.g.,.e.i.W F 8 T ( W w.c.` T T _ w.).(. .j.b.pXD.D.D.V.Z.^ =.0X$...o.v ` w.o.c ^ c.E V x ! _ W q.lXHXe t N.GXXXE.e.i.M..X}.v.i.r.i./..Xn.v.M.M.x.v.( v.(.N..XOX}.v.i./.XXw.e.M.e.+.e.q.,.q.! 7.g.}.W.[.sX|.gXS.E./.(.}.M.F w.5.i.M.;Xa t ",
"q.z.FXbX`./.t.M.c.P j.e.w.}.}.(.(.(.}./.U.v.}.H...n.g.Y.f.4.g.'.}.N.W.MXoX(.m.4.q.M.y.F F w.w._ b ) h.(._.y.A A +.4.T ! E.OX#X5 > S.m.W C R ` j.q.e._ _ ! p 9.e.y.i.t.0.e.Q q.q.E.e./.;X[./._.M.Q.Q.M././.E.v.w.e.i.y.v.E.u.1.2./.[.C.C.C.c.C.C._ T W M.[.iXY O j @.+.b v Y v.OX}.i.t.7.T.U.[.5.0./.E Q <.! &._ +.~ T c w.u.Y.U.) K.lXQ.D.V.D.B.J @.B.8X&.$.B.V.@.F x C w.W C c Z Y r R w.>Xg y [.SX[.x.e./.i.v.M.w.e.M.x.E.oX).S.XX(.W.M.5.v.(.@.}.gX(.w./..X$X/.(.W.M.M.E.e.0.q.6.e.M.(.E.r.[.iXgXM.e.'.OX{./.N./.v.4. . Xy - ",
"e.XXZX;Xg.Q.b.b.+.P v.q.4.}.OX[.M.m.{.m.+.n.N.v.g.G.U.'.T.h./.OX/.(..XiXK.N.(.x.v.i.'.h. .H A 9.-.(.G.T.h.! q.W.y.Y x _ i.lX/.5 u (.cX! ` ! q.q.y.q.W _ ! :.1.7.p.e.i.[.v._ t./.E.e.m.[.&X`.m.v.S.S.U.(.}.(./.x.i.N.! N./.M.! t.y.[.iXB.W.+.%.x.c.! _ x.M.{.v O % &.k.x , T ` XXW.n.E.M./.U.[.` 6.'.M.8.s.j.+.( ) ` +.q.u.w.@XY.f.m.A..Xj.c.Z.rX#.@.O.V.@.C.Z.Z.Z.c.H ) 5.T F _ N.c._ q.E.>Xa y N.ZXlX_ 4.y.x.e.[.v.] i.q.M.}.}..X[.(.(.E.E. .N.).).lX}.4.U.;X'.M.E.(.}.M.i.t.'.g.q.e.M.(.[.W.M.S.!.i.g.m.A.E.}.}.i./.(.H l.- - ",
"! .XGXvXY./.x.x.w.m.`.U.q.).OXXXE.[. Xm.c.) +. .U.u.Y.'.'.#X.XxXlXXX[.lXgX(./.+.^ n.N.Y.t.U.e :.g.'.y.w.( 0.D ) e.2.<.F x.lX'.4 7 n. Xx ! q.0.2.:.! x.e.y.M.,._ q.w.q.q.M.j./.}.M.m.b.m.m.J.N.m.Q.N.(.).).).}.(.x.v.M.N.v.M.5.x.W.M.eXc.C.b.+.` x._ ` _ (.cXb = j ` B.V Z >.i.}.[.x.v.b.S.h.N.f.e.N.(.t.9.n.T m ^ %.m.3.M._.T.h.Y.).K.S.A.Z.V.D.Z.k.c.@.o.+.c.B $.Z.j.x.x.w.A x.M.+._ u.W.;Xp f XXBXiX+.` R j.v.v.R.e.r._ v.XX[.E.E..X}.).E.(.}.i./.[.M.XXXXXX[.(.+.` N.v.M.v.M.M.r.r.e..X.XQ.W.O.+.y.E.E.m./.U./.g.E.}.(.}.:.t ",
"W |.ZXCX)././.l.i.i.i.M.[.;XxXXXOXNXxX[. Xj.x.XXn.Y.Y.'.h.m.[.XXN./.N.].iXj.w.w.^ ^ 4.t.g.4.( D +XY.G ( ( 0.E 2.2.E u.F ` $.*X3 p J.$X7.e.g.u.<.:.q.r.5.v.v.>.E e _ >.T ^ ) (.(.M.w.n.m.S.n.n.N.N.[.}.).XX.X XOX[.W.v._ i.v.q.N.XXM.D.x.c.x.v.x.+.e.+.` ( vXq.# % _ b.T ( 4.e.).M.` +.+.c.S./.q.i..XXXM.e.s._ ( _ v./.D C h._.Y.(.i.@.B.A.#.^ ..w.x.D.@.K #.Z. .I =.k._ w.q._ F ) Y q.g..X-Xe : 3XFXiX_ +.~ W o.~ / W ` x.M.}.[.XXXXE.E.v.) m.(.E.W.v.x.5./.).(.S.z.o.m..XN.N.C.v.C.x.C.D.W.W.}.v.j.w././.( x. .}.M./.v.v.$Xf 3 ",
"q.XXnX>Xy./.N.m.e.e.M./.z.gXlX.XlXcXNXXXk. .P {.(.Y._.'.#X[.k. .^ H.n.D.V.A.w.4.~ W w.c._./.M.G.&Xi.,.7.t.d.e :.1.W t.C i.o.h.3 a l.=X7.0.g.0.e.e 2.q.i.%.w.>.,.Y R Z _  .x.(.N.n.^ H P N.N.i.m.W.}.}.}.xXXXlX.Xw.M.E.i.t.u.i.[.[.}..XM.x.W.x.+.x.>.q.~ Z OX7.O % H b.E 3.4.9._.E.+.+.Z.Z.D.*Xv.M..X.X/.(.q._ _ q.w.w.H Y.G.T.u.4.n.Z.I B.@.A.$.c.c.+.I #.z.{.V.#.#.z.b.q.w._ A F q.e 4.|.8X: $ | FXD.` ) ^ @.=.@.) b.c.n.E.(.(.XX}.M.M.(.N.m.E.W.N.lXn.! t.v.n.J.H.(.c.S.(.v.b.n.[.C.W.@.+.^ v.v.c.|.N.(.).w.) E.E.x.5.M.#Xd 5 ",
"x.XXZXXXt.i.M.G.y.i.XX}.o.OX;X).OX.XXX Xn.{.@.` ! _ a.n.H.n.F.n.4.C.c.A.o.O.C.F F T T 4.b.K.M.J.M.u.6.0.t.f.V >.s.W S F ` 5.U.3 p  XvXQ :.,.7.2.u g 6.<.q./.n.! ! R ! _ 4.v.S.N.x.i. .o.m.N.N.N.}.}./.OXXX[.OX{.w.M.N.v.q.M.E.c.M.(.(.E..X}.q.` +.! q.u W T.Y O $ n X.! E 7.g.Y.(.c.B.B.c.D.(.'.i.N.}.[.r.q.,.F x.).S.dX{.F +.w.C.x.B.B.$.I #.D.C.!.[.XXgX XiXqX9XxXO.k.n.T W g./.i.t.e.c.=.; + H sXA.` ^ ^ +.=.b.%.b.x.b.[.XX(..X).}..X(.N.M.^ ^ ^ gXl.t.t.g.M.u.5.(.z.A..XE.E.(..XN.c.c.[.N.5.x..XOXQ.c.)./.v.v.i.U./.Y.:X:.y ",
"! v.BX-Xq.i.y.(.M.).S.'.U.T.;X}.j.H N.N.w.c.^ Z _ W W k.n.v.m.N.4.k.l.D.A.B.@.` ` _ ` 4.4.w.u.v.M.g.g.,.q.0.q :.R W W E F xX'.* : K.CX<.:.6.! 2.2.,.:.! q.e.! :.A Y f.t.f ` v.n.c.v.m.N.N.{.{.W.`.(.O.XX).'.XX}./.w.q.q.r.(.H M.v.S.v.j.r.w.[ W R ! ! _ ( g.$ O k K c._ Y t.).=X[.n._ B.Z.A.N.}.u.u.M.[.7.t.y.F N.}.dXk.I ` b.j.A.D.j.c.n.I c. X+.x.OXlXOX[.^ fXvX$XH F $Xg.e.e./.i._ _ c.@.: +  .nXl.F ~ ` +.$.@.%.` x.S.{..X.XXXE.M.v.v.)..X+.m H .X;X_./.).N.k.j.g.k.O.[.v.(.(.(.v.b.v.[.M.M.E.N.N.M.(.[.h.M.5./.'.M.U.3.> y ",
"j J jXG.6.2.e./.(..Xz.j.w.`.XX_.! ^ W.v.%.o.m T ` v Y A ) c.n.N.w.x.n.!.c.` +.x.c._ c.l.l.! ( 5.M.+Xi.g.Y.9.e ,.f.,.8 : 8 '.Y.. y }.CX/.F E >.Y 6.1.:.q.i.n.x.! 4.y.M.f.2.W x.v.x.N.W.m.m.Q.Q.OX).i.n.[.N.`.N.i.i.q.7.C ` c b N.E.v._ W ( ` _ ! R [ ! / ` A % $ n D.XX_ R G..XXX.X[.v.c.c.c.S./.u.u.i.u.g.M.OXn.g.'.S. .^ c.A.K A.A.K #.S.O.0XhX..w.;XCXCXCXCXZXQ.#Xg.E./.5.( ( /.w.A _ S.V., + H jX5.x S W ) ) ^ ) _ x.!.b.E.OXgXXX+.o.W.XXD...E.(. X(.G.J./.O.O.A.`.N. .n.M.M.v.m.E.M.r.w.M.M.v.v./.w.E.(./.M.H 5.M.M.` -X9 * ",
"j $.vXU.V ,.7.w.M.}.o.n.( 5.`.`.q._ ^ P c.+.H F c > _ ( ~ w.4.j.j.m.v.N.x.o.x.c.+.^ ^ ` _ ` +._ ` M._.s.0.s.,.g f.,.7 Y 7.*XY.X w }.CX:.>.W 6.Q e.! e.E.v.E.5.q.M./.M.i.j.2._ &.x.c.v.m.N.n./.}.'.y.4.'./.t.q.e.q.e.( v x _ x.w.x.5.+.( :.W f :.~ :.Q / _ w.& + n N.S.T q.}.gX(.[.(.[.(. X'.OX/.x.! w.e.Y.v..X}.T.m.b.v.H I N.D.H.n.#.9XO.z.D.o.z.XXVX>XCXCXpX(.N.H w.E.^ j.m ) XXE._ _ N.m.: + ~ hXm.S _ ~ Z T ) _ w.S.N.! E..X}.W.v.v.E.n.N.#.|.[.Q.W.;XT.U.5.n.;X}.[.l.)./.i.v.M.M.w._ ) W.E.W.r.(.).'.(.(.N.v._ 5.M.F  X: o ",
"x k.qX'.e 2.q.j._ q.E.g. .G ) /.A c n m ) o. .F b n F A ) 4.G 5.+.c.x.Z.C.A.C.+._ ( ( ` _ / ^ ( +.c.M.s.g.8.,.,.e Z e ! Q h.g.1 5 (.lXV D >.! q.( q.i.v.E.v.W _ [.i.w.5.1.1.! ` b.0Xc.F.h.E.}.OX*Xh.<.h.XXw.x.}.M.x.W S > _ x.q._ ` _ ~ q.! W T ~ ! Q T ~  Xv + z ) k.7.q.(.XX.X.X[.[.(.XX}.0.0.M.t.x.7.M.M.g.M./.OXP c.^ H I rXV.M.iXiX#.8XD.+.N.gX0Xx.c.A.!.A.D.k.+._ A l.@.m.m.` ~ _ G.H.& + ^ sXK._ _ T Y Q _ ` w.q.w.v._.E.v.Z.c.c.!...S.|.|.w.x.q.(.i.).N.N.).}.[.E./.n.n.v.(.E.G.M..XW.M.(.E.(./.).(./.}.E.w.5.( ! G.4 * ",
"<.`.CX*Xi._ [ c.+.5.5.^ ` G G q.D c x n _ c T ^ ( ^ ~ ` _ ( c.C.c.c.+.&.c.Z.c.+.^ ( ) ( ) j.>.>.A ) H w.p.1.f q.E e w 6.2.'.g.3 f ).;X6.9.A i q.q.q.q.5.M..XN.q.c.` x.Q Q q.4.+.S.S.S.v._..XgX*X*Xu.u.M.i.F H.lX[.x.W 5.x.q.Y _ w.C.` Z ( _ >.T T T Y T R `.q.+ x B.*X6.,.t.}.lX[.W.(.).}./.M.i.M.M.w.r.M.M.g.w.M./.P @.c.c.N.eX8X#.0X6XrXrX#.#.iXrXrXZ.0XiXsXiXsXn.x.+.o./ x B.iX) _ ! n.F.: O B xXn.D Y D A E 3._ _ _ _ N./.M.e.x.H +.iX .P O.[.r.x.t.M.M.)././._.M.M.E.v.j.[.(.v.(.x.) M.y.v..XM.Y.M.E.M.i.M.E./.5.F F G.w 3 ",
"C A.lXXXH H ^ n.5.[.n.q.i.1./.g.W F m ` +.m c v v c ~ ` F T j.C.c.k.o.+.c.Z.@.@.H m m m ^ l.4.( ~ H n.e.u.:.f 8.6.<.1.g g.<XY.1 u V.;Xt.M.q.:.2.W ! Q q.e.i.M.v.x.Q e.e.f.e.q.C v.i.v.M.i././.).-X0.e.u.0.$X;X(.M.q.! q.v.v.! q.i.! Q W / Q :.E :.>.e u T g.g 1 ! [.:X[ q.t.M.E.E.E.i.(./.s.t.q.` q.i.m.N.e.e.w.4.3.k.@.N.c.` B.#.4X4X4X4XeXiXsX0XrXeXD.eXD. XsXD.n.P H x.+.^ +.pXc.F _ n.w.= O c 8XC.~ E u S S x.+.W ! x./.M.e.i.M.)  .[.) m v./.q.e.4.w.XXi.(.M.e.e.q.t.` j.`.}.5.i.3.H /.e.v.N.E.M./.i.e.r.5.H g.q.! 4.=Xw = ",
") S.iXA.M._ w..Xj.W.` / x D M.a.C m x F ( H m c m M M H H M F C.@...&.B.A.A.B.$.P M B M +.3.( N A ^ ) ! g.7.t.8.t.g.t.! M.>XY.1 0 n.CXg./.,.e E :.7.t.T./.i.g.g.v.v.x.q.i.e.] V p <.i.2.Q i.i./.}.(.`.l.5.T.u.s.7.2.9.e.e.x.7.2.6.2.2.1.! ! E Q R :.E Z >.h.6.3 M.;X:X] e.9.e.M.E.E.M.w.M.t.q.r.:.e.(.#.D ^ F A w.i.[.S.XXm.( $.4X6X8X4XV.Z.eXiXD.rXrXeXiXsXsXsXiXc.P H w._ ` x.F x R _ b.@.= O x hXv.A D , :.4.b.q.Y _ i.W.i.q.r.M.q.(.XXE.T e.q.t.(.|. X}.'.T.i.e.i.e.q.e.e.i.y.3.y.g.y._.<.r.M.|.W.E.i.e.u.( D ^ e.! U.lXe < ",
"N.XXcXO.F _ v. XM.x.+.) F W A A m c x T > ) ^ c n n H M H H ..C.c.@.B.0XB.B.V...^ c.c.k.3.T D ( o.o.E 3.i.u.2.:.8.q.q.2.<.`.Y.5 ,.sXZX/.e.q.g.q.:.e.T.g.M.M.g.g.e.q.e.e.7.E ,.] 2.t.n.q.i./.(.M.[.XXN.n.G.u.s.6.g s.6.9.t.e.e.! q.q.W Q e Y W R +._ _ ~ R M.g 3 r.xX:X7.! u.M.}.W.[.M.` W.i.t.x.! M.g.c.` q.<.v.G.w.v. . .m.A.sXqXqX6X4XI P iXdXeXeXsXfXsXsXsXjXhXo.l.(.N.A A M.F x u Y ` =.: O v jXv.u S E 2.! x.y._ ,.q.v.+.v q.! v ! e.5.W W T t.).}.S.(.x.G.M.i.q.q.v A t.i.u.4.q.i.a.` _ q.e.W.i.r.( T _ i.g.F ( 5.e.z.p t ",
"e.XXBXXXq.j.v.n.q.) +.c C ( Y H m F T H k A A v l b ~ m x A H Z.c.k.+.C.c.+.&.@.+.c.` ( ( T B / E T ~ ` x.w.t.u.t.:.f :.Q M.Y.4 a [.vX/.i.e.M.<.W 7.i.e.i.W.v.q.v.v.x.N.v.q.q.e.e.4.(./.G.$X`./.(.M.5.).(.J.q.p.s.f.t.q.q.e.j.! ( _ W >.! >._ _ w.w.x._ R M.:.* Q cXNX4.e.i.g.`.[.lXv.E.v.w.W A _ M.(.N.v.e.q.i.g.(.c...).{.$.8X8X4X4X| K #.iXiXV.V.rXrXeXsXA.4XlXG./.e./.Q.w._ ) %._ W b.V.: + N jXn.D Y S 1.<.w.Q Z _ x.^ ..o.` Y A T q.r.q.W j.e.] Q e.{.).Y.'.g.! J.` v G j.w.C A _ w.e.q.` M.e.i.e.W A A ) u.A W _.n.A.a t ",
"i.{.cX(.e.y.w.e.i.w.b.w.W 3.4.F ^ ~ T ~ A % V v x T F x > j A j.+.&.c.B.c.+.&.B.+.` k.` ) ( T S u S Y D ) w.q.i.i.Y e Y 6.;Xy.3 g OX;X<.(.<.,.e.q.q.r.i.e.M.v.! e.[.c.N.(.v.v.M.e._ 5.M.i./.M.(./.y._ i.<.3.4.1.8.t.7.,.e :.<.:.Y q.7.:.T e R ` ! _ ` >.! E.6.9 >.M.=X7.e.w.g.M.N.c.+.E.^ > p.6.A  .x.e.e.w.Z W t.e.G.).D C.V.#.c.0X#.K 8XA.8X9X0XD.eXeXeXsXD.D.iX}..XM.g.A.+.j.I ) ` _ x.V.: + P jXN.W ( E <.Y Y v > m x.x.n.P ` Z T w.v.M.r.Y ` e.Q i.h.T.}.'.`.s.e.`.T.e.t.) m ) w.` ( 5._ [ _ v.t.e.e.v.i.M.l.E.y./.'.2Xg y ",
"q..XZX(.q.t.t.u.u.e.+./.J.q.g.v ~ o.~ ~ T _ ^ m b c c x Z j Y ` ) o./ &.c.+.C.B.&.D _ ( ` ` E e Z Y v V c c t.6.f Q Q T A dX_ # x |..X<.(.(.e.e.p.7.t.y.,.] t.x.g.).M.i.E.v.w.g.i.i.! e.r.v.M.U.g.q.` ! 7.8.6.f ! 1.,.:.g q.q.:.Q f a 0 >.0 ~ +.` +.N H _ g.,.* C M.T.-.v.u.q.A ( M.v.w.H T :.1.c W v.) x.M.W A w.M.v.5.P +.I P c.Z.rX$.B.H rXZ.c.B.D.eXeXeXz.cXXX).M..X[.^ 4.+.S.x.o.{ x.0X& O T lXA.W ( _ T v , , ~ / _ ` x.^ x.{ T _ b.b.q.! ,.q.w.M.q.u.(./.M.e./.v.G.n.M.i.n.m._ q.( x _ i.5./.i.i.y.(.v.^ @.M.M.H.XXCX,.a ",
"M.OXZX/.e.i.M.M.i.8.M._./.f.n.G ! W w.` q.! Y x % % x v Y x b F ^ o.)  .+.` @.@.j.A _ +._ ~ e q ^ ^ ^ c m x e f f Q 1.Q Z A.F + % iXlXa.v.}.(.v.7.! r.e.:.] q.e.x.w.M.(.x.M.x.w.g.u.i.i.M.(.g.7.6.q.g.q.W q.,.w 1.:.:.g t.i.7.6.,.i _ _ ~ ~ { +.w.N.A.` ` e.7.@ > S.;Xt.g.g.M.n.! w.E.(..Xv.Q w.v T ` x.x.! q.e.( M.w.M./.M.m.+.C.k.C.+.o.C.sXC.Z.V.0XD.D.D.D.sXxX}.M.M.;XN.W ( n.x.` ` x.dX: O v pXN.T _ _ _ ^ ~ W _ T / ` { w.b.` ~ ) b.w.[ ( ,.e.i.e.T e.e.q.i.e.(.e.i.f.v.E.}.4.> W q._ F 4./.E.E.i.i.(.x...w.e.i.x. X>X,.y ",
"M.lXZXOX(./.#X/.M.u.M.g.g.w.x.n.e.! _ T ! c T >.> D c v A b T ~ D Y ~  .+.F ^ ..) ^ ~ ` ` _ ( S ) F m G c 8 A -.! :.W :.Q H A O > iXlXw.4.5.w.c.r.x.x.w.q.! q.q.v.W M.i.i.(.M._ ! q.v.w._ g.i Q t.7.! Q q.w.Q T T Y >.:.:.Q :.p 0 u Q ! e S ! x.[.[.{.x.{ c.g.4 ) hXxX/.g.9.5._ A ` r.M..Xo.~ ) > Z x.q.i.e.v.T ! E.e.i.i.k.(././.w.n.x.Z.C.D.sXD.A.D.A.A.D.N.D.S.).E.;X.Xw._ 4.b.` _ ( x.).= O , ;XM.Z Q >.E / _ _ _ R _ _ Q.F 4.c > x T A _ T E ! i.:.1.q.] e.t.u.i.q.q.q.v.[.n.2.<.A ,.t.t.g.i.i.e.e.M.M.(.m.E.r.i._.XXvXg t ",
"E.cXGX}.i.f._./.y.r.u.g./.u.:.a.f._ [ [ ` Y :.V _ >.v ~ Y > A T v 7 , A +. . .+._ ` ~ V ! E S D m m M ) F x A x C S T ( ( ( u.* ; P  Xr.T >.q.x.v.x.5.M.v.C i.` x.q.v.! 4.n.>.! r.Q e.e.8./.F V 9.M.) 0 >.w.q.R R Y Q _ w :.>.E e Y Q ,.e E ~ _ v.v.+.+.{ S.(.9 q.cXCXG.g.W 0 / F ` +.H c...A x.W W n.M.M.M.M.6.t.i.M.}.E.v.y.G._.i.v.}.S.c.eXsX[.D.c.x.b.N.n.w._ x.`.lXw._ ! 4.w._ E 4.` M.# o 0 -X/.! x.` Q ! ! W { ` b.c.@.P c x > _ A _ _ >.Q y.i.7.Y e.t.u.7.i.e.e._ ` q.n.5.D q.<.A q.g.g.7.q.7.e.i.(.(.(.(.M.w.i.).>X6.a ",
"i.NXGXi.i.t./.u.! u.e.7.M.i.g.@Xq.:.Q x.x._ Y Z Z S v T A S ~ ( > > v b F F ) ) o.) V > ) S E l.F x > V 0 & Z Y ( +.@.+.E /.e.X # P ;XQ >.Z e.N.v.e.e.r.i.H x.` W w.E.) > 8 S ~ x.,.,.,.t./.M.s.u.XXu.S :.6.w.q.>._ _ S , w T 4.,.4.! ,.7 _ q.q.v.v.` +.w.D.(.4 :.cXJX(.q.R Z _ T _ ~ ` c.+.( ( e.N.M.y.g.t.6.u.i.M.|.XX[.).)..X#X'.n.gX[.C.D.A.D.N.+.c.v.4.w.+.+.XX X_ ` ` +.c.n.W v 4.x.z.4 o m vX/.Z _ _ R _ _ _ _ ` +.H Q.x.A Z x x H ~ ! Y _ w._ H -.D A i.M.i.2.r.x.x.( ) H F u.s.U.M.g.<.q.t.q.e.v.(.(.(.o.M.^ M.).<X6.f ",
"y.lXxXY.T.i.q.e.W 6.u.Q :.J. Xg.0 u T ( _ F D ) ^ b T ` ` _ ` ` : , v b v N ) ^ ( T ( S 3.Z A D V W Z > > > > E _ ( ^ F >. Xg.X d J..Xt.6.i e.i.5.F ` M.M.P o._ _ _ _ y.<.e q :.x.q.u.e.}..X).q._ w.,.2.W >.! Y Y Y <.Z S e e Q >.R :.Y e _ ` w.b.v.j.[ n.D.m.- x.gXZXM.q.A ^ ` N N v ( c.` +.e.2.q.f Q M.i.w.t.t.u./.N.`..X X;X)..X{.gXlXm.#.iX@.D.|.|.4._ ` Z.A.0Xc./ +._ ~ +.w.S v Y ` b.- o m cX(.W Y E _ { x.x.x.b.v.` S.c > x _ T ^ ` _ Y ,._ W ! Y A ` i./.G.g.}./.J.P c.P /.q.Z q.i.M.i./.}.M.e.q.v.W.N.z.{.o.n.T.<Xq w ",
"V XXCX'.T.0.t.`.t.Q 2.e.i.M.i.s.Z T F N , v v T ^ T ( +.+.W T _ E A ^ F D ^ ^ H D D G D T T ( D H P C A V V x x W t.q.> x lXT.@ e [.;X2.Q t.` m 5.v.^ i.m.N.Q.w.w.w.4.W Y ( e f e 7.M.M.(.).M.,.4.x.2.q.! ! R R Y 0 e 0 0 > e , E :.Y >.S :._ _ +.j.w.w.e.[.i.+ J fXBXN.w.~ / ( Y Y T _ +.T _ e.<.q.w.e.E.M.e.! ,.s./.;X.XXXXXcXlXXXcXlXlX(.0X0X| +.x.(.N.C.x.Z.C.4.c.+.c.` ~ _ 4.V v V ( G.: + ^ xXi._ _ T _ { 4.` x.x.v.b.x.P ) _ n.Y k ( _ >._ q._ _ q.g.0.8.M.T.).lX.X).N.` 5.e.i y ,.q.! t.j.(._.g.8.e.E.M.w.k..X}.XX1X7 7 ",
":.x.ZX$XY.g.i.-X/.2.6.i.G.u.M.g.3.` N N b ~ Y N T Y ^ +. .0 A H E 4.+.` b.x.+.3.T V & x c E S T  .P G / x W ! D T 4.-.-.u.lX/.* q S.ZXi.1.W ^ x.x.q.a.M.t.i.q._ q.n.y.7.W W e 2.Q :.<.M./.W Q :.q.v.r.W C C :.! T Y e 4 e e e u ,.! S R _ Q Q q.w.[ q.E.(.gXn.# j pXGXXXe.! F ~ ~ ) F F ` ` n.M.y.y.i.i./.E.7.e.7.g.t..X). X[.).=XlXlXA.'.;XsXiXeXiXC.x.D.c.n.w.S.m.N.` c.C.o.` B.` Y Y ) N.- + w.sXN.! _ _ _ _ _ _ _ C x.+.@._ W R q.! x C ~ _ q.v.! A _ Y.t.W Y.7.(.XX.XO.o.w.Y.g.u 1.,.i w t.u.e.(.e.6.Q r.W.(.(.E.OX;XBXg 5 ",
"f u.bXg.8.9.h.[.U.,.u.9.i.i._ _ ~ F v v v Y ~ ` b ; , ^ _ Y Y v E _ _ _ x.j.j.4.) ( S E ( S 7 # D F +.F V W Q 2.4.! 9.f.i.>XT.* 8 XXNXi.e.4._ ^ A q.x x.v.e.q.4.w.n.7.a ! [ e :.e.W :.0.0.V y 7.v.y._ _ [ ( T u >.Y E ,.>.,.e p ,.,.r Z Q _ 7.t.r.r.q.[.OXcX/.= { cXSXXX] u.W n.[ Y A v _ e._.h.`.v.,.( M./.( 6.0.M.5.v.XX}.^ _.#X$XlXO.$X;XBXXX(.A.m.v.(.N.4.v.N.D.{.+.C.` E j.N._ e T 4.`.= o _ rXQ.A : T Z _ _ q.e.i.M.M.r.[ ( Z Q w.! k v ! ~ [ ! x ~ M.! <.g.~ M.v.v.+.( g.u.t.7.t.<.7.Q q.Y q.G.t.7.q.5.x.[.}.v.W.N.2Xw 1 ",
",.+XZXi.2.0.i.v.q.e.M.q.4.4.W ^ x E E T A T _ +._ k x Y ` ` T ~ ) x.4._ 4.` +.k.) E T Z x v > x 4.D ) c 8 0 i q -.,.,.f 2.t.s.1 p ;X1Xg.w.v.t.5.e.q.! _ q.q._ c P F C ! 4.2.W T Q 2.G.).w.,.D x.q.Z F +.H _ 4.e.v.! T _ _ ! >.Y T W ` _ ^ ) q.t.! x.v.x.M..X'.4 x.ZXJX[.! e.N.[.,.q A v.y.i._.Y.v./._ H A G.w.<.^ {.M.}.OXg.'.=X;X'.XX X}.;XNX:X/. X(.e.(.D.4.n.x.sXk.C _ w.W W n.` _ T <.5.9 o W hX{.! Z x Z _ Q 1.g.g.M.u.e.x._ C T x.` N ( _ Y q._ Y e.<.C m.(.M.M.W.N.e.q.w.M.w.v.i.g.8.:.e.u 7.<.:.8.t.q.e.x.M.E.v./.;Xw 1 ",
"1.#XfXB.o.3.n.b.4._ ( D V A A _ ( , D T ~ ) l.@.` N b v o.~ T ^ T +.` 4._ Y T ` ( D _ ( S c x 8 V 4.5.8 V u e : V S e i u 3.0.* a [.CXt.! M.i.M.i.M.! _ _ ` ` `  .F A C e a :.! f V v.}.M.:.e >.:.q ( j.) q.v.) w.x._ A i Y 4.R Z _ n.` _ ` w.v.` ! r.e.w.M.T.4 q.cXBXq.! q._ j.! f T ( T _ /.n.w.v.A ^ H F v.e.M.(.[.OXXX}.'.&XXXXX;XxX|.N.vXxXXXlX Xj.D.D.j.` ` |.B.H T ` +.` C.+.W ~ ^ #.e o Q XX!.W _ <.Y q.t.y.e.G.v.`  .c.N.F ) n.x.~ ^ _ F w.q.w.n.<.t.`.}.}.E.v.W./.M.q.y.r.M.M.M.g.t.,.Q 9.T V t.e.q.t.5.i.w.w.j.;Xi . ",
"q.H.A.F ~ ) w._ >._ 3.T T H ^ Z >.A b D +.+.+.x.( N Y A ^ C A F b A A C v V Y D >.W _ ` E V ! 8.6.` v.f e -.e , V Y q S 2.=XT.@ 8 )..XY ( 5.M.e.Q 5.q.q.! ( H w.t.>.q.2.y w 9 f Q 6.e.e.a p w w w Y ! ! Y 7.2.! f u :.Q w ,.7.Q Y ! T 4.! q.e.q.q.v.i.q.M.(.Y.1 u 8XxXe.2.8.] ~ Z f u x W D q.G.v.+.w.M.c.H e.` r.y..X|..X).@Xn.$XXXOXXXXX+.D.XX[.{./.P b.j.v.P @.eX+.H _ +.T T %.+.^ m P K 7 o W dXS.c x q.7.q.t.t.7.7.,.! ( W.[.v.x.` H ` { b.b.v.! Q w._ y.a.i.).i.i.v..X/.g.M.i.q.i.e._ g.g.t.g.s.t.u.7.Q ! A w.w.` W {.y 3 ",
"8 o.#.A +.^ _ ` W E ( ( ( T  .) 3.T Z > T 4.D ( ~ T D D ( D , > , T Y V v > Y Y ( >.( ( ~ x C W ( C ) :.8 C V Y ! V S 7.8.=XT.1 e J.G.> W W Q Q 2.! v T T [ T T V Y t.u.d g 1.e :.,.e.e f ,.f 9 a f f a 7.e.Q 2.p y Q 1.w 0.Q E t.[ R >.x.r.Q q.t.Q 7.8.i.}.Y.3 Q N.xX7.7.6.W W :.:.Q W u.p.u.q.t.T j.w.` v.+.n.[.i.[./.}.[..X).[..X(.n.W.v.m./.M.^ N.Y.v.+.o.P M c.@.@.o.^ V D _ W M m ) w.2 o x 9X/.! t.t.,.1.g 6.6.7.:.q.e.A A H m c ` b.b.v.w.{ R ! w._ q.e.v./.e.1.y.i.t.u.u.M.Q 7.a.<.u.f.u.g.g.Y.g.,.:.W W T [ q.v.XXw * ",
"w N A.T ` T _ xXN.q.V ) +.( ) _ ~ b v x Z ( T N Y b ~ ( ~ T T v , V ( T W v S A D >.D C F ~ c _ F A T :.C A C `.=XE e <.1.#Xg.1 y e.n.8 8 Y :.'.=Xg.! w.A e.` <.A H e.G.q.e.,.S Q 2.! g w e f :.t.6.Q 1.! q.! i.7.! Q f :.0 W 9.t.w.e.Q x.q.i.CX>X:.f e.e./.'.4 q.gX;Xe.e.Q g.=Xh.f u t.t.a.t.2.Q j.q._ _ +.M.b.M.a '.M.XX1XHX;X.X/.g.e.`.;Xn.o.w.H H i./.H T H J +.^ ) +._ _ S.[.E V M &.v.O o V sXk.<.q.t.T.=XY.,.Q 2.Q e.e.H F x.x.F ^ N w.A W [ Y ! [ 7.,.,.u.i.2.u :.f f ,.g.2.A V :.p.a.p.q.U.s.g.9.f './.` Z Q e.(.$Xw . ",
"7 l @.A ~ A .XW E [.! _ B.3.+._ T Z N v T ( b , V E T _ T A T T ~ A V S T Y , S > E V & 8 Z c ^ F x.7.Z A S l.h.y.$Xp :.7.T.V   # M.*XE e , O.c q.>X,.S C x F ! q.v.` _ W W ( T A F E ! 2.f p t.i.Q f 7.e.q.x.e.2.e.q.Q >.: V W D F M.e.q.q.>XY.Y.=Xw 6.6.8.Y.t e.vXBXE.e._.HX'.Y.T.e Q D T ! :.>.j.q.w.v.' e.).`.t.W ! e.M.).HX*X&XG.&X].:X2X].) ^ ` n.H.w.( c ^  .F +.+.N.F u l. X9 _ ^ {.: o { nXiX_ ! g.CX#X:X=Xa ! v Q C T _ W.x.H x.w.` T x.v.5._ ! i e ! u.q.! W q.Q e i t.Z C e p.,.1.a ,.g.0.9.: g.#Xd.'.'.i q.5.N.3 . ",
"j J !.4.,.4.{.* 0  XS c B.` k.k./ v b b Z ^ ` ~ ~ ) ) ` ~ v v v ( x.e T ( E V Z % v v , Z S x ( i.x.C A :.<.=X4 :.bXg f 4.y.Z . < k.`.a : W  X: , XXT.~ W _ 5.^ V ( ^ x ) q.) H _ _ ! W ! :.f 1.T.g.Q ,.g.t.] Q :.W <.e.7.0 W /.g.0.i.e.e./.<Xy a =Xp ,.r.M.'.5 q.BXZX/.i.1XHXd w 1X9 T C A F 4.8.y.M.M.n.x.x.CX/.t.q.M.T.Y./.T.CXHXCX>X1XN.k.A.j.n.D.k.U./.F o. . .P B.^ k.F q ( nX7 _ +.{.9 + ! nX!.E S /.h.4 :.CX6.t.Z T F H ) w.H m _ w.+./ { q.w._ w.,.F H _ _ Q T ! 8 7 W >.,.( D 9 S E ,.s.g.U.4.Z m.T.w 8.<X9 ] W x.* . ",
"$ z |.^ _ Y nXlX{.qX= c B.k.k.5.T > N ^ T ^ ^ ^ v Z ~ ) @.o.~ A E 4.Y S 4.Y A Y 7 0 > x k ~ T ~ m.H W C V ,.K.E ( lX3 f 8 n.W @ @ >.'.: Z ~ A.>.w.vX6.e.H ) y.w.A H A A >._ _ o.g.>.( W e ,.Q u ,.8.Q :.8.8.6.t.e.7.4.2.Q ] i.`.U.u.] e.E.t.<X$X*XHXd e.E.M.Y.5 q.ZXZXM.M.M.PXY.h.CXt ! ( +.H h.9.y.v.n.v.M.OXvXE.).)._..X;X*X)..XCXCX`.CXS. .3.4.l.S.^ ) P +.m.k.#.V.c.P _ xXw.{.XX9 c.S.O.; o W CX/.E u i ].:.h.-Xi t.q.[ F F x.x.m ~ _ +.~ T _ 4._ _ ` N.` ( _ ! a g :.< q g.s.y.( W 8 ,.e p.s.u.t.n.! >.HXY.CXh.7 w._ o.@   ",
"+ z D.~ b E e.K.z.D A S.D.+._ W 8 > b H ^ ^ ~  .~ A A Y ( _ F b v , > > S V Y e % > V N F ( +.` m C C Y x 8 Y.CXH.s.s E V n.>.@ @ S y.7 S V C ..K.g.e v.(.n._ ` C A C _ :.W 7.e.q.g.q.T C Y T > f g g ,.6.8.6.g.<.e.! :.7.7.a e.'.u.Y ] q.Q g.HX2Xd.9.i.r.i.U.5 i.NXZXM.M.q.'.2X-X:.y , ~ ^ x :.Q _ q.( _ v.vX.XW.i.7.i.E.M.).E.v.i.CX;XT.P H A 4.4.n.(.i.( b.x.F P eXx.c.c 4.[.o.e [ n.w.#.& o m gX].! ! y h.xX.X:.i F q.! ~ A _ B.v._ ^ ) q.w._ ` q.w.w.m.w._ ! f Q >.:.:.t.u.S W D W ! q.p.f.u.i.e.U.T p Y.:XT.:.T +.) o.#   ",
"% l $.F l ~ Z ; e x m +.{.N.) A v A ~ ~ ^ +.^ ~ T v ~ ^ ( A D T ^ ^ k x e e W Y A x C A F +.` x c q._ W _ v :.f w w A C Z 3.-.. 2 C n.e q S V 7 S :.5.F Z C 8 ( W >.t.q.q.S 0 T ( ,.s.W A Q >.v A ,.,.6.q.i.8.t.^ _ C 6.e.y.Q ] u.T.] a ] x.} e.a Q t.t.M.e.Y.4 u.vXZX`.M.i.] y 0 7 a Y W ~ & 7 e 0 a e.t.:X}.E.).M.i.g.i.i.i.e.e.,.:XT.Q e.q.! <.D x.G.5.Y.u.t.q.( S.H  .M ~ 0 - S _ b.O.6X$ + z D.#XW E 4.E y 9 E ! <.w.^ ^ +.^ v.v.b.b.x.q.w.! x ) w.w.q.q.q.! Y :.T >.w.7.M.H A q._ ^ C :.e.g.v.g.i.q.7.9 w w W ( T F H O   ",
"$ n $.x c N ^ ) j.M ) F ` v.D v A ^ ^ ~ b T ^ ^ ~ V Z / ` ( F A _ W c T V A W E D v , > > 0 D D C T A W Q x ` Q f g C S W l.4.@ 8 3.c.Z A G A -.3.F._ T >.2.5.4.1.g G _ _ A 8 > C H 7.,.W ! Z C A ! Q ! Q Q e.q.q.q._ q.e.] 0 S 7.6.Q 7.q.M.v.[.b.C.8.i.E.E.T.w t.NXSXXX.XE.v._ _ N v 2.,.+.e u e a ' Q Y._.7.g./.n.E.i.W w.M.g.u.t.i.q.e.<.t.8.s.G.].o.` b.U.t.t./.@.c o.n.v.H _ w.( P ..#.% + j | M.>.7.e.u.! ! _ w.w.+.+.) ^ ) x.x.b.v.S._ T Y ! ~ w.N c w.A T T q.~ >.e.e.w.q.q.e.2.Z T u 1.4.M.T.M._ ,.4.W u.4.>.W ` m.+   ",
"% J 3Xm n l H @.w.O.V...m ` A F ^ P b v ~ ~  .o.^ ^ v A _ _ v v A T v W _ W ! Q Z u u 0 V 0 Z e F F T ! 1.q.7.q.e.<.v Z S n.>.@ : ) K.A c C A W 3.<.F g.>.t.f.n.2.f ! T A x A C C ( e.:.q.q.( C ! 5.u.W ! q.c v S ! e.e.q.W t.E t.t.r.e.E.x.M.c.Q.|.E.(..XcX'.5 q.BXGXNXXXM.E.x.S F B ( 1.e.t.W ! q.e.=XCX'.M.'.OXBXcX;XH..X:X:X*X:X:X=X;X;X:X$X XnXSX9XZXCXCXxX{.nXdX{.lXNXxXO.>X*X$.0X8XqXc $ % J x.,.q.e.e.w._ w.v.N.B.v.S.+.+.x.v.b.x._ ^ Z T _ w.( H k.S.q.x F (.( F e.M.(.i.M.q.M.E._ ( D 4.XXXXH.F c ` v./.m./.j.@.k.+ o ",
"% J M l J P c.+.v.`./.H P +.b._ _ ` ( A ^ ^ $.I ..c.c W t.b A _ ! T T ^ +.n.y.t.n.( U.u.) 5.i.l.;X;XXX).U.h.'.h.G.T.5.( 4.n.4.. < j.K.j.( T l.O.m.G.3.+X#X$XG.,X'.3.G.#XJ.` D 3.( h.h.v.J._.`.G././.#X#X*XXX2.4.g.g./.T.).'.#Xo.T.Y.#X'./.`.).}.}.OXOX=X=X>X'.4 e.nXvX>XlXXXOX}.H.i.n.g.0.g.9.t.Y.U.$XHX:X-XlX*X>XvXxX:X=X#X#X#X_.*X=X$X=X=X*X#X#X-XxXz.;Xk.>XK.8XA.k.`.$X$X$XT.#X=X_./.tX| B $ j 3X .v._./._.$X*XlXOXXXlX;XNX{.[.).$X.XN./.].Q.(..X=X/.'._._.T.3.` l.5.'.=XXX:X$X#X_.*Xm.@X`.$X$Xn.*X-XG.( y.*X*X-X5.O.[.O.$ o ",
"j % + + + # + + & # = - ; 7 9 2 7 = # @ # = > # < = # @ + + O # O   O O O $ $ # # : 7 6 2 # = 7 : = : w - 5 y 5 4 4 2 2 < = 7 @ 2 S @ # 2 < # - 2 2 7 6 1 @ 6 w < @ w w 2 t w 1 4 1 * = 1 - w 1 1 3 t d p 1 X 5 1 * 4 y y t d w d 5 3 3 : w t 9 u u u y i y f p M.i.y f y w w y : .     @ 1 1 1 . 1 1 p g g 1.d a f y w 4 2 4 6 5 t d 4 w y p w 5 9 i i w 7 0 V v + $ w 4 w t t g 1.d > & $ % $ z j + + = w 5 t f , ; ; > , i e - # = w - w = - - : 8 y @ < y 7 2 3 - 9 3 5 : 4 4 5 3 w 7 p : f a d p a 6 9 w w e a p f f 9 $ + ",
"$ o O o o o O O + + + + + $ % & O O O O   o o o         o o o o   o o o $ + $ $ $ $ ; 0 0 $ : - @ @ * 3 1 * 3 5 ; - ; > ; < @ @ # @   @ @ @ @ @ * @ * *     1 1 @   1 6 2 1 3 2 3 . . 1 X 1 . . . . 3 3 * 1 1 . . 1 5 5 1 1 3 4 4 * @     * 1 3 4 4 - 3 4 4 3 u E.t 4 w 4 3 * 3 @ @ . .   . . . . 1 1 3 5 y g 5 6 y 5 1 0 1 1 1 1 1 3 1 1 1 3 1 1 6 t t 4 t 4 $ + O O 1 1 3 1 6 t 1 1 O O O + $ & O O   . 1 1 1 3 $ $ $ % j j > + + + + @     * = O < > # * = O O * * * X * * @ * 1 . @ 1 4 O 1 w y s p : w 5 9 A T T u t w = + "
};
