/* XPM */
static char *wall3[] = {
/* columns rows colors chars-per-pixel */
"256 256 256 2 ",
"   c #1D0D04",
".  c #240C02",
"X  c #2B0D02",
"o  c #320E02",
"O  c #261307",
"+  c #2B1305",
"@  c #2B160A",
"#  c #2D190C",
"$  c #331204",
"%  c #391708",
"&  c #331B0D",
"*  c #2D1C13",
"=  c #331E12",
"-  c #3B1E11",
";  c #362211",
":  c #352114",
">  c #3A2314",
",  c #3A261B",
"<  c #392C24",
"1  c #352D29",
"2  c #3D322B",
"3  c #441808",
"4  c #4C1C0B",
"5  c #541E0B",
"6  c #581F0C",
"7  c #461E10",
"8  c #55210E",
"9  c #5B220E",
"0  c #462719",
"q  c #542514",
"w  c #5D2512",
"e  c #5D2916",
"r  c #542B1B",
"t  c #562F1C",
"y  c #5C2C1B",
"u  c #61240F",
"i  c #622611",
"p  c #682711",
"a  c #652915",
"s  c #6B2B15",
"d  c #642D1A",
"f  c #6B2E19",
"g  c #712E17",
"h  c #722F18",
"j  c #65311E",
"k  c #6C311D",
"l  c #73321C",
"z  c #7A351D",
"x  c #7E381E",
"c  c #462D22",
"v  c #542E21",
"b  c #463325",
"n  c #4B3324",
"m  c #44342B",
"M  c #4B362A",
"N  c #4D3A2C",
"B  c #553526",
"V  c #5C3324",
"C  c #533B2C",
"Z  c #5C3B2C",
"A  c #453A33",
"S  c #4C3C33",
"D  c #533E32",
"F  c #5B3E31",
"G  c #643423",
"H  c #6B3522",
"J  c #643926",
"K  c #6C3926",
"L  c #623728",
"P  c #643C2C",
"I  c #6C3C2B",
"U  c #733621",
"Y  c #793720",
"T  c #743A25",
"R  c #7B3B24",
"E  c #733D2A",
"W  c #7B3E29",
"Q  c #643F30",
"!  c #5B422E",
"~  c #4D4139",
"^  c #554235",
"/  c #5C4335",
"(  c #55443A",
")  c #5B463A",
"_  c #5C4938",
"`  c #5D4A3D",
"'  c #64422E",
"]  c #6D412E",
"[  c #74412E",
"{  c #7B422D",
"}  c #644334",
"|  c #6C4433",
" . c #634A35",
".. c #6B4A36",
"X. c #634639",
"o. c #6B4739",
"O. c #634B3C",
"+. c #6B4B3C",
"@. c #734533",
"#. c #7B4632",
"$. c #744936",
"%. c #7B4935",
"&. c #714739",
"*. c #734C3B",
"=. c #7B4D3B",
"-. c #66513D",
";. c #6F543B",
":. c #6B523D",
">. c #73523E",
",. c #7C513D",
"<. c #78553C",
"1. c #584A43",
"2. c #5D4C42",
"3. c #5F5048",
"4. c #634740",
"5. c #634E42",
"6. c #6B4E41",
"7. c #734F40",
"8. c #794F40",
"9. c #655144",
"0. c #6B5344",
"q. c #6E5945",
"w. c #65544A",
"e. c #6B564A",
"r. c #67584D",
"t. c #6D594D",
"y. c #735444",
"u. c #7B5443",
"i. c #735A45",
"p. c #7B5A45",
"a. c #725649",
"s. c #7A5748",
"d. c #735B4C",
"f. c #7B5C4C",
"g. c #685A53",
"h. c #6D5C52",
"j. c #735E52",
"k. c #7A5E51",
"l. c #7B6147",
"z. c #76604D",
"x. c #7B624D",
"c. c #6F6158",
"v. c #756154",
"b. c #7B6354",
"n. c #7E6856",
"m. c #75645A",
"M. c #7B665A",
"N. c #7D695C",
"B. c #776962",
"V. c #7D6C62",
"C. c #7F7068",
"Z. c #81381F",
"A. c #823C24",
"S. c #843E26",
"D. c #83432C",
"F. c #8A4529",
"G. c #934B2B",
"H. c #824631",
"J. c #834A35",
"K. c #8B4B34",
"L. c #8A4C36",
"P. c #824E3A",
"I. c #944F31",
"U. c #83513D",
"Y. c #8A5538",
"T. c #8B523C",
"R. c #975738",
"E. c #A15B37",
"W. c #A5643C",
"Q. c #835543",
"!. c #895643",
"~. c #845A45",
"^. c #8B5A45",
"/. c #835C4B",
"(. c #8B5D4B",
"). c #955C45",
"_. c #825F50",
"`. c #A45C43",
"'. c #83634D",
"]. c #8B624D",
"[. c #98634B",
"{. c #836454",
"}. c #8B6453",
"|. c #836A55",
" X c #8B6956",
".X c #826659",
"XX c #836B5C",
"oX c #8B6C5C",
"OX c #976955",
"+X c #936C5B",
"@X c #86705D",
"#X c #8B725D",
"$X c #97735C",
"%X c #A56948",
"&X c #AD7453",
"*X c #A87559",
"=X c #836E62",
"-X c #8A6E61",
";X c #936F61",
":X c #857164",
">X c #8B7364",
",X c #8E7965",
"<X c #85746A",
"1X c #8B766A",
"2X c #8D796D",
"3X c #937464",
"4X c #977865",
"5X c #937B6C",
"6X c #9B7C6B",
"7X c #877A73",
"8X c #8D7C72",
"9X c #937E72",
"0X c #9A7E71",
"qX c #A57B65",
"wX c #B27D61",
"eX c #BA845B",
"rX c #9B826D",
"tX c #8F8078",
"yX c #958174",
"uX c #9B8374",
"iX c #978579",
"pX c #9B867A",
"aX c #9C897D",
"sX c #A8846B",
"dX c #B78768",
"fX c #B5916B",
"gX c #A78976",
"hX c #A38B7C",
"jX c #B48C75",
"kX c #AB927C",
"lX c #B69579",
"zX c #BDA47F",
"xX c #C2906B",
"cX c #C69869",
"vX c #C59778",
"bX c #9D8C82",
"nX c #A38E82",
"mX c #AA8F81",
"MX c #A59184",
"NX c #AB9384",
"BX c #AB978B",
"VX c #B59987",
"CX c #AC9B91",
"ZX c #B39E91",
"AX c #BAA28A",
"SX c #B9A596",
"DX c #BDADA4",
"FX c #C69D85",
"GX c #C7A588",
"HX c #C5AA97",
"JX c #CEB196",
"KX c #C9B7A7",
"LX c #CEB9AB",
"PX c #DDC4AC",
"IX c #D3C3B5",
"UX c #DACEC5",
/* pixels */
"t.d.j.d.r.r.9.O.X.5.v.d.0.w.e.q.) ^ ) ^ _ :.b.r.r.h.` ( S S ^ D ^ D C B B Z Z P P @.o./ B r 7 0 r w q y e j a w i i w i i i 9 9 9 9 6 8 4 5 w d s d f H G H T K P @.@.] | } o.+.} o.Q Z D ..Z ) ` ) ) 6.q.e.5.` 9.h.m.t.0.5.0.:.+.O. .! / D 5.9.O.e.9.` O.6.O.` O.w.r.t.e.9.-.+.5.9.q. .:.i.h.h.h.t.i.x.d.v.M.x.d.> B 6.F / F C } / F F } +.*...+.+.[ I O.a.$.[ J @.P 9.;. ...H a f E iX[.j k a a q 0 0 y y a j V ! } K H H K ..*.V V V V G J | e.t.d.t.h.d.d.0.0.5...0.d.q.0.9.9.5.` 1.w.5.2.w.w.` v.M.m.m.t.m.h.j.t.v.b.d.d.a.",
"5X5XaX5XiXiXiXaXaXyXiXnX5X5XyXiX5XyXnXnXMXhXrXyXnXCXBXCXbXnXhXNXMXbXaXgXpXgXsXsX*X*XsXhXOXsX).P.T.R.R.[.R.%XI.G.G.F.F.S.l z l l z z x F.I.A.R.R.G.F.K.R.R.R.R.K.!.OX(.(.[.OX XOX+XoX+X.X{.kXyXuXgXpXgXVXuX1X1X5XaX8X9XyXiXyXiXrXrX6XyXuXiXaXhXgXgXaXiXyXrX5X3X1X1XyXbXiXaXiXuXiXiXyXiXiXhXhXhXbXhXgXuXgXgXhXyXrXrXXXHXVX+X3Xf.f.+X.X3X3X}.]. X4XqX4X[.^.OX4X}.[.sXOX$XhXyXyX3XK.A.R J.8X(.D.G.F.F.K.T.+X%XR.I.%X[.#X4X*X%X%X*XsXkXsXdX*X$X[.).[.iXpXbXbXiXiXyX5X5X3X4XhXbXbXaXyXnXBXMXBXnXaXaXbXyXyX2X1XuX0X9XaXBXZXhX5XpXpX5X0X",
"e.v.e.9.e.5.` ` ` d.e.9.v.O.5.5.5.d.v.j.e.0.t.q.|.N.m.M.M.v.b.j.0.r.h.t.e.>.>.y.u.!.~.b.Q.(.).).).I.F.D.{ W k U f s k w w s g l h z z Y h f R f a d K j G j j y G Z B V P Z B F } / } / B Z O.O.X.0.d.d.0.O.+.O.5.9.9.e.9.:.-.O.-.q.O.q.t.t.d.i.q.9.O.O.O.O.-.5.w.9.5.w.w.N.n.w.9.9.w.0.9.9.-.q.q.q.b.b.z.q.O.9.q.:.O.D C / / C } Z / } ' J V B Z Z } P ' ] [ H.I P P  .9.) 0 q 8 k ] h.=.j d w i j #..XP.T f [ U.a.y.$.H.{ %.f.{.~.,.*.| K I P 9.r.r.r.r.5.9.+.O.} ..d.m.h.h.j.v.m.v.x.x.:.+.9.w.9.5.) d.a.O. ./ O. ./ ) 0.O.5.",
") 9.t.v.h.j.XX9.j.M.v.) 0.j.9.5.e.e.e.` ` j.t.e.e.:.q.t.e.9.e.0.O.9.r.w.e.>...+.o.*.] o.P | #.{ [ W H k U j f k 9 s f 9 i u 9 9 i s a d i a f a j k R W j j I G G } P P } Q o.| } / 9.X.} } / a.6.d.0.0.O.6.O.0.` 9.9.9.w.9.q.9.q.9.q.i.t.0.0.x.+.q.9.e.r.w.h.r.r.t.w.h.r.v.i.9.O.t.j.d.r.t.b.x.z.N.=Xb.yXe.m.j.O. .} } Z / / / F } /  .P ] ] L B } } o.o.~.U.[ [ } $.i. .b } D.R D.@.w.] k d w a H L n r T d @.y.e.a.| [ { [ *.s.,.%.$.&.P K ] h.h.j.r.h.e.e.y.a.f.a.j.B.B.M.d.t.M.{.f.:.:.q.9.r.t.r.h.a.d.O.O.O.0.5.j.5.t.0.0.",
"b.b.9.` t.j.9.5.t.M.N.j.w.t.b.5.O.q.q.` t.v.9.d.j.t.-.9.9.9.t.d.t.O.5.0.q.<.+.+.&.| | $.P | E [ W { T j f H z a 5 a s i s i u s s i a l f a f d a k U H d H I j K } L L Q o.*.+.*.q.d.O.Q X.O.j.b.O.+.a.+.+.0.O.` 5.j.0.0.9.5.9.d.q.d.i.d.d.d.N.d.d.e.t.j.h.h.9.9.r.h.j.h.j.j.t.d.d.i.v.V.v.d.i.t.M.=Xw.w.2.5.2.5.0.9...o.O.O.X./ } } } ' P P &.} } +.6.f./.[ [ E @.| Z ' AX$XT a d E d.#.k d a a T L n L K.j @.y.j.e.$.[ E H.*..X/.Q.*.u.[ G $.e.j.M.m.v.h.r.s.s.d.|.V.N.M.<XXXa.M.n.q.i.x.d.w.5.d.j.b.0.y.9.O.) 0.e.0.5.d.9.0.",
"e.v.v.d.9Xv.h.j.j.M.N.v.5.^ v.d.9.9.q.O.d.9.t.e.d.9.t.:.-.O.5.O.d.0.5.5.O.<.d.a.*.| +.] P I I J.#.T j j j d i a i s f f a s s f g a h l f s l i f l a j H [ K I E &.| P } +.y.7.0.0.6.} L } a.=X<Xa.{.0.9.5.O.O.0.9.j.` 9.9.O.0.9.q.9.0.t.q.q.d.0.5.9.r.2.9.r.9.r.w.5.9.j.j.m.m.v.h.v.n.n.e.q.j.j.=X=Xr.w.r.5.5.5.d.6.} O.X.X.0.+.} ' } ' J V P $.+.+.{.b.a.=.@.P I J #XgX6X| k f U %.x.%.U k k f K u.j.OXR.H | +.t.d.$.J.P.P.P.{./.u.s.s.=.E #.f.XXN.v.c.c.M.f.a.f.|..Xe.M.m.XXk.j.t.j.b.x.i.q.e.9.t.t.d.i./ ) X.O.) ` ^ d.9.e.",
"v.t.v.j.t.j.m.j.t.b.d.` O.0.9.t.O.5.j.d.O.q.d.d.d.d.j.d. .9.5.0.9./ ) O.} +.d.+.$.*.+.J V I V V I [ G H U H f l h s i a s f f f g f f s a a f a k d y f T E G @.%.@.P P y.u.y.a.7.O.0.} F / b.v.2Xb.k.0.e.a.j.j.d.e.9.2.e.9.t.i.O.9.v.h.d.d.z.n.t.9.w.5.t.r.9.e.e.j.r.r.e.j.v.N.M.h.j.N.b.f.q.j.m.=XM.h.h.r.j.t.t.t.0.+.+.+.a.y.} } ..} ] &.&.| +.a.a.d.d.6.| $.L Z OX2Xr.9.$.K H T &.m.=.W U k l %.u.b.%XY H Q.a.b.XX~.P.T.=.Q.].~.y.s.u.$.E #.j.t.j.b.M.m.m.d.0.O.d.i.e.M.m.:Xj.v.h.w.t.i.y.y.h.M.N.M.j.-.q.d.9.9.) ( ^ ) j.V.",
"` 9.N.M.XXv.N.V.N.M.N.t.d.d.9.0..Xv.e.O.t.b.t.C d.v.d.j.q.y.q.j.e.d.h.s...0.a.+.| F f...[ #.@.G G [ | H.l H a f s a f H s z z f s f f l R f a s e e E l k I I [ K [ $.#.u./.a.*.*.+.a.+.O.Z e.` 5.=Xt.j.N.M.d.6.9.e.9.9.5.` r.d.e.` e.2.9.n.m.j.m.r.v.M.m.e.t.v.d.d.t.v.t.b.b.j.m.h.V.N.z.x.M.<X8Xm.v.r.w.v.v.0.2.2.9.O.O.o.a.6.o. .d.o.$.U.Z B +.+.+.b.b..Xu.@.| (.*.h.v.d.$.K K P.$.r.&.U D.W W %.$.k.K q y =.f.n.N.~.T.U.Q.~./.~.y.a.>.I E [ b.N.m.v.j.m.j.y.6.} a.i.=Xm.r.N..X.XM.m.m.b.i.v.m.h.t.v.n.q.d.q.e.9.` ` 5.) ) ` ",
"` ` ` 9.2XN.j.j.v.M.N.j.b.v.j.j.t.v.9.d.N.m.m c >X:Xd.d.z.i.q.t.v.v.t.j.p.>.j.o.} P Z } #.[ [ P.@.#.P.W U f k j a f U l f a A.f l z z l l s i f k T J.a d H I #.E [ #.[ u.].f.y.y.0..X+./ Z b.r.5.v.m.j.m.t.0.q.9.e.5.) O.O.O.` ) 5.9.w.e.q.b.m.r.h.j.t.9.5.j.d.j.d.0.j.b.b.M.j.j.m.B.N.d.z.v.h.r.w.j.r.9.h.b 5.v.e.0.+.O.X.s.+.0.y.a.o.| =.0 V 4X6.k.s.d.f.u.P I OX*.h.m.M.a.#.E @.,.|.P.W D.D.K @.*.{.G 5 d ~.oXi.XX/.[.Q.(./.{.}.u.f.f.Q.#.@.{.=X:Xd.r.m.j.6./ o.M.|.|.|.n.#XoX-X<X:X<XB.M.N.N.N.=Xv.d.i.d.k.e.t.9.2.5.` ` O.",
"` 9.` / O.M.v.d.N.:X:Xv.d.d.b.j.e.j.e.e.w.9.w.m.uXm.d.v.i.i.v.b.|.b.d.0.t.>.u.>.*.,.P +.] P I $.I K I e f a U W l l k a l s l A.l k l s i k k f j j I d d T E G K I I ] } &.o.o.s.a.9.0.} Z ` 5.M ` 0.0.h.j.0.9.m.d.e.5.t.9.` / ) ) 2.m.d.x.b.h.w.9.w.w.` 9.q.O.5.9.` t.d.q.j.j.e.w.r.M.j.N.m.e.h.r.r.j.v.t.t.8XN.0.a.y.} X.6.6.6.6.O.} Z J I [.4X.XoXy.XX{.Q.] P.Q.X.j.j.j.s.$.[ #.u.v.&.H T @.#.Q.u.|.{ d W OX=Xv..X/.Q.u.u.s.{. X^..Xb.*.[ #.{.v.V.j.j.q.5.+.o.s.v.XXb.n..X#X=Xb.b.<X=Xm.m.M.d.|.|.-.q.d.O.0.0.d.e.5.) 9.O.` ",
"O.9.5.) N v.:Xt.V.b.XXXXj.q.t.j.t.v.9.9.m.h.v.V.>Xe.b.z.:.d.j.d.b.XXd.d.d.y.u.u.=.=.X.a.| P [ @.P K E e l U D.U l s z l f f h R W Y f l l l z l j j T R W T T H { #.@.P.| | *.~.~.>..X5.B B / t.t.9.M M ` v.>X=XV.5.e.9.5.w.9.9.9.0.q.O.d.0.9.M.v.j.j.h.r.0.d.0.e.0.r.r.v.h.t.9.t.e.w.m.N.=Xh.m.c.r.h.e.r.e.e.e.j.b.p.*.} O.O.9.y.y.a.6.Q Z J [ s.b.{.k.b.{.Q.T.U.$.*.j.d.v.f.=.W $.f.M.$.T E %.P.~.(.oXT.W [.qXj.v.XX~.=.=.*.| a.y./.k.a.$.W [ f.d.m.M.M.e.5.6.f.b.N.#XV.<XN.|.{.M.N.9X8X<X=X=Xx.x.f.-.x.d.O.b.d.t.d.9.9.5.` ` ",
"d.e.t.9.9.9.v.j.N.M.b.n.n.b.0.d.j.e.5.0.j.0.0.9.j.t.d.n.i.t.9.^ 9.d.q.x.d.a.d.a.y.*.X.a.P I I [ K H G H d j W j Y l l g l l z R A.R k z l l l a f D.W U U j W { J.I y [.| ] <.<.,...oXy.o.} C ` N.v./ C M.h.9.6.5.j.v.` 5.0.0.v.d.q.9.v.j.j.h.r.j.t.w.1.r.0.q.9.O.e.v.v.m.M.j.d.v.t.r.h.j.t.r.m.B.e.j.e.` 9.r.5.j.i.y.o.+.6.+.e.f.a.0.f.+.| @.Q.f.d.k.f.d.f.~.@.=.P /.N.b.v.k.Q.H.#.f.h.=.W { J.J.Q.Q.oXT.R.K.*.d.M.M.u.| | &.%.u.p.d.b.f.$.[ #.k.v.m.j.d.e.0.6.0.O.-.x.M.N.|.:.b.M.N.V.:XM.:X|.-.b.d.9.q.-.9.d.e.d.d.e.5.5.9.e.",
"O.` w.` 9.0.-.e.t.t.j.q.M.9.0.d.t.e.0.5.t.j.j.j.b.d.r.b.x.|.e.9.e.0./ } +.a.XXf./.=.Z P I [ ] E G H H j d d w d z l f s h h s w s f l l h f l s i j j a H d U %.P.!.OX$XP &.>.Z P / i...*.Z ) ` 5.( ` 9.9.9.` O.` 5.t.j.` ) O.v.q.t.j.j.w.r.h.j.e.w.r.1.) 0.0.9.t.e.j.b.m.j.v.0.j.m.j.B.V.m.:Xj.j.j.j.b.r.r.r.r.d.i.+.+.y.a.a.d.b.a.6.0.7.$.(.[./.{.k.b.d.s.=.%.$.| qXv.v.V.k.Q.J.%.d.N.=.H W #.[ $.s.k.[ H H *.t.=Xm.s.@.+.U.P.,.l.x.b.f.+.&.$.0.r.h.h.h.h.9.6.} O.} x.i.i.d.e.'.d.v.j.XX=Xd./ ) yX9.e.q.d.e.0.0.0.` 5.^ ) ) ) ",
"^ N / 0.9.9.9.9.9.r.e.0.d.v.=XXXr.j.d.5.d.t.e.0.d.j.M.-Xn.y.0.9.0.9.O.O.O.} 9...Z V ..*.V P P.{ d E H d j H e j s l a i s h 5 4 I.l k f s f f s 6 5 e d { W T @.!.T.=.*.*.*.a.} } d.oX .u.../ ` / ( r.e.` j.0.5.r.:Xj.v.N.t.v.j.i.t.<X<XM.M.b.M.v.h.5.2.9.e.t.j.d.m.XX:XN.1XM.q.v.m.V.:XV.=X<Xh.h.m.r.r.h.t.m.m.n.f.y.y.a.d.d.XXf.f.'.a.+.u.^.[.}.oX{.b.a.u.,.Q.$.Q.].N.N.XXb.Q.#.=.{.:X^.D.W H.H.=./.{.@.G H +X<X<X=X/.U.!.T.%.,.+X Xx.y.&.$.P.<.v.m.m.d.b.d.j.y.*.+.x.|.i.q.t.f.d.v.XX6Xd.q.b.VXhXd.0.0.0.d.e.9.9.9.O./ ^ ( ) ",
") O./ i.i.t.v.t.d.r.:XN.e.b.=XN.5.5.t./ d.0.5.0.O.5.e.0.-.C  .5.e.d.5.+.y.o.! P L V o.F 0 r K H G | [ K j d e d g R l f s f a F.G.l f s l z s 5 8 w f a a k U #.P.P.=.a.y.$.a.X.>.3Xf.} *.>.+.O. .e.b.) ) 9.e.5.2.h.N.m.e.e.d.d.d.9.^ ` r.t.9.j.e.5.9.5.O.) 5.0.5.v.9.e.j.N.b.b.N.N.=X1XM.=X0.t.m.w.w.h.h.v.M.v.x.k.6.O.9.f.a.d.f.XXb.f.y./.!.).~./.b.b.q.u.,.=.,.,.s.=X=X:X X^.P.U.].5X).Y U W D.U.s.M.U.{ H u.M.m.m.,.{ [ E @.,.'.-Xh.h.>.T.P.~.'.n.i.p.x.'.p.'.~.oXoX.X|.|.$X.Xm.v.|.b.@X,Xb.XXXXj.e.v.XXN.=Xd.q.` 9.w.9.) ^ ",
"O.0.O.q.b.b.v.j.v.j.:Xb.M.N.N.M.XXM.v.5.j.j.j.M.d./ 5.0.-.-.i.q.d.d.a...*.*.y.| &.} F v B E K.H G E { U d G d z l A.l l l a 9 l a f f U f s s s s d a a s Y W E E ~.$.*.*.Q X.+.o.6.0.a.F 6.9.q.O.q.f.} N v.e.9.9.e.m.d.5.O.b.q.O.O.` ` t.w.9.w.) 0.9.w.0.9.9.` ` ` d.v.t.t.t.0.t.t.0.m.j.v.5.e.r.w.w.5.e.t.v.q.d.f.+.} O.a.q.0.d.b.b.f.0.~.J.J.Q.f.a.y.:.>.,.U.Q.~./.N.>X2XOX).T.!.{..X%.l l W T P.=.b.=.#.T o.r.w.2.| K E E %.>.y.b.<Xh.a.=.%.].f.>.y.'.x.O.y.p. X|.XX=X:XV.XX=XXXXXXXd.M.0Xd.{.5XN.d.d.b.b.v.v.j.0.5.5.v.9.` ",
"q.q._ 0.v.:Xj.t.t.m.N.v.e.j.e.j.XXj.b.XXv.v.v.XX:XM.M.q.i.x.b.|.q.q.i.>.y.+.y.$.u.u.s.} $.E W d q d G f y G H l z l k f a i i a a l f U f s f f a d l a a d U #.U.Q.V Q.y.o.0.s.6.) / a.+.+.5.D 2.O.'  .F t.n.j.w.5.d.t.0.9.0.q.-.e.XXt.N.j.r.9.e.t.e.` 2.e.t.5.9.w.e.t.v.d.v.j.0.0.d.v.j.j.h.j.t.w.j.t.j.t.0.0.j.k.*.0.0.{.{.d.b.k.d.d.a.$.H.W U.f.f.p.f.p.,.U.~./.}.N.=X>X X[.).U.k.b.$.R l k e J *.N.u.L.D.}.:Xj.h.s.L.K.J.%.y.d.t.h.r.a.7.} /.V +Xx.f.x.h.N.b.|.|.=X:Xh.N.j..X.X|.1Xn.d.MXXXXX.Xj.M.b.k.N.M.5.9.9.9.O.O.` ` ",
"9.0./ / ` v.b.e.v.j.m.h.t.t.b.j.d.M.b.0.e.h.9.d.=XM.=Xd.i.i..X@Xd.d.a.*.7.y.6.+.| !.}./ V y d d G H e a H j H d a k k a l l a s h z Y l f s f f f w f f l j H I E V | Q.o.*.0 0 d.5.0.e.X.*.9.t.=Xe.d.! ! ! @Xi.h.r.v.N.M.b..Xb.b.j.:Xe.M.m.h.v.N.m.v.w.2.9.t.t.t.h.V.B.M.m.v.e.e.v.N.XX1X=XM.h.h.h.v.j.M.v.:.d.d.b.f.d.k.s.{.d.oXd.e.a.o.| { H.!.{.b.f.p.,.,.^.]./.}.XXXX:X}.!.P.=.y.0.' U d j j P +.v.=.{ { s.t.j.h.y.#.[ { J./.N.m.v.M.{.u.8.b.+X4X .u.b.h.N.j.a.:.t.M.M.j.e.d.f.{.N.j.b.5Xe.e.0.e.b.j.a.M.O.n 5X5.O.w.9.9.0.",
"O.q.O.-.C D O.v.t.v.M.=XM.v.b.j.t.e.t.j.r.5.5.e.j.d.d.v.z.p.i.i.b.|.a.8.0.a.5.} | P } / r y y y I E a a j H j k k f f f l z 9 i a f l f a a f a k k l l j G E { I B V =.&.+.c V f.6.6.6.6.} ) ` w.9.v.O.C ^ .Xd.f.r.h.N.t.0.d.b.x.t.b.M.M.j.r.N.m.w.t.r.w.` d.O.0.M.M.m.d.m.b.t.d.b.v.b.M.m.j.h.h.r.t.t.h.e.i.q.e.a.a.d.{.6.5.} {.d.e.d.:.] K %.,.s.f.y.<.%.=.~./././.n.b.n.].U.T.U.y.d.| j k j H =.Q / #.E E u.v.j.h.X.[ [ K %.a.w.h.M.9..X} u.a.+.0.5.>.<.q.x.+.u.x.j.j.d.d.|.f.i.>XM.a.j.d.e.e.X.5.t.9.d.j.e.>Xb.9.5.h.t.0.0.",
"5.O.-.O.N D b / j.w.h.j.9.5.e.t.v.t.v.j.e.r.r.j.b.b.b.d.b.b.d.q.i.d._.s.f.f.a.+.Q v } o.V y q y H ] H a G f d z l k f z x l i i s f f f g a s a s k d j d y y y I P J | u.o.o.(.oX5.5./ } +.5./ ( t.e.e.M.` v.b.i.) v.h.e.9.t.d.q.j.j.j.N D m.r.v.r.e.h.2.5.j.d.=X:XM.N.:XN.M.t.e.d.N.N.j.h.j.m.v.e.e.t.d.0.q.i.b.b.b.) f.a.O.oX+Xa.d.b.d.$.K @.,.s.u.f.s.U.,.y.,.=.p.b.n.|.'.=.T.=.y.d.*.H d q H r 0 S B T E y.v.h.h.} G I G @.b.9.t.t.O.0./.*.0.X.O.d.+.y.y.>.a.s.v.j.b.q.:.i.p.y.M.t.` O.0.h.0.+./ e.e.r.d.j.O.) r.9.e.0.9.9.",
"0./ O.v.9.` ^ / t.t.j.d.5.r.XX=XN.v.0.b j.m.e.0.t.b.b.x.x.M.M.t.b..X{.{.f.d.q.O.o.| / +.I H I H d P H l G d f k d j l h l h s s f z k a s s l s s l U d y y G y y I E V P C n Z O./ O./ Z X.) F e.M.t.b.b.` d.2Xi.t.b.j.j.M.j.b.x.t.N.N.` iXiXj.M.N.v.j.j.e.5.0.b.M.=X:XN.t.v.v.b.M.v.v.j.m.B.=XM.m.v.d.x.x.x.i..XXX{..Xk.f.q.uXf.d.b.d.{.,.I =.*././.]./.U.,.>.,.$.a.n.M.oXs.=.T.=.s.j.} G H H H 0 0 S P H J.*.m.M.m.o.P [ { Q.k.t.e.d.i.'.~.Q.s.o.+.0.O.e.v.b..XXXN.j.b.i.d.b.x.d.XXb.j.d.9.e.d.t./ O.v.M.d.e.5.e.9.t.d.0.h.9.",
"d.9.) h.9.5.j.` 0.j.d.N.m.M.b..Xv.z.v.j.2Xw.0.t.d.q.x.b.|.i.d.j.d..Xs.s.a.9.a.6.=.=./ o.| [ H G E Q G a H d d f a f a i s l f s f Y l d l z z f f k k d d j I T I $.=.P G o.D B X./ 6.C B F / F t.0.) w.m.v.0.rXi..Xv.w.0.b.N.b.f.b.v.M.:X1Xm.<XN.t.v.h.m.h.j.M..X1X:XN.=X:XN.:XXXt.e.v.=X<X2X<X8X:XM.x.x..X|.f.j.M.d.>Xa.O.nX-Xs.k.q.n.f.y.#.I $.{.{.}./.=.=.~.u.,.y.d.e.k.+.=.#.P.y.j.O.I { I { y Z M.[.#.I O.v.N.N.f.@.I K P.0.d.:XXXb. X/./.f.y.d.f.+.) O.f.|.#XXX|.n.M.k.XXb.k.>XM.b.1Xe.O.t.9.t.M.t.N.e.e.e.j.t.9.-.r.t.9.",
"` O.9.t.t.j.N.b.v.XXv.j.v.d.i.N.N.t.M.=XM.2.5.=Xb.i.|.d.d.|.d.e.0.a.y.6.a.0.w.+.$.P 6.s.*.P d j @.T H f H k l f s l a w s l z s f f f k z z f a f k U U U E #.{ T | u.&.P y.a.+.O.5.X.F F B 5.a.t.j.h.5.t.v.9.,Xb.XXj.t.b.|.b.d.j.d.h.v.M.v.v.:XM.5.` 0.5.t.e.j.d.b.9.` M.m.t.e.9.-.9.t.M.:XV.:XV.:X=XN.>X>X,XXXXXb.b.b./ XXiXb.b..Xn.b.|.}.J.#.*.s.].~./.=.U.~.~.u.a.d.M.b.f.,.P.U.f.b.y.I #.[ [ @.$.:X*X).V a.v.XXb.0.=.E G I O.9.q.i.:.oX}.Q.a.+.} y.y.a.:.i.{.'.i.x.d.b.b.b.|.k..XXXd.k.b.5.r.9.V.m.j.M.t.t.t.t.O.w.w.9.e.O.",
"t.v.d.0.d.:Xv.b.m.h.t.0.w.j.d.v.v.d.N.m.m.v.t.e.d.x.|.x.x.q.5.a.k.d.0.+.O.O.d.y.| F a.s.} G y G G j d a d U d f f f f a s a f s f l f s a a s d k l f U l E K I I | Z &.P o.y.d.0.0.} F } F e.F / h.m.9.` 5.^ e.e.` q.d.i.d.:.O.0.9.h.w.j.j.t.N.v.9._ O.r.M.5.v.O.O.O.) ` e.9.` ` ` 9.e.d.:Xm.v.m.B.M.v.j.m.b.b.n..X>Xv.6.uXM.N.M.k.n.|.b.s.{ J.Q./.~.@.=.J.%.u./.s.a.f.M.f./.@.@.@.y.j.y.| %.J.@.%.~.|.!.K P j.d.d.-.>.@.T K J ) 0.d.9./ i./.*.p.y.} } | >.|.f.a.x.i.i.d.b.b.e.a.d.d.j.b.j.b.j.h.V.t.e.` j.d.d.t.e.w.h.v.j.t.r.",
"0.d.9.0.b.:Xd.e.h.d.d.-.5.9.V.M.b.b.M.m.t.j.0.5.d.z.n..XXXt.d.k.XXd.0.+.O.a.b.+.} } d.y.| G y G H j k w H G d l f l f 9 f f i f l d w i 9 i a l e f d j l T T I I L P E %.o.0 O.y.y.0.O.y.a.9.X.d.m.j.m.r.h.D 9.r.2.9.` i._ q.d.0.j.M.t.r.t.t.v.d.d.5.9.M.N.b.e.` 5.` t.` c ` 9.^ 9.t.e.0.9.N.h.h.B.=Xj.b.1X1X$XoX.XoXj.b.oXd.t.k.d.j.i.i.~.{ H.,./.u.%.=.#.@.,.f.s.s.6.a.8.y.@.G P +.0.y.] I @.I ] | O.[ H I q.q.i.i.x.J.j H =.d.5.w.j.e.a.,.Q.>.$.P ] ,.y.f.6.f.a.b.b.b.d.j.k.k.b.d.w.d.j.j.e.h.yX5Xb.` 9.9.d.q.O.O.0.q.q.q.d.",
"0.9.0.i.r.5.9.d.q.q.n.x.i.e.j.M.N.b.N.t.v.M.b.j..XXXXXd.d.d.d.0.0.5.X.} C } 0.} o.0.9.*.U.I H #.#.d d e y G a f a i i 9 w i w a a a a s i w a w e a k a k U T { K I P E | } / 3X{.} 0.O.O.e.) ) e.h.h.v.e.m.h.r.h.O.e.t.i.e.9.q.e.v.=Xm.h.e.v.M.9.e.j.v.t.v.v.) ^ ` r.d.C , d.b.) e.9.9.9.) r.<Xt.N.>XXXaXXX=X|. XXX.Xy.k.0.9.5.h.j.e.e.d.u.{ W | y.*.#.#.E #.s.a.f.f.y.y.=.+.$.@.$.8.q.y.@.E $.=.!.,.e.$.{ #.:.O.-.d.a.$.E [ | j.e.2.j.w.0.>.$.] *.*.| | y.O.6.0.a.d.k.b.d.t.j.j.v.d.e.j.M.=Xh.5.iXd.O.O.0.j.i.0.5.w.0.9.9.-.i.",
"N.v.q.i.d.5.O.x.x.e.b.i.q.d.e.m.d.m.j.d.b.b.M.M.n.n.n.t.d.d.6.9.5.2.N B B / / +.f.f.=X}.%.G E =.[ j e e w K k f i a l i 9 i 6 5 a f s i a w i k U l j U H d H T { I P E | } k.oXy.o.e.O.5.O.( ) 5.t.t.5.` 5.d.9.h.` e.t.q.+. .5.h.j.r.5.r.r.h.M.j.t.j.b.0.9.9.) 9.r.9.O.O.v.2X9.9.5.9.e.d.e.2.5.=XuX5XyXb.d.N..Xi.'.a.0.f.X.9.d.b.a.j.j.a.*.#.#.*.+.} @.[ E %.u.y.a.d.s.+.P } | I | +.5.+.I I =.^.G | b.P.T @.0.0.9.j.0.=.E I | 9.d.d.9.t.y.8.*.| *.$.*.| y.5.9.j.M.k.d.j.d.j.b.d.d.d.b.M.m.v.=Xt.9.} q.v.j.d.i.t.v.j.j.h.m.w.v.",
"r.r.-.-.x.-.-.i.i.t.v.q.-.d.9.d.v.j.e.b.v.e.d.j.d.d.j.a.M.XXd.0.e.0.Z P O./ O.Q +.+.5.} E { G @.@.I d a e G j a i d j i 9 i 9 i a f f a 6 9 w f l f j j H H E $.[ @.] @.=.*.+.O.6.y.e.0.0.O.` 0.:.-.0.) 9.e.C C b.b.q.d.0./ O.r.w.h.r.h.h.h.e.w.r.j.j.h.5.` 5.5.w.h.j.5.0.d.` / O.O.9.e.e.5.=XN..XXXh.w.d.i.d.a.y.s.6.a.i.a.t.t.d.M.m.e.d.=.T E *.0.o.&.@.E ] $.s.e.0.8.y.| +.o.| @.&.v.a.@.@.%.r 0 P 5X| H I 9.5.5.0.d.$.K G } t.e.9.5.h.+.o.| P Q } | | X.O.O.e.d.a.O.0.a.e.e.j.a.0.v.t.v.b.b.>Xw.q.i.e.0.:.t.t.h.h.e.2.j.2.e.",
"w.5.w.i.i.-.-.d.t.5.9.i.f.d.v.d.5.e.9.e.d.d.9.t.d.j.d.a.j.XX` 5.` ^ / } } O.O.o.} o.d.6.J H E $.I H y e d H j i 9 a d i 5 5 i 9 w a a a 9 8 a d e i f d k U K @.I @.] $.@...o.+.6.6.O.0.a.:.-.q.0.q.d.O.) ! / C / n.b.a.q.q.5.r.9.5.9.r.9.e.r.e.5.w.9.r.9.5.` -.O.v.t.9.9.` ) 0.e.e.t.t.5.S N.O.O.m.V.r.v.b.f.d.e.5.d.d.0.d.j.h.j.j.t.e.6.$.K [ y.q.+.$.@.E I &.6.e.6.} o.&.| | | &.*.j.a.P I | @.] }.yXI E #.a.d.0.d.d.P H G } w.5.q.5.w.O.} | | Q } | | O.X.O.e.5.0.a.o.5.e.e.e.0.h.j.z.t.t.v.q.` 9.;.-.O.O.9.r.w.9.e.5.9.9.j.",
"r.w.w.e.-.-.q.9.r.9.e.d.d.t.v.j.j.v.e.5.e.e.t.0.b.b.j.j.b.e.) O.O.` O.} ` / } } } } 5.0.I G j G I j j e a W a w i a i a 5 5 a 9 w w w w w 9 d w w e d d d j G @.| [ @.#.[ *.*.+.y.f.d.i.>.>.9.O.5.q.-.C _ n.b.d.! M e.e.0.-.9.w.5.5.w.w.e.t.t.5.` O.5.0.9.O.O.) O.-.O.O.9.5.` w.9.9.w.m.=X0.i.O./ ( 9.9.9.5.) ` ` B.m.5.O.0.t.d.t.e.e.e.d.*.E E $.a.$.@.| I I } +.6.o.o.&.| | &.] | +.9.O.| I ] I [ $.` P y G +.9.9.5.O.P H I } w.2.5.5.5.) +.| } | o.} P +.O.} / X.O.0./ ` 2.O.O.O.5.9.0.t.v.w.2.9.5. . ._ ` O.2.9.9.9./ q.e.t.",
"2X<X<XXXN.XX@X:X1X<X<X,X#X:X>X>X1X>X=X>X>X:XXXXX>X5X5X=X>Xi.{.N.|.m.y.p.:X=X{.f.f.s.s.|.!.J.H.P.J.S.Y l k F.D.Y z R W l u 9 A.l f z l z l s f k Y z U W U U K | &.[ J.!.^.f.a.}.f.o...'.{.f.v.M.M.e.-.#X6Xn.a.a.q.C C e.9.q.b.:X2X2X:X:X:XB.=X:XXXXX#X#X|.XXV.V.=X>X>X|.n.:X:X>X>X:XyX2X>Xb.rXN.>XM.iXMXyX>XXXb.>XaXN.{.b.e.w.t.t.j.v.r.e.| H H L a.{.Q.P.H.J.Q.{.f.p.*.o.] | | =.=.Q..Xb.$.[ %.E [ *..XQ.P.J.f.=XN.N.oXT.H.J.s.j.h.m.V.j.d.d.8.$.@.o.X.+.y.M..X{..X-X.X.X1XV.=XXXV.=X=XXX>X:Xm.V.<X:X.X|.:XN.M.M.=X=XN.N.2X2X=X",
"= * : & # # @ @ @ @ * & & = : = # = = = = & = > - = = # @ . O O ; & @ @ = = = = : & & & % % % % 3 % % o $ X % % $ $ . . o X X $ o o $ X X X X X X X X . . X $ % % % & - - & : > @ + + : : # & & , m 0 0 , > = * + + . @ # + + * : : * @ O O + = : , : ; ; ; : # : : : : : > > > : > : : & O O @ @ & : : = @ + + & : > > > O O O @ @ @ @ # & $ X + @ O X X o $ . O . . X . . . . . . X O + . X + . . @ & % 7 % + @ @ # + $ X X . + # * * O . . . .   . . = - : , - & @ = > 0 c < n c M M = + # * = : : & : : : = : : : : > , : : ",
"^ ( ( ( ) ( ^ S D C ! C M D ( ^ D ) / / ) / ) / O.O.9.a.0.9.j.w.` ' / F B n n B Z B n 0 0 r q r V w 8 3 3 4 8 w 6 q 3 a a 3 3 5 5 8 8 5 5 5 4 4 4 4 w w 8 w H I y V V P } P } Z 0 B C F ^ M M C j.` b M D ^ ^ ( D / ) ( S O.) ^ ^ S M c m m D 9.r.5._ / C ^ ` / ` ` O.5.) ^ / O.O.^ Z / / / ` N ^ 9.` ` O.9.q.5.d.0.5.X.} 9.` C C M M b M B r r B c n r r 0 0 0 r B V V t V V B V V P O.O.} P G G G L D 0 e G F ( ( 5.Z y q q r D ) ) w.w.5.o.L L Z X.0.0.0.6.a.+.O.5.) / / D / ) C n ^ ) ^ ^ M n n B C m m m m M M ^ ) ) ( D ^ ",
"BXMXaXbXaXbXnXbXCXBXNXMXMXBXBXMXnXBXNXBXCXCXZXZXZXSXHXSXZXBXiX8X:X3XrXsXrX+XOX$X/.OX+X}.OX$XK.).^.D.F.[.%X%X%XW.R.G.%XwXF.R.G.x I.F.S.Z.A.I.G.G.F.F.F.D.D.D.K.T.).*X*XsXsXsXkXVXgXNXVXHXKXBXSXSXSXZXBXNXBXNXaXaXMXMX:XaXt.n.MXbXBXZXSXSXCXCXKXSXCXiXrXyXyXaXMXiXNXBXZXZXNXMXMXMXMXhX5XuX0X5XnXuX5XNXBXSXVXVXb.N.SXBXNXgXgXNXMXBXNXZXBXBXBXNX*X%XsXkXjXwXwX*XdXdXsXjXfXdXdXdXdXsX*XwXsXCXBXNXsXqX*XdXqXMX*XR.).VXSXSXSXNXsX*XwXjXBXBXiXnXhXNX{.~.lXqXjXgXgXmXgXgXgXgXNXNXNXuX9X0XnXZXXXpXBXZX9XCXHXVXVXZXCXCXBXBXCXBXaXNXBXZXZXBX",
"j.e.t.9.w.5.e.h.m.n.t.9.r.r.h.w.5.t.j.d.t.j.v.b.j.d.d.d.e.M.t.w.w.O.9.+.O...........] | | ] H ] $.d d E Y T a a 9 a d i w i 9 9 i 9 w i a i w i w a a d d a d j K I I I I | +.y.f..XgXuX=Xb.w.r.e.9.` ) 5.` 5.5.0.w.` 9.t./ 0.j.e.r.t.N.M.<Xj.` ` ! / 5.d.d.d.j.v.M.M.) ` h.t.9.9.O.9.e.5.e.5.v.O.O.v.t.t.) b ` >X0.6.6.+.q.e.j.d.v.v.t.h.a.@.E *.{.f.J.#.{ =.+.+.+.] K I G ] ] ] #.$.d.j.a.*.| K #.| 9.[ H I u.m.j.w.y.W H T &.t.r.9.t.t.0.B P (.P o.} X.O.6.} O.a.a.O.>.e.e.0.9.q.a.M.j.0.w.8X=Xx.v.N.M.r.c.v.v.r.5.5.9.e.e.t.",
"5.O.9.e.t.5.9.e.5.-.q.5.9.t.e.w.r.w.r.d.v.d.d.j.h.9.d.d.j.M.j.O.5.e.t.5.0.y.*.Z ' } ' J ] I G G @.j a I { U a a s a k s i u 9 9 a w i i w 9 i i a i a d d d G L I H I I I o.a.s.s.f.b.s.d.a.e.j.v.t.5.5.9.t.w.5.0.t.2.t.j.d.0.r.9.1.5.e.e.e.) !  .X.) 5.0.0.9.9.e.V.) N / e.N.d.0.d.9.-.O.yXd.d.t.9.d.t.d.j.XXuX1XO.6.6.O.O.` 5.t.t.e.w.w.0.@.@.&.+.+.@.E E | } +.Z P K J j I P I I @.d.m.0.o.P [ #.=.w.P H H | e.t.t.7.I y y L 5.e.9.5.5.` O./.U.Q y.+.+.) 5.X.:.y.M r >.x.d.e.t.t.d.j.e.t.m.v.9.0.e.0.N.w.9.w.w.e.j.0.e.r.9.r.",
"t.q.9.t.t.t.d.d.t.t.q.t.0.t.t.t.j.v.h.b.m.j.j.j.t.d.x.n.b.M.w.` ` r.w.5.t.O.o.+.+.} } ..] ] I G H f w j U k f s i a U a s i i 9 a i i a a i i w w i f H H G H P I K I I I P +.s.s.~.XXs.b.b.q.q.M.v.t.r.e.v.t.h.v.v.t.M.b.d.=X=Xh.r.v.M.v.M.v.i.i.d.t.v.v.j.j.h.h.M.C ) e.1XaXv.j.v.t.e.v.j.M.j.j.d.N.M.m.n.n.k.5.0.O.+.+.9.0.5.e.v.2.w.j.d.&.=.Q.y.*.@.E K @.] *.} J K G G ] @.@.K $.XX<XN.+.$.[ [ | M.J.T T &.d.j.j.7.E d d I 6.) 9.v.w.h.6.*.$.U.Q.s.0.a.0.y.{.o.B | s.2Xd.j.d.0.t.v.v.j.d.i.t.m.t.j.:Xj.v.j.h.r.r.v.j.v.j.t.",
"b.j.j.b.q.O.t.n.v.m.z.v.t.9.j.j.N.V.h.N.=X:X1X=XXXXXb.v.j.XXb.j.e.t.j.j.k.s.6.a.s.7.$.u.*.$.] E I H f y U U f f s l U U l s s i w i a e k f s i i a d l H G H I I [ G G | o.6.y.&.| d.b.t.m.M.e.d.XX=XM.v.b.M.N.v.j.0.j.n.v.t.e.M.M.M.v.v.d..Xv.j.b.N.m.v.m.v.j.m.v.O.h.iXbX5Xd.d.h.m.V.m.e.m.:X=XN.:X<X=X>X>Xb.q.d.a.0.O.e.h.w.5.r.` M.j.{.$.@.[.{.a.=.#.H [ I y.$.V G V j @.,.=.%.Q.M.M.N.f.$.@.%.=.j.#.{ P.u.d.r.b.~.E k T { a.` / e.1Xb.X.o.=.@.*.u.d.e.O.X.d.} .. X$XhXt.d.j.b.v.d.t.v.t.x.N.:Xv.XXN.j.M.M.t.5.2.w.m.XXb.z.",
"t.e.9.9.` 5.e.e.O.v.b.d.t.0.v.h.v.j.N.M.M.XXv.:Xb.e.t.j.d..XXXN.e.d.M.v.k.s.M.j.+.y.&.>.$.=.@.[ %.#.f k H k a l f h f k l s s s a 9 s s l k 5 3 8 a e d y G j K H I G j P } *.+.Q Z O.o.0.h.e.d.d.M.=Xv.v.j.b.N.j.v.j.0.N.b.v.d.d.j.b.v.v.x.n.XXv.b.m.h.M.v.j.t.M.m.=XBXiXXXt.=XM.m.m.N.M.N.V.=X1XN.1X:XXXb.XXXXn..Xf.f.b.j.j.h.r.r.2Xb.e.f.(.$.*.+Xa.u.#.T #.*.s.*.I W { E P.Q.U.H.%..X=Xv._.P.J.Q.s.N.{ U #.Q.k.h.M.~.{ U T #.f.O.5.e.5.e.f.s.$.@.=.*.k.d.e.k.s.>.<.}.4X|.q.d.v.b.d.v.v.v.j.b.b.n.v.b.d.j.M.=X9.5.r.5.v.d.j.v.",
"5.j.5.5.0.9.e.O.t.v.v.d.b.v.v.V.t.h.m.j.:Xb.M / M.j.j.d.z.M.1X#Xd.n.M.b..X/.d.d.u.s.,.,.*.$.=.I %.J.z T T j k l f s f f f s a s i 9 s x l f 4 4 w a d j H I j K K @.E T &.| y.s.*.5.0.d.d.d.d.k.2X=X=XM.XXv.N.v.v.t.:Xv.N.XXx.v.j.b.v.b.x.M.=XN.d.e.) r.M.j.v.t.t.t.e.N.z.d.:X<X<Xj.v.M.:Xm.9.v.2X:XN.XXN.XX.Xk.1XXX{.{.b..Xj.j.9.` e.e.d.{.u.$.*.X.+.*.I T %.,.y.u.E { { D.%.Q.P.{ J..XXXXXf.=.%.=./.M.T z W P.-XB.M.f.E U U I y.e.e.r.w.5.6.o.8.#.U.Q..X.XoX.Xd.y.'.'.p.i.i.i.z.b.d.N.b.=XXXb.b.|.d.d.v.d.v.M.t.e.9.5.t.M.v.t.",
"d.v.b.b.v.N.XXb.M.N.b.d.v.M.M.N.N.h.j.j.:X/ C 9.yX=XXXXXn.0X:X9.q.d.q.n.{.s.a.f. X.XU.=.=.*.*.[ #.J.l T H T k 8 s a i w a a a s a i s l f i 5 9 i l l d G { T H K ] W H.@.@.s.Q.s.q.a.d.j.e.0.0.n.M.M.M.m.M.=Xv.e.N.=Xb.t.N.b.M.m.j.x.|.x.z.#XN.t.w.5.v.j.w.t.t.v.j.0.v.N.M.m.N.v.v.m.t.w.m.j.e.2X<Xv.v.M.XXj.d.z.x..X.X0.XXb.j.O.h.M.0.e.M.o.,.(./.s.| I K =.u.y.u.@.W E D.J.Q.P.D.J.{.M.d.$.P.#.&.{.v.T f U J.{.M.d.+.T a e G y.j.9.r.M.j.0.F ~.=.,.y.{.k..Xs.0.s.f.q.p.f.i.b.b.q.n.b.b.j.v.N.v.v.d.i.t.j.h.v.r.w.h.h.V.XXd.O.",
"d.b.M.=Xb.N.N.N.j.w.e.i.d.t.M.<X<XV.t.h.=Xb.9.aXyXM.XXXX>Xn.q.d.d.d.n / .Xb.XX{./.f.P.Q.*./.u.I { { l j H y e a i a l f s a a a s 8 f a a 8 6 i l A.f y K I G G H } P [ =.&.+.y.s.f.} e.a.M.5./ d.M.N.M.N.XX1XM.m.M.=Xv.v.:XM.m.=XM.N.n.n.z.uX.Xh.t.N.t.5.5.e.w.e.d.d.v.j.j.h.t.t.r.r.r.r.w.h.9.t.2X=XM.M.n.d.d.|.x.q.k.} / ` j.v.v.t.5.b.b.>.,.=./.s.Q.U.{ @.u.f.+.[ H.{ W =.~.P.T E u.s.+.| %.J.=..Xm.[ f U { k.h.0.*.K k d K u.M.N.M.t.9.y.d.d./.| o.d.b.b.{.k.{.a.f.p.i.d.j.N.b..Xb.n.v.j.v.M.M.v.M.d.0.j.t.e.e.0.9.v.M.d.9.",
"j.v.v.d.e.e.j.=Xm.m.r.O.d.b.M.V.:XN.v.N.XX1XuXCXyXj.XX5X5X#X>Xb.N.^ C 0.uXhXa.b.f.s.P.!.*.8.(.$.{ J.k f H y w k k l l i a i a s i 8 9 i i 9 i a f f w d H y G G G C | @.P Z } / } 6.} a..Xn.9./ q.v.M.M.V.M.m.V.:Xv.M.N.v.j.=XM.b.t.V.M.b.:X.Xb.d.t.m.t.t.e.h.j.m.r.d.m.e.z.v.r.r.h.M.b.e.9.O.j.j.1X1X<XXXM.6.q.x.d.b.k.y.b.d.e.M.d.j.N.b.x.,.$.*./..X(.U.T I *.~.s.J.{ E D.!.(.Q.T { /.s.y.=.@.%.} 5.<XE h R { a.e.e.*.E W T { *.j.v.<Xb.k.a.f.b.s.o.a.s.f.b.f.f.b.d.f.y.p.d.j.N.b.n.d..XM.v.XXM.M.n ` N.d.d.0.i.a.q.j.M.j.r.j.",
"b.v.b.XXv.N.:XN.m.j.0.9.t.XX=XB.V.r.r.j.b.d.0.h.v.>X=X0X@X1XN.M.9XO.{.4XVXgXd.3X;X XJ.T.u.$.$.@.E d f f H H d a w s f a i i i i i 5 9 w w 9 9 8 5 8 w H G G H K @.} =.$.| } P I $.0.k.a.f.0.5.a.d.d.v.N.m.t.v.<XV.m.m.M.M.v.M.b.9.0.v.r.v.M.M.d.b.v.t.t.h.r.w.0.j.h.N.h.j.t.e.d.M.b.j.e.O.9.t.t.t.j.2X<XM.M.d.d.d.q.b.{.f.v.O.9.9.5.q.b.d.-.~.=.u. XoX}.Q.H.T.=.s.~.).{ J.K.T.(.T.R { ~.f.y.=.P.T.Z 9.ZXH a l { a.v.d.o.E H H [ u.r.h.m.b.6./ +.y.| o.a.a.a.a.y.o.8.k.k.b.b.i.b.v.v.d.a.d.j.j.b.b.M.9.hXiX9.q.9.q.j.d.b.v.N.N.v.",
"x.d.i.x.q.d.b.d.0.9.d.j.9.XXN.B.<XV.=Xd.b.v.=X<X:X1X=XM.b.#Xd.t.b.|.f.gXVXoXd.oX3XXXP.J.,.*.$.I T.T z z U R l l f s a i i 9 9 i s i i w 5 9 i i i a d k j K H I I ] $.u.u.o.| I *.M.d.+.0.v.j.f.X.M.V.V.M.b.v.<X:Xv.N.v.v.j.j.:Xw.b.:XN.t.e.5.v.v.d.v.m.w.9.0./ d.v.r.d.d.d.d.h.t.v.r.t.e.h.) 0 2.e.:X1XXX.XXXf.9.O.q.d.0.O.0.5.9.O.0.O. .+.+.| ,./.f.s.=.E T.~.(.(.U.H.K.K.T.(.U.U H y.{.s.=.J.T.}.SXMXT f f E a.j.b.*.#.E K W ,.M.m.t.b.f.6.+.P ] } +.e.y.0.6.6.f._.6.9.d.d.i.j.M.N.a.b.n.h.N.N.M.2XhXb.e.v.b.v.m.t.b.b.d.d.d.",
"d.b.x.i.q.v.d.d.-.O.0.` 9.XXM.e.w.h.j.d.b.n.V.=XN.XXXXN.:XyXv.0.n.i.#XkX{.a.k.k.b.k.H.W =.$.| V %.W Y U U U s k f h a i u 9 a s f 5 5 9 i f f s w a d U H H T I I @.@.$.P =.s.s.a.k.k.o.9.t.t.d.d.hX:XV.V.=XV.N.v.j.v.t.v.M.V.V.w.b.n.N.B.v.r.e.d.d.v.j.9.9.t.v.#X|.d.x.x.i.i.b.d.m.b.d.b.XX` C bXiX9X1XXXb.k.d.d.j.b.6.O.x.d.9.5.O. .9.O.O.Z 8.Q.y.k.*.U.E E s.}.].!.H.W W @.(.P.R H._.k.s.=.{ #.{.1XN.W s z #.x.b.d.s.J.E W { U.b.=XV.-X.Xk.y.| I *.o.j.b.o.b.a.b.k.k..Xv.N.XX|.:X=Xn.|..X:XXXj.v.v.e.d.0.j.v.v.t.t.N.N.n.z.b.",
"V.V.2X1XN.:X:XN.:X:XN.d.:X5XXXM.M.M.M.N.N.XX<XM.=X>X2XXX:X1X=Xj.b.v.f.d.q.b..X.X{.}.P.P.Q.u.8.o.$.R k T R W z l k l h g f u s s a i i l a f l f 9 f f w K H.E &.%.J.P.#.%.Q.~.*.+.6.k.k.f.n.m.d.j.=XM.m.m.:XN.M.j.9.h.M.M.V.N.h.h.<XM.b.m.m.d.d.d.b.t.2.( D / q.O.q.q.e.` C 9.d.q.d.i.x.v.t.t.,XNXm.8X=XN.d.0.q.X.5.M.0.X.6.d.O./ / / 5.5.t.X.s.y.a.i.Z I E @.u.s.s.=.P.D.D.U.~.P.D.L./.{.s.=.{ #./..X1XH.l U [ b.N.M.} r #.{ [ $..X:XXX{.b..Xs.&.[ | ..s.f.{.-Xd.f.f.b.>XXX.X:X|.M.<X>X:X,X5XN.M.N.b.N.m.v.m.j.t.M.=XN.=X:XN.:X",
"v.N.:X:XM.b.M.b.=XXX@XN.t.b.v.<X2XM.M.j.b.N.v.w.v.=XN.N.=X1XXXh.d.d.a.b.k..XoX.X{.4XP.#.}.8.8.=.=.F.Y W z W z z Y l l l s s s a i 9 9 f a w e a 9 k w 3 E T.[ =.%.%.=.E %.=.&.*.y.d.0.M..X.Xm.j.j.d.v.j.m.:XV.j.V.m.m.v.w.m.v.h.N.M.j.v.d.v.v.M.h.e.) 9.t.D C 9.9.r.r.w.) ` r.d.b.b.b.f.k.i.n.d.d.d.2Xm.M.n.0.t.` j.j.0.o.0.i.O.9.O.0.r.j.j.} y.7.f.y.' @.{ P.u.}./.Q.T.D.D.T.(.!.E T. X{.s.%.{ { /.{.=XD.R D.H.k.h.=X} [.T.K [ =.].M.v.{.b.b./.&.] ,.$.f.6.d.f.s.s.s.k.b.oXN.v.d.x.v.m.2X1XXXN.XXM.M.XXd.0.j.e.e.j.t.M.v.b.N.v.",
"t.t.j.N.:XV.h.M.v.j.N.d.9.b.m.m.<Xr.j.XXn.M.m.h.N.9XoX5X>X5XXXm.j.e.a.d.X.6.b.k.s.k.#.T.Q.*.*.#.@.W D.D.z R Y S.S.z l l a z s a f a 9 l z a f z z k k d I.J.J.Q.Q.%.J.H.{ /.s.s.s.a.f.d..X=Xb.b.M.v.b.j.B.2X:Xr.M.V.m.V.r.r.h.v.m.N.N.v.v.v.d.r.m.m.h.N.j.5.-.t.w.r.r.r.9.2.-.i.v.m.r.d.b.x.{.d.e.d.5X:Xj.XXXXd.b.b.oX9.6.q.:.t.` ` t.V.j.e.+.s.*.y.0.} P { !.u..X{.,.J.H R J.Q.^.K P._.f.y.P.{ { /.M.V.D.R D.K.{.d.{.3XqX#.J.J.P.'.x..X Xk.6.o.$.%.=.$.u.}..Xk.b.6.a.{.oXM.j..X=X,X#XXX1X:XXXXXXX>Xn.d.N.t.d.0.d.d.b.XXe.e.e.0.",
"t.j.t.j.j.d.t.d.j.v.M.e.b.v.v.m.m.j.j..Xb.m.g.<X:X2X1X5X1X-X=Xt.d.a.0.0.+.0.w.a.s./.E [ u.u.7.$.#.H D.S.A.k l D.F.x z l g z g s s l g z A.z R R x R A.F.R.J.T.(.!.H.H.J.D.^.}.u.*./.f.a.f..Xj.t.=XXXd.N.N.XXN.d.v.N.e.M.v.v.V.m.m.=Xm.N.N.N.m.m.V.V.2X:Xt.0.d.d.h.m.h.v.V.j.i.v.j.v.XXXXt.t.d.d.q.9.m.<X9.6.XXd.d.d.{.N.b.d.|.b.m.m.j.h.9.d.~.s.~.k.d.y.| [ !.Q.{._.^.T.K.D.P.&.Q.{ =.{.oX+.P.{ W u.{.d.{ z D.H./.oX/.s.,.L.#.E I y.0.a.3XXXk.s.@.H.$./.~./.d.k.{.f. X{.f.j.d.M.N.XX|.|.n.1X1X:Xn.b.b.0.M.b.M.e.d.j.b.j.v.j.5.) ",
"9.t.d.0.d.N.d.v.v.e.5.j.b.N.j.N.N.M.M.n.N.m.V.=XN.:XXXM.N.>X5X9.5.+.O.O.X.d.6.0.0.+.K I &.$.+.| #.T y f k j a z W l s f i l s a 9 i i i s a z z g f W j T =.$.~.@.E { #.{ Q.~.u.=.s.f.O.+.k.0.t.j.j.N.:Xm.>Xv.m.=XM.t.v.v.M.N.d.v.t.v.e.e.v.M.m.h.V.m.e.e.d.z.v.t.h.h.m.v.z.b.:X>X2Xv.0.M.j.v.b.t.0.e.h.v.k.XXq.e.d.M.b.{..Xn.-.` w.v.M.v.b.s.s.Q.f.b./.$.I U.,./. X(.K.W D.P.*.^.).=.{.}.s.J.H U u.f.XXJ.Y T [ s.b.+.*.*.[ [ [ I y.a.6.+.b.oX/.] K @.~.p.a.a.a.f.+X+X7.s.k..XXXm.=X5X>X|.|.>XN.M..Xn.b.b.d.d.j.b.d.d.b.b.5.5.9.",
"j.j.N.e.b.M.v.j.j.v.j.=Xj.b.N.1X1Xb.M.XXXXN.M.<XN.N.b.v.=X1X1Xj.9.O.` j.k.a.O.5.y.+.I K o.} *.P I G j l k d a f l f f g s 9 i s s s i f l l f f d U R D.W %.I | %.%.J.[ { ,.*.u.| y.f.d.*.0.2.) h.V.N.=Xv.M.d.b.b.d.XX=XV.v.j.v.N.v.v.d.v.v.B.N.b.N.e.O.w.q.q.v.h.e.j.m.t.:.v.h.d.t.0.9.t.d.v.O.0.d.9.( 9.5X.Xn.b.d..Xd.b.b.q.d.j.9.q.n.d..Xs.u.s.s.a.{.u.$.=.*.u./.Q.H.Y A.T.(.^.!.).y.a.y.I f k =.oX:X[ U T %.Q.a.y.F +.] @.@.@.s.k.O.} f.f.y.$.I &.+.y.+.6.f.{.f.+.d.b.|.>XXX1X:X.X>X,Xx..Xv.t.N.N.b.n.b.d.d.d.i.x.b.d.0.O.M.",
":XXX.Xb.:XM.=XB.N.=X:X:XN.M.=X=XN.M.N.N.XX=XM.>X:XN.N.N.V.=X2X>Xj.b.t.j.v.b.M.a.{./.#.I $.*.$.| #.E E f l R z z f a f f f 9 u s s f f s i i a l e f U U T K T K I J.%.@.T =.=.| | a.s.k.{.XXh.h.m.=XM.9.` 0.|.:XXXv.x.|.|.j.j.b.M.M.m.N.M.v.N.N.m.b.9.9.e.i.d.e.r.h.N.0.q.-.9.r.w.` O.t.d.t.9./ ` 0.5.w.5.q.b.e.=Xn.b.x.+X{.d.i.M.0.x.b.b.'.=.u.~.{.f.f.s.=.Q.u.f.{.Q.K.W A.).].Q.@.Q.oX.Xu.#.R z ).f.h.=.W { { Q.f.} +.+.P P | ] *.s.+.} 7.o.P V I &.$.}.~.6.O.f.OX]. X'.#X|.>XpX5X5Xx.x.n.XX:X2X<Xt.h.v.m.M.V.m.N.v.b.N..Xz.XX",
"i.q.XXn.b.d.b.V.<Xb.j.b.M.N.V.V.>XN.M.b.j.N.<X=Xb.h.B.B.m.M.1Xa.5.w.5.5.` 9.a.O.X.+.I %.*.} } Z G G I A.k k l f l s a a s 9 9 i f f s l a i w s a l D.W k T W [ [ E W J.{ U.&.&.8.0.y.a.d.N.j.t.d.M.e.9.w.9.0.N.N.M.M.N.XXn.b.n.x.z.d.e.h.N.v.e.v.d.9.5.0.e.a.9.) / z.q.d.t.w.t.j.0.q.d.j.9.9.5.0.e.r.w.5.O.t.XXN.b.O.d.f.d.d.:.i.i.|.,X#X$X*.+..X.X{.f.u.Q.u.u.u.~.Q.H.z A.).y.} @.=.+X3Xf.@.l z ).+X2X(.K.K.H L Z Z >.+.| $.=.[ Q.s.$X~.s.{.oXP.E $.u.s.f.s.i.>.~.4X4XrXrX|.b.M.b.x.|.1X=X:XV.8X8XB.N.V.B.N.:X<X2X:X=X>X|.x.z.",
"b.:.|.z.x..Xb.M.M.=XXXv.V.>X:X=XXXv.b.b.m.m.m.v.m.w.t.V.:XN.XX) ` e.O.2.5.0.9.+.O.} G E $.=.7.P G H G Y F.U z l l l g g s u s s i i w f f f a i s z { W W { { { E E J.J.W $.u.s.k.d.k..XXX:Xd.M.N.h.m.j.d.z.v.M.V.m.h.v.h.t.v.N.M.:Xb.d.d.v.m.M.r.` ( ` 1.w.e.O.-.q.9.m.v.` t.t.r.d.d.t.w.e.e.` ` 2.v.v.j.e.h.M.v.j.O.t.6.b.b.i.d.>X5XXXb. X~.]. X.XoX{.}.(.s.s.,.p.=.D.l l T.+X}.@.$._. X+.P e a %./.N.s.{ H G V } } o.y.u.s.u.#.&.+./.$.o.a.s.P G I *.} +.0.p.f.'.{.a.b.f.i.n.v.d.i.v.=X8X<X<XV.<Xe.r.m.t.d.b.N.v.d.x.x.>Xt.b.",
"N.b.b.b.M.b.e.j.j.=XM.d.j.XXn.j.M.v.t.j.h.j.r.M.j.h.r.N.m.t.t.) t.j.5.w.d.d.O.o.6.X.Z G I @.+.| E [ H k Y k l a f f f a a a s s i u i 8 w a i i a a U T K I T E G K P.H.%.| } y._.f.O.O.9.V.v.r.v.n.b.i.9.9.v.h.m.h.c.m.t.r.h.m.h.h.h.h.t.|.|.b.XXj.5.e.O.( h.d.i.5.r.v.0.0.0.t.t.d.e.h.w.5.0.^ 5.h.h.v.j.0.q.r.M.v.a..X{.f.n.n.d.e.uXN.n.].^.OX].{..Xp.f.s.y.s.u.,.Q.K.R R !.{.y.J.=.s./.+.I f k P >.t.$.G j H J =.$.X.0.+.&.*.I $.f.y.~.y.+.+.P ] $.$.s.>.p.d.q.q.f.d.a.b.|.f.|.,Xb.b.v.v.r.B.B.XX1X>Xb.h.j.XXz.d.|.M.r.M.2X:X",
"O.M.XXj.b.v.d.j.e.e.j.j.v.v.j.v.n.d.j.m.2.r.M.m.j.V.N.v.h.v.j.9.j.j.e.v.d./ +.o.6.O.] [ #.@.o.o.| @.[ U U j a a d s a 6 9 a 9 s a a s a w 6 s s f f j H H E [ [ [ J.P.#.$.*.+.d.i./.s.O.M.=Xi.d.x.b.m.v.M.e.t.m.j.v.m.M.t.m.m.r.e.t.h.h.9.t.d.x.x.q.O.i.a.d.0.O.j.v.0.e.d.h.v.z.9.d.t.m.v.5.` ) r.m.v.v.k.d.q.e.XXk.M.j.b..XXXd.a.O.{.b.b.].~./. X.XoX{.{.s.y.y.s.p.=.H.z R (.{.8.I ,./.y.a.%.U f I y.v.| y d y j L &.O./ P P | I $.o.s.} +.o.} ..J V v o.*.f.e.t.b.5.k.f.oXyX>XXX:Xj.b.=Xh.h.r.9.q.9.v.V.h.t.j.q.d.v.v.M.b.1Xe.",
"5.e.M.M.b.M.j.t.v.9.w.h.r.d.5.h.b.d.d.M.t.e.9.j.b.N.M.j.h.b.M.9.j.j.=XV.m c oX} +.o.$.P.Q.Q.~.^.^.#.U.k f k a f k s a 6 8 i 9 i 9 9 w s i 9 f f a s k j j [ [ E H E $.P I | y.{.b.0.0.5.b.x.i.e.0.9.9.e.9.5.9.2.j.t.j.v.v.v.j.j.v.t.V.h.w.t.v.:Xv.m.e.x.:.d.0.O.5.9.d.v.j.t.5.e.O.9.5.M.v.t.r.v.t.B.m.:Xd.e.t.v.M.j.M.j.f.d.a.f.k.0.3XXX.X+X[.~.OX-XXX.Xf.y.y.y.f./.$.H.R A.^.{./.=.U.s.o.a.$.U k E y.m.0 G R.d G *.~.f.d.u.*.| @.*.+.a.y.*.s.a.$.I P ..} P y.d.r.>X.Xb.b.b.M.1XN.v.v.m.=Xv.h.h.0.d.b.w.<X<XM.v.b.b.d.j.M.e.V.h.",
"j.j.d.XXt.h.N.v.v.j.j.t.e.M.v.t.j.t.d.` t.e.e.w.v.M.v.j.j.M.=Xd.v.t.M.>XXX6X.XX.+.+.$.Q.Q.=./.~.%.#.=.U f a f Y l s s f i i s g s 9 s l a f f z f f l { { #.{ { J.#.=.$.#.@.y.f.d.0.M.k.|.f.q.t.d.v.t.e.t.r.h.9.m.v.t.M.M.v.v.j.v.h.r.w.r.B.M.M.m.N.t.t.9.-.O.( 9.9.0.d.h.h.2.9.9.t.t.9.e.b.t.:Xm.h.w.V.j.e.d.h.:XXX=Xb.b.b.j.d.{.0.5X>X1X4XOX^.~.|.k.s.y.*.7.s.s.p.Q.#.A.D.Q..X{.@.=.} o.+.%.k f @.*.h.} %XR.K.^.+.o.0.e.8.8.=.$.| +.*.| +.a.x.*.$.+.y.a.$.X.5.0.b.=Xb.k.j.j.N.h.w.w.j.:XXXc.c.N.v.M.m.h.B.N.M..X|.j.N.v.f..Xj.",
"j.0.0.t.h.h.b.r.0.e.v.j.j.d.a.9.v.d.O.5.j.j.j.v.N.M.N.b.v.:X=XN.M.j.M.b.XX6Xi.s.f.s.~.=.~.=.~.(.P.=.@.U T k i d k s w s i 5 i 8 s a 9 f R f k l s 8 k D.R.U.D.L.P.P.U.%.#.| / O.+.,.s.;.x.+.+.q.t.v.v.=XV.h.h.r.m.h.2.N.v.r.t.:Xm.m.m.2.r.B.N.v.j.m.M.j.N.b.|.j.v.` 0.v.N.v.m.N.j.h.=Xv.j.r.w.V.<Xh.5.m.M.M.m.h.<Xh.N.b.k.b.q.0.k.0.NX=X:X X^.[.~.'.d.a.s.>.u.~./.'.=.{ D.f @.b.y.@.!.u.f.a.| e a I } r.s.H W H.=.+.+.O.0.*.&.| @.(.a.o.$.s.f.p.,.u.+./ X.| y.+.>.f.b.a.d.d.0.e.e.n.i.O.d.h.h.c.V.V.M.h.M.=X=Xt.d.|.v.XXe.j.d.n.",
"M.d.v.2.j.e.j.d.-.:.q.O.d.d.9.t.t.e.q./ 5.e.e.m.M.M.:X=XV.8X2X<X1XN.XX|.oXp.u.y././.(.=.Q.Q.P.(.(.Q.E { { U a U d a i s a i s s 9 a 9 a a s Y U f 8 8 j I @.U K %.%.~.U.W L } +.p.>.+.a.i.O.i.9.t.v.m.v.v.j.h.r.v.v.h.N.t.r.h.w.h.:XB.h.v.r.h.B.=Xj.N.=XM.O.i.M.h.t.M.N.v.m.<X:Xm.9.r.N.N.j.e.v.r.9.d.v.n..XXXm.XX>X=X.XoX{.d.a..Xk.d.5XN.{.Q.!.].'.|.'.~.,.<.u.a.s.%.D.R l T.XXX.#.U.y./.{.] k Y @.y.h.s.D.R W @.u.s.b.0.s.&.P @.~.f.8.+.*.a.d.a.s.i.0.+.&.y...:.y.d.5.a.u.i.p.|.b.d.i. .9.9.( B.m.h.r.m.h.r.N.M.b.i.n.b.b.v.d.",
"v.b.d.t.r.j.O.2.^ )  .^ ` S ^ C / 5.e.` O.5.5.1.V.=Xt.:XN.N.V.=XN.M.b.'.'.~.{.f.u.,.u.%.=.=.=.=.*.u.{ z W w i a a l f f s 9 6 9 i s h w i s k j d s f G | I U V ).%.y.s.J ] ~.p.{.d.b.a..Xz.t.9.t.j.t.r.9.e.5.9.c.v.v.m.<XV.m.w.V.h.V.m.m.M.N.<XB.N.M.v./ n -.M.M.O.d.w.9.e.9.m.w.M.=Xj.t.9.` ` / 9.0.=Xh.n.n.O.z.b.N.M.oX.Xj.d.b.a./ d.>Xf.Q.=.Q.oXb.p.&.%.=./.+.,.%.k z R P.f.*.E =.7.s.y.$.R k $.0.v.| k k j ] Z +.O.O.+.} | &.*.0.s.$.Z d.q.a.a.q.9.y.+.6...<.y.a.d.f.<.p.x.i.M.h.w. .+.v.O.m.j.0.0.b.h.h.B.e.5.b.b.d.M.=Xw.",
"d.e.d.e.5.w.0.t.t.1X#XXXXXt.5./ O.^ ^ ^ O.t.0.5.h.m.M.tXM.=XM.t.t.v.i.'.|./.k.f./.Q.,.,.=.%.$.$.u.=.H s U a w 8 f a i w 5 i i a f f s a i a U E { A.R J.*.%.J.^.OX=.7.{.~.u.s.+.O.6..Xk.d.9.j.d.j.0.j.j.h.r.t.t.j.j.N.N.m.m.m.h.w.w.m.M.v.m.j.M.M.m.m.XX .i.>XnXXXd.V.h.m.9.O.v.j.5.r.d.d.9.` ( ` ( h.m.8XN.n.,X:X>XM.b.k..Xv.a.a.b.f./ -Xd.u.U.Q.f.b.f.>.@.,.Q.u.=.@.U z Y E _.u.I @.y.f.+.$.w e $.0.h.$.f k j I ..+.+.q.X.+.| P O.a.u.y.} d.x.i.+.0.0.d.+.+.0.a.p. X X3X$X|.|.h.v.j.t.d.x.|.x.d.d.d.t.d.e.w.w.v.w.j.v.b.n.b.j.",
"pXnXiXuX9XaXnX2X:X8X1X6X,X1X2XyXNXMXnX=XN.NX2XyXiXaXiXBXnXCXMXiXyXuX$XgXkXqX X.X+XOXOX^.^.).[.$X$X*XI.G.R.A.z l l a 9 i f z l s g g g l l A.K.R.F.A.A.).).T.!.).].(.(.(.U.(.3X{.>X6X>XoXXXXX>X>XyX5X9XtX8X<X8X2X1X=XiXtX7XiX9XiX<XM.V.2XyX8X<X8X8X8XaXaXuXiXKXLXaXaXMXiXbXaXnXnXiX:Xb.>XyX<X8X1X1XN.5XhXBX1X0Xn.5.:XiX2X4XhX9X1X3X3XgX3XuXHX*X*XsXkX0XqX*X[.OX$XqX(.).R.I.I.I.+X+X^.[.}.}.}.[.U S.OXuXiXOXG.R.K.(.qXqX3X>Xs.~.U.^.(.{.+X;X{.>X>X}.u.y.5X>X}. X=XXX+X4X+XqXqX6X2X2X1XXXXX2XhXrX4X2XbX2X<XbXiX2XBXbXtX8XyXhXhXhXhX",
"uXNX2X>X=XV.v.m.v.M.n.v.t.j.m.m.n.>XyXyX0.,XXX2X>X9XyXaXaXNXNXaXaXsX6X4XrX6X$X$X$X+XOX[.[.^.T.(.+X(.D.D.D.l k S.G.%XF.&XdXF.x g l Z.l z z A.T.[.S.s W R.K.T.).[.^.Q.(.+X).OX6X+X}. XoX4X-X2X>X5X9X2X>XyXyX:X2X2X2XaXaXbXtX8X2X2X8X2XN.<XaXaX2XtX8X8X9XuX5XMXHXiXiXiX<XyXMXaXMXnXyXyXiXiXaX=Xm..X#X3X5X8XiXnXNXd.M.BXKXSX5XpXZXnXgXuXgXkX>XHXsX%XOXkX0X3XOX[.OXOXOX(.T.I.A.A.K.(.qX[.(.$XgXlX[.D.K.$XiXbX[.z R H.$.>. X3XuX}.(.[.).(.}.}.+X/.b.|.$X(.JXVX5XOX}.uX5X5XgXgXjXlXNXaXyX2X>X5XMXhXrXhXiX8XtXiXbXaX2XaX9X8X8Xm..XrX5X2X",
"M.1Xt.e.d.w.d.t.r.XXn.M.j.t.h.N.:X5XN.M.t./ #Xn.i.q.n.XX|.,XuXiX|.3XoXM..Xx.~.f.a.s.s.=.=.$.=.Q.{.=.H y I j d A.l a a l 9 i 9 u 9 a 9 8 a a E #.l i z { W W #.Q.$.$.&.6.+.y.0.*.y.y.d.d.0.t.e.t.d.q.0.e.w.2.w.w.r.m.M.v.h.h.h.r.t.h.m.9.9.9.m.m.j.M.v.q.0.9.9.9.h.r.m.M.N.t.r.0.v.d.t.e.j.w.O.-. ./ O.t.e.j.d.q.rXZXkXXX0.M.d..X3X3XgX6XO.NX(.Q.~..X-X.Xu.U.,.u.*.$.[ k f a U | $.J L o.f.*.U.W T f.N.m.%.a f H | u.{.a.j.=.| &.[ [ V | *.i.p.:.p.*.+Xb.b.a.6.j.N.>Xk.a.{. Xj.b.1XXXe.d.2X|.v.B.m.=XM.V.m.B.h.h.2Xv.v.t.b.XX1XXX",
"h.j.v.b.M.t.t.e.v.e.0.9.0.v.0.v.j.b.b.v.v./ :XM.q.y.i.b.|.f.x.f.e.f.x.>X,X{.{._.~.Q.s.,.$.@.J.=.} | E H #.H T l w 8 8 a u i 9 5 9 i i i s i T %.k 9 T H.l W P.Q.T.U.&.o.+.6.+.+.s.].b.b.b.t.b..Xz.i.0.t.V.m.h.h.m.h.r.r.e.r.h.j.j.j.M.m.h.e.r.h.h.v.v.v.x.m.v.d.m.M.=XN.j.m.1XN.2X=Xj.d.q.d.b.q.9.O.i.>XN.h.0.0.NXBXBXXXd.d.t.d.a.O.6..XM.gXu.U.Q.b.d..X/.=.*.=.u.@.E U f w j *.$.I I } f.~.Q.H j 6.m.V.$.s k T $.+.+.0.e.u.y.8.{ #.$.o./ 6.i.:.+.>.x.x.x.a.a.w.r.d.y.a.p.|.h.0.j.m.b.e.b.'.5.r.:XV.m.h.m..Xb.v.<X=X<XN.b.@X:Xb.",
"m.j.j.N.j.j.h.2Xv.t.9.a.d.b.+.i.>Xb.z.M.B.N.9.N.r.t.v.:Xk.b.b.d.0.d.'.|.y.f.a.s.P.,.f.,.| [ H r $.dX#.j j y H a 8 e w a 9 9 9 9 9 f a s s i j K l a W E T P.P.Q.| | =.*.$.f.{.~.>./.{.f.f.-.j.b.b.|.d.e.v.v.h.v.h.h.m.j.h.v.v.N.M.v.m.m.M.:Xm.<XN.e.j.d.:.d.r.t.h.m.m.j.N.=Xd.d.b.q.x.b.q.i.b.-.0.N.z.>XN.v.b.n.yXkX>Xv.,X.Xn..Xd.t.d.X.M.NX^.!.~.1Xb.f.8.=.=.=.&.&.[ U f i j *.$.I @.} 7.u.*.H K a.h.h.] a h U $.o.6.0.9.} o.| E I >.+.} O.+.! } +.0.O.q.a.0.e.t.d.f.a.a.>.d.9.2.r.t.e.x.i.j.h.v.h.m.b.f.+.O.r.<Xm.v.v.XX|.b.k.",
"=XM.b.N.v.M.N.M.5.M.t.e.a.:.O.e.j.j.t.h.5.v.9.N.h.w.h.N.i.x.b.0.-.q.i...} rXp.>.@.] ..P I G j #.Q.V y e y y 8 4 8 8 8 w 9 9 5 5 5 u i f g 9 d K U f k R W #.#.=.u.@.*.u.,.s.}.s.u./.XXb. X|.b.b.x.|.n.v.e.w.3.w.h.c.r.h.m.m.h.v.M.N.h.r.j.M.t.t.M.e.d.z.i.i.9.` t.v.r.9.d.d.O.9._ x.v.q. .O.z.q.O.9.O.i.N.v.t.` h.m.v.N..Xb.d.d.s.0.5.C =Xy.$.T.[.XXXXf.o.*.$.] @.P K a s s T } | G [ u.} >.u.E H.f.h.5.I 9 s k #.*.a.a.O.} y.| y J ....v Z :.0.O.o./ 5.t.y.0.5.w.w.0.a.b.p.p.y.O./ ! :.i.r.v.m.w.h.h.d.f.-.2.h.=XV.N.N.v.i.d.j.",
"XXXX>X:XXX=Xv.w.h.v.:Xt.v.+.q.N.V.:X5.v.v.M.e.2.v.t.b.,Xt.d.d.d.j.N..X|.kXgXp.~.^.<.<.| I ] R.U.[ [ P q d e a 9 e w w w 9 9 5 4 9 s s f s a f W j f Y D.E H [ J.P.=.$.$.*.u.s.*./.s.e.b.f.f.x.|.x.x.b.v.e.w.g.h.h.h.h.j.m.B.m.t.v.N.V.V.B.r.` r.M.r.9.q.x.b.j.r.d.t.v.:XM.h.d.9.0.i.O.q.i.v.e.d.x.d.9.q.j.d.i.5.e.j.v.d.d.d.f.d.d.q.O.) 9X0.} @./.5XXXf./.~.~.=.#.{ { s f a j P | H I &.*.*.u.H.T.XXXX=X#.l x l E $.u.d.d.0.a.8.H @.$.+.' | a.d.O.X.9.e.N.0.} 0.d.9.a.6.a.a.d.0.O.` d.j.h.w.m.h.V.M.m.h.m.m.m.r.h.9X=X:Xb.z.x.>X",
"XXXX.XM.j.M.t.r.r.M.N.0.r.d.j.N.V.V.9.v.b.v.j.` {.x.b.N.t.j.M.d.h.j.v.x.'.i.f.Q ] ,.p.$.V (.W P K H Z d f H e w 8 w w w 9 u 9 9 9 s s l g g f j j f j K H H [ E @.,.*.$.$.*.a.,.u.a.d.f.b.|.'.x.x.q.d.m.9.9.r.w.g.w.9.r.h.m.v.M.v.m.M.m.v.v.r.5.v.N.h.d.|.b.b.v.m.v.N.j.j.j.b./ -.O.X.O.b.d.0.d.q.i.q.9.v.d.d.t.t.t.v.N.m.t.v.b.d.d.O.uXv.d.*.I u.NX0X.Xf.{.}.%.[ =.P.W g s H *.$.H K | u.f.u.J.).1XN.XX#.s s k E U.(.{.t.0.y.*.K ] | P &.| 6.9.0.O.9.e.v.y.$.f.j..X0.y.k.r.w.h.r.r.j.v.N.t.5.v.M.m.m.h.h.m.` ( B.1X2XXXXXXXn.n.",
"t.d.d.d.M.N.t.t.r.e.N.m.m.m.r.b.N.v.e.9.e.e.9.2.^ i.0.e.r.j.e.9.w.5.9.x.'. X} 0 P ~.Z P !.).j G [ I 8.E l H H 9 9 w 8 w 6 9 9 5 i g f s i u 9 d j f K K d K [ W =.,.u.=.u.Q./.,.u.b.b.#X X.Xb.n.b.b.d.v.j.h.j.h.r.r.h.h.h.h.h.d.r.m.M.h.w.r.w.` t.m.h.b.XXv.=XN.h.d.q.O.x.i.a.q. .i.q.O.d.x.v.t.t.:.0.e.m.b.b.O.0.9.0.r.e.d.0.t.d.9.) 0Xt.0.*.[ } d.1X3Xb.{.+X#.I $.$.W i s W | $.j G | +.s./.J.#.>Xb.0.%.f h Y H ] 8.0.j.b.d.o.G K ] | &.*.O.q.O.O.q.i.i.].^. Xf.y.o.{.0.0.w.m.r.e.O.9.0.t.9.e.M.v.r.r.h.( N 1.8Xm.M.,X@X:Xt.i.",
"x.v.b.b.b.j.v.e.e.r.N.N.m.V.v.e.b.v.j.0.v.b.t.5.` d.N.t.h.h.9.9.h.v.q.d.d.|.! Z OXOX| ] %.#.[ I T =.P 4 d H K a a i i a u u u g g f g l i s k T l l T E k E #.{ #.=.*.$./. X~.~.~.].{.|..Xv.v.N.N.d.d.v.j.h.j.j.r.h.r.h.h.m.h.h.r.m.M.v.w.9.w.w.w.N.m.v.|.N.d.d.t.b.b.b.:Xt.q.x.q.i.q.d.j.i.q.d.z.q.i.d.` d.O.0.0.e.j.t.9.e.9.9.d.x.a.k.j.O.6.&.} 5.e.5X6X/./.=.] ,.=.{ s s U $.@.l { ,.u.~.~.E I XX=XN.$.9 z f d ] $.=.0.q.q.*.I E ,.p.y.y.+.e.5.} :.b.i.'.u.a.d.i.<.{.0.0.9.M.N.d.t.5.v.j.9.9.N.M.9.9.h.9.5.M.yXd.O.b.>X:XN.N.",
"|.XX5XV.XXN.n.=Xv.N.j.b.b.O.9.z.N.v.d.5.j.0.9.j.` C t.m.j.e.j.O.9.h.d.j.b.k.} y.*X~.J I J.I ' @.U =.0 3 q f H a u 8 9 w w 9 i s i u u s 9 i a j f a H T U [ W W @.=.$.=.u./.~.~.~.u.x.'.b.j.d.t.t.r.a.q.t.r.9.e.h.e.r.v.j.h.m.m.N.N.N.c.v.m.N.h.r.N.:Xb.|.:Xm.d.b.XXn.N.M.v.b.x.i.i.r.j.d.q.d.e.d.q.|.M N 9.t.r.t.t.r.r.t.j.m.j.n.b.k.6.5.6.y.f.y.O.6.9..X+X$X^.P.#.$.E s f U u.%.R D.$.*.$.} G E XX1XiXr u A.a j E $.u.a.t.e.>.{ E =.,.o.} i.b.+.0.:.z.n.f.*.O.a.k.x.'.o.a.a.0.N.=Xv.e.v.v.9.v.v.:X.Xd.0.N.1X2XaXd.v.5XXX:X>X1X",
".XXXO.O.:Xd.v.M.XXM.t.v.b.b.M.N.v.j.v.m.v.v.j.t.9.O.9.e.d.t.r.e.9.0.a.j.0.0.*.~.*.' ] %.&.I | K T #.r 8 f S.R i a 5 i 9 9 i 5 9 9 9 s s s s w U k s U H H I K [ P.I G *.*.$.$.*.s.u.d.f.f.e.d.9.t.j.t.q.t.e.r.r.r.w.r.j.r.w.v.N.:Xm.h.m.m.h.b.m.C.:XXXn.|.n.XXN.N.>XN.N.d.M.m.b.XXi.h.N.t.9.q.9.z.:.x./ j.2Xb.w.h.w.h.h.d.d.d.e.t.a.6.d.=X5Xa.+.o.0.5.O./ } +.$.{ [ @.{ l z W =.[ k H *...} | E E b.XXM.{ F.g a f K I | 6.q.i.*.{ [ *...] | >.:.:.a.d.v.n.s.s.y.d.d.+.O.;.+.t.0.N.=Xd.i.d.q.b.N.d.x.{.b.q.d.i.n.M.j.N.9X.X#X,X,X",
",X.X9.pXiXe.b.M.j.e.b.N.N.M.M.M.N.t.d.d.v.j.v.0.9.b.M.M.M.=XV.v.b.d.d.i.q.q.O.} o.o.U.%.@.I j K k H *.T R.R.F.i s w a i 9 6 9 s f s l u l s a U Y l l U [ I E #.#.0 P (.+.8.s.y.*.a.d.d.i.q.a.0.v.t.r.d.q.9.j.r.N.m.m.m.r.m.N.h.m.h.h.v.j.=XV.M.m.m.:XM.b.n.|.N.m.:X|.XXN.M.b.v.M.|.v.v.9.9.d.f.i.z.d.q.XX.X:.f.j.j.e.9.5.0.a.0.O.9.a.a.w.9.} I s.M.d.9.6.O.X.G r j V G w h Y ] K a H } } +.} I I e.e.t.I s s a a E @.=.i.i.+.*.K $.y.y.*.*.O.:.a.e.j.N.d.+.y.y.r.d.o.X.a.;.f.v.N.N.t.+.-.b.{.x.i.@Xi.-.0.x.x.b.XXj.:X9XM.b.b.b.",
"#X|.b.>Xd.M.=X1XM.d.M.b.j.N.v.v.m.M.d.d.b.e.v.0.q.d.j.v.N.j.j.v.d.:.y.:.d.d.Z Z >.,.$.' ] [ I ] j e =.K.R.D.j a f i 5 w a g g g h g s u a a R Y k a k U #.E W { { P OX(.+.8.y.o.o.s.d.a.|.k.d.d.j.r.h.d.q.d.r.w.B.h.M.h.j.3.m S v.M.t.m.M.v.v.M.h.h.v.v.V.<X:Xn.m.m.b.z.v.b.t.b.@X|.9./ ` h.d.d.i.:.-.q.9.O.:.d.a.d.:.d.r.j.9.n.d.d..X0.) O.y./.}.b.t.b.d.d.M.| d %.$.W a i k [ E i U :.O.y.$.E #.j.=Xe.W g f d d H @.|  . .p.%.G U.8.+.*.*.+.5.q.e.v.m.t.X.| +.a.5.f.f.f.i.>.5.e.N.i.+.i.#Xb.i.XXN.b.v.t.q.q.i.b.t.M.>Xv.n.n.i.",
"q.z.n.b.N.M.XXXXXXXXe.M.b.b.n.N.v.M.d.d.N.j.v.d.v.f.z.b.b.x.b.b.a.d.j.k.f.f.0.O.+...] ] E I #.@.j d Z H l U U k k 9 a i a f g s g g f a f Y z D.k d d H T W T E T P.=.| $.o.a.y.a.d.d.i.'.'.d.v.m.d.d.d.v.t.e.e.m.h.h.9.h.h.1.r.aXM.9.j.M.h.h.m.h.v.m.N.2X2XN.@XM.h.d.i.b.v.t.n.0.q.j.9.t.0.9.w.a.i.d.t.e.0.q.a.i.d.d.x.j.t.a.b.0.a.0.6.t.0.~.*.+.e.t.d.d.d.b.$.K [ $.I a w U [ T a W p.i.0.y.#.P.:XXXj.T l W T k H #.$.a.d.>.@.{ @.$.+.o.y.0.9.q.d.r.v.q.7.*.*.s.0.d.y.+.f.p.f.O.-.:.O.9.v.d.b.b.v.v.e.0.v.t.x.n.t.9X2Xb.d.b.d.",
"|.:X:X>X,XXXb.1X:XXX>X5XXX=XM.:X=XM.h.v.t.r.v.d.h.j.n..Xk.|.f.d.0.w.t.=X.X{.f.u.*.$.$.U.J.E H I j k P H a f l a s f i a s f f s h z z f z l f l k k R H { { [ E #.U.@.$.$.y.s.y.a.d././.p.p.f..XN.n.x.t.j.j.j.j.<Xj.r.j.h.V.:X:X:Xw.r.j.h.m.V.V.B.h.m.N.N.<XN.n.N.v.9.v.n.n.n.n.i.i.M.v.j.q.j.2.e.d.t.e.d.j.v.d.z.z.z.q.e.d.q.a.0.e.a.a.v.O.o.=.+.e.d.5.e.b.XX=.W K I G f i l I y w E b.x.i.p.#.=.n.XXN.T f l W W D.L.=.k.d.y.$.W %.*.y.y.y.0.d.h.e.h.M.b.y.$.+.a.a.d.O.+.f.}.'.q.t.v.v.t.b.v..XXXb.n.d.t.e.e.:.i.0.0.v.uX>X|.|.",
":X1X<X:XM.v.n.>Xn.d.x.n.>XXX2X<X=X=XV.e.d.v.t.t.t.m.b.d.M.N.j.h.m.v.d.d.v.d.~.*.+.+.] I J.[ E [ H k *.W l l l a s s s g l z s i s h h g l f i f k s k W #.j y I E I I | o.*.7.+.*.d.s.b.{.x.d.i.d.j.x.d.j.h.h.v.<XM.j.m.V.M.N.M.r.h.m.B.m.=X:X1X<X<XN.v.N.m.m.i.N.N.v.9.O.z.|.|.d.XXe.v.N.0.0.e.q.q.9.h.h.d.0.d.i.C ! i.j.t.q.6.6.a.0.0.` ` X.| +.O.e.O.9.5.d.Q.K E P y a a a [ d f E x.d.} p.@.%.|.v.v.W l l D.F.J.T.(.k.k.f.=.W %.u.>.*.s.0.e.e.t.m.j..Xy.$.y.0.n.b.a.0.{.b.d.v.M.N.9.b.N.d.v.d.b.b.d.j.9.h.:.:.i.q.9.M.1XN.XX",
"=X=X<XV.2X=X=X:X@X|.|.>X,X=X5X5X9XN.d.` e.r.5.e.0.v.b.q.m.h.t.M.t.9.d.0.d.t.+.} | &.] ] j I $.K K K %.k f U U i i i i f a g i i i s f f s w i k k d d D.{ y y K E K I | *.o.6.X.+.0.0.:.>.:.O.9.i.i.q.0.t.h.r.r.N.j.j.m.h.j.r.` ` 1.w.h.m.m.m.1.m ^ V.v.9.t.v.q.r.9.h.t.O.i.x.n.=X2X:XN.v.5.t.0.9.5.w.e.r.t.i.x.C n n.,Xd.k.y.0.b.j..Xb.r.e.+.+.y.0.( 0.n.e.w.| W I Q V w a d I H a T x.i.0.:.@.%.=XXXb.T Y U W D.D.L.^.XX3XQ.P.{ $.~.u.y.s.a.t.j.b.h.5.m.a.+.0.+.d.d.f.d.d.b.b.M.d.n.>XXXb.e.N.M.j.h.j.t.^ m.v.O. .i.9.2.j.1XXX",
"N.8XN.d.=X:XN.=X>XXX=XiXyXyXiX0X0Xn..Xj.9.e.w.r.e.j.b.t.m.v.N.=Xt.9.d.b.t.q.+.6.} Q I | G H *.V G d I s h l z Y l a w s g s i s i f g g s s s l E Y k W E K G G y I @.| *.+.6.y.a.0.q.a.O.+.a.q.r.-.t.j.h.m.c.r.M.e.t.j.v.M.V.m.d.m.2.h.m.V.8XS S aXCXm.m.M.b.d.v.b.d.x.b.b.x.n.N.v.t.b.v.e.` i.O.5.r.w.9.5.9.b.i.#XBXrXi.b.a.d.k.XX.Xk.v.d.y.k.f.d.h.v.M.d.t.} [ | ..%.U l k I H a K d.i.i. .P | :XXXb.{ l U { U W T. X8X1X/.P.H.^. Xy._./.k.t.d.b.d.j.m.d.6.X.0.j.d.{.{..Xb.b.d.a.k.b.N.=XXXb.b.V.:Xm.j.` b.>Xe.9.-.q.d.d.v.v.",
"m.m.b.b.:X<XV.v.N.=X=XiXuX|.@X=Xb.d.n.N.v.b.j.t.t.j.0.b.v.XXb.M.M.d.e.d.5.d.s.y.+.y.u.7.V I L B I H I d a U k U U a f g g l g u i g p u s g f s E l k W K j G H G #.!.(.Q.s.~./.f.0.a.a.d.p...d.t.e.j.v.d.r.h.j.M.v.v.v.d.h.m.v.M.N.v.m.B.N.m.h.iXBXiXr.j.XXb.d.q.i.x.x.0.-.z.|.=XM.N.e.` ` O.e.5.h.1.` e.t.t.9.z.#X,Xy.9.5.0.6.9.j.k.a.k.b.f.y.y.h.h.v.d.y.9.Z G | o.&.H a T I H s I d.d.O.) &.=.M.v.M.H.Y H E U { P. X8X3X}.(.J.^.+Xy.7.y.b.0.d.d.d.h.m.d.y.o.O.9.=X{.b.m.j.a.b.N.b.O.=XXXd.a.j.e.+.5.5.j.d.N.e.v.z.i.x.i.b.N.",
"h.v.N.:XN.m.m.=X=Xm.N.1XXX.Xb.9.d.d.b.n.M.d.t.e.5.t.d.t.m.v.t.0.t.b.b.q.O.q.a.a.s.u.>.X.| @.I I E d P e w j j H d 9 s f s s f a s g s u l l s i d f R W T E H [ { J.I B *.u.~.~.6.y.k.n.k.b.p.d.b.b.b.n.b.b.d.v.b.j.t.t.h.w.M.j.h.r.v.j.v.r.m.V.1X8Xr.h.v.v.i.q..Xi.d.` ` e.m.b.r.j.=Xh.2.5.-.v.9.r.w.j.r.e.9.5.9. .:.e.w.9.9.q.O.5.k.f.d.j.a.u.0.e.0.e.9./ ` P I P Z | T l H P T s I e.d./ O.| P k.h.w.T U H E W D.!./.=XXX.X!.D.=.~./.s.f.j.r.m.j.e.9.` F | ' 5.6.5Xm.M.t.M.M.1Xj.d.0.XXb.b..Xb.v.f.d.r.t.XXN.XXrXrXi.i.i.9.r.",
"m.B.C.h.5X:X:Xv.:XyX=XN.N.M.:X=XXX.Xn.M.b.v.d.e.r.j.b.M.N.N.e.t.d.d.b.|.b.f.u./.s.s.s.y.=.=.@.%.E j $.j a a f { d s f h l s s u i i s 9 l f s a e a { k H K T { [ [ 0 v *X(.y.y.0.a.a.d.f.j.i.x.|.n.x.i.x.b.d.x.n.v.j.t.h.9.m.v.2.2.e.t.j.v.V.m.w.r.w.e.0.-.O.-.:.d.e.( 9.9.v.d.9.5.0.9.t.d.i.v.r.h.j.t.` w.m.t.e.b.|.v.M.b.0.+.6.t.9.a.q.b.a.s.s.b.d.9.9.5.d.| I | Z } @.H H | { f [ d.w.5.O.L G d.=Xm.H j G I H [ Q.y.j.t.s.!.D.$.~.+Xf.f.j.0.O.d.b.t.O.} o.} 3X=Xb.oXs.d.b.N.B.j.O.XXn.6.b.b.d.v.j.e.j.9.O.j.=X5.m.XX@Xb.v.v.",
"v.B.m.aXVXx.#X.X1X:XN.XX=XM.N.B.j.v.b.q.9.t.d.9.r.e.v.v.t.v.j.d.q.t.q.b.b.{.p.s.f.y.s.s.I #.P.=.[ H %.k l k f K j l g g f f s i s s f a l h f l a d { D.R #.H.[ [ P y *XjX}.8.f.f.j.f.f.b.v.k.'.|.,XoXx.XX1XXX{.XX0.9.N.:X2X9.( t.v.j.v.h.m.m.v.h.m.t.9.i.f./ :.i.d.t.m.N.2.9.b.d.x.x.i.z.v.M.j.h.m.m.j.t.9.M.M.M.M.XXx.x.k.y.0.0.t.0.+.q.0.k.y.6.e.0.9.2.+.6.P G P / Q #.d G $.I e I t.b.d.X.V G y.d.=XJ.H E @.W @.*.y..Xk.{.Q.K.U.'. X_.f.N.M.5.e..Xe.t.} +.o.k.j.t.b.d.f.XX6.b.N.b..X>X0.j.m.N.M.b.d.e.2.6.a.e.v.:X1XXXx.:XV.",
"V.m.h.x.>XN.d.b.b.b.N.N.b.x.b.t.v.M.v.b.b.d.j.d.0.5.0.t.9.j.t.t.d.0.d.q.d.d.d.a.u.s./.~.#.J.T.!.J.H E U k l k T f l f g g g f a i i h l z x l U a U R.A.U J.%.H.P.P.!.qXOXy.s./.{.XXn.{..XXX.X$X3Xb.b.uX<Xt.j.y.:X1Xn.1X1X2Xv.q.d.N.M.N.t.m.m.m.m.v.q.q.d.b.b.v.v.e.t.m.v.v.M.N.M.v.v.b.v.v.m.v.m.M.M.m.t.d.0.h.v.N.M.0.;.>.a.o.f.b.5.F / 0.{.s.{.M.0.e.w.+.} P I | O.+.$.j I +.P j I h.M.h.O.Z I 7.) q.%.E @.&.G @.$.u.f. X3X[.K.=./.k.s.d.M.j.t.6.O.0.0.} *.s.y.e.O.d.b.m.M.t.b.d.v.XX=Xm.d.0.j.b.f.q.5.O.0.0.w.b.b.:Xj.x.:XM.",
"9X=XN.x.:XXXb.b.v.M.j.N.:XM..Xb.M.b.N.v.n.b.d.b.n.v.b.N.N.XXj.d.b.w.e.d.a.d.f.s.~.Q.Q.~.| #.D.H.%.{ [ H k z Y S.z l g f f s u u g g g l z z z A.A.S.H.R D.U.{ J.T.=.U.~.s.s./._..XXX.XoX3X5XuXrXj.w.5.5.e.t.t.O.9.e.i.z.0.#X|.x.b.b.M.v.t.t.v.j.j.v.i.O.d.i.q.t.m.B.V.w.9.r.h.m.V.:X>Xb.N.M.N.m.B.=Xj.0.` w.0.j.h.h.v.M.z.>.7.} O.5.O.O.) j.a.| s.v.e.5.5.O.o.@.K | 0.o.I H [ y.I d y } ` j.M.u.G o.k.b.$.I P @.H #.$.Q s.a./.[.#.$.;X6XoXb.h.t.v.j.d.0.w./ +.*.a.9.5.6.6.d.e.5.r.j.t.e.>Xa.d.r.r.d.f.d.q.O.5.d.e.m.j.d.-.b.@X2X",
"M.:X:Xi.:XXXM.V.M.d.t.j.d.b.=Xi.f.x.v.v.XXd.n.b.d.d.b.N.N.v.q.5.d.b.9.6.k.k.y.s.~.u.~.^.P.J.U { L.W %.{ U A.R R z z z h h s s s g h h g R z l Y A.l U D.{ =.H.J.U.U.=./.s./.f.f.;X3XXX-X3XpX.X>.e.N.v.t.q.0.d.a.XX2.d.b.-./ N.e.j.d.N.q.n.N n .X0.0.q.i.q.9.9.v.v.V.M.w.b.M.r.j.B.V.N.9.0.N.M.m.V.w.d.0.0.5.5.e.h.h.M.:Xi.+.y.y.p.a.i./ 5.j.oXQ.y.v.M.j.j.y.s.=.{ $.a.y.P.T @.f.=.j H O.0.9.v.$.I y.a..X=.J.$.u.P.=.~.^.oX{.}.}.).(.oX6XoXXX8X=X2X4X5XXXM.b.$.y.k.N.v.0.b.d.O.O.9.j.M.h.n..Xb.v.n.f.d.d.j.r.N.d.b.N.5X5XXXx.b.XX",
"v.M.V.x.=X=X<XB.M.d.t.v.d.d.N.M.XXx.i.v.h.M.XX|.d.d.>XXX>Xb.d.0.0.f.f.0.a.y.a.a.=.u.u.U.[ #.W { { H.P.j W l z l l l l l g f h f h h 5 5 k l l Y A.l R D.#.%.#.J.J.J.T.(.s./.u.~. X3X>X3XgX.Xy.y.5.h.e.e.0.O.e.f.t.9.M.e.e.9.9.:Xv.v.b.j..X9.5X5Xi.i.0.9.t.d.0.b.t.h.h.v.r.2.2.j.N.=XN.e.e.h.B.m.v.r.t.9.9.e.5.q.9.h.M.m.z.p.y.+.O.9.0.y.t.e.f.^.s.v.v.M.N.s.{.Q.W P..Xf.@.U @.f.&.H W a.b.t.>Xs.=.8.a..X!.@.Q./.Q.U.=.^.{.{.}.OXU.u.3X+X3X>X8X9X9X3X{.k.N.k.s.s.b.N.d.n.b.j.t.d.0.O.v.<XN.=XV.V.V..Xd.O.v.v.j.{.b.t.>X2XXXx.x.|.",
"=XV.j.C iX0X2X<X<XB.B.:X=X=X>Xv.v.t.-.{.XXv.N.v.z.i.XXXX5Xj.a..Xf.0.d.f.a.a.a.f.s.~.s.~.@.K U { J.D.{ T k l k z l a h l g g g i f f 4 9 F.%Xl z z Y S.K.U.%.L.{ D.K.!.u.} u./.}. X-X5X>X6Xf.i.+.y.m.m.r.b.v.q.y.0.r.N.t.9.v.t.N.5XM.t.d.b.:XaXO.O.0.i.O.-.d.d.x.M.v.m.M.m.e.v.v.h.j.m.h.m.B.<Xj.2.t.v.j.e.r.w.d.b.N.v.j.d.>.u.u.+.a.} +.q.t.0.P.(.b.h.r.N.s.}.Q.{ #.y.k.=.T I a.&.T W a.M.9.d.{.&.f.k.e.Q I $.u.=.| | $.+.7..X/.(.}.3X;X3X=XM.m.M.3Xd.d.v.a.~.}.k.m.k.k.d.e.r.t.b.0.j.j.m.m.2X:X=X5XuXd.2.w.d.y.5.0.b.>Xx.d.v.:X",
"N.B.v.#XBXM.V.7XV.m.B.M.b.1Xd.d.j.h.v.n.oX#X:Xm.XXO.x.hX:X5.n.N.f.d.e.a.d.j.a./.Q.s.y.~.@.G U J.J.K W D.U z l l l f g l f s g s f g 5 s &X%Xl z z Y D.I.T.@.{ D.J.J.Q.~.k.y.s.}._..X.XoX Xu.i.a.d.d.t.w.e.h.O.d.v.m.:Xv.h.j.B.<X<X:X<XN.M.t.` -.` j.>Xb.V.e.v.d.d.j.v.9.h.m.V.V.r.2Xm.B.<X<X=Xv.m.N.M.m.M.j.d.e.e.j.9.v.e.a././.f.b.5.d.t.d.a.&.=.XXM.v.yX X/.=.J.J.a.~.=.D.[ >.Q.H.#.d.5.0.v.d.| F O.d.B I +.y.$.%.=.=.p.s.a.s.u. X;X X X>XM.M.=XoXb.M.M..X X.Xn.v.j.6.e.5.9.9.j.0.5.9.w.h.N.2Xb.f.0XgXv.h.M.f.M.d.v.b.>XN.m.h.",
"v.V.<X4XM.M.:Xr.N.2XB.v.d.M.t.e.d.j.j.v.i.d.j.v.t.5./ -.C / e.` 5.a.e.a.+.5.d.{.,.~.$.$.=.#.W E K H [ { W s a s f s s f s a f s f s s I.[.l a l Y Y A.K.H [ K E J.{ $.a..Xs.f._.f.f.x.4Xf.6.+.0.5.f.f.d.r.9.t.n.t.d.M.V.M.j.h.<X=X:X=XV.=XM.M.b.v.V.v.w.w.V.N.b.v.0.e.t.t.w.2.V.j.<X<XV.V.M.r.r.j.=Xb.v.M.b.d.0.q.O.h.m.M.3X*.v b.d.t.j.h.d.f.$.$.b.v.t.XX}.u.=.E [ f.u.%.{ #.a.Q.@.I d.j.M.e./ P 7.d.b.*.*.y..XQ.Q.Q.^.{. X}.f././. XOX$X0X8Xm.=X_.{.0X8X5X} F M.=XN.0.e.t.e.5.9.0.d.n.r.h.N.M.=X.Xn.b.d.9.e.d.XXN.d.x.:X:XM.m.",
"m.8X:Xx.=X5Xm.( ` e.h.<Xv.m.m.t.v.d.q.h.v.b.h.v.0.b.j.5.j.b.9.0.d.y.y.+.d.d.a.s.=./././.Q.#.j E { E @.K U f k s g l l i i s g l h h h z z l z S.D.R A.D.J.@.H { { E P.{..X{.f./.{.{.p.y.a.9.0.j.w.j.d.j.j.e.w.b.v.b.t.M.r.m.e.h.2X:XyXN.M.M.=XN.q.O.2.O. .d.i.t.e.t.h.2.( r.t.w.3.w.N.V.t.t.t.r.w.t.5.5.t.0.O.d.5.e.V.h.m.a.o.7.5Xw.d.M.j.v.p.%.$.y.r.w.B.k.8.=.T [ s.~.J.W [ s.$.| @.q.m.h.r.N.OX7.a.5.o.$.*.a.$.Q.=.~.oX+X/.}./.y.-X X+X3XbX8X2X{.{.XX8X.X7.}.gX8X=Xm.v.9.5.O.r.j.k.M.M.v.M.N.XXXX:XM..XXX.Xb.b.N.z.i.v.t.t.M.",
"<X8XrXj.v.>X5.3.w.` w.8XV.h.v.h.h.v.j.j.M.>X:X1X=X=XM.M.1X.Xb.b.d.y.a.a.d.d.d.*.$.$.u.u.$.E j T [ H E T H l z s f l s i s g s z z l g s f l x A.W Y z H.=.] T E I #.Q.s.(.f._._.}.....} e.t.q.b.r.r.d.j.r.r.e.b.v.v.j.h.h.m.e.w.m.j.v.v.N.2Xm.9.0.d.m.d.:.9.5.2.1.1.9.w.) ) 5.e.w.r.e.e.w.5.m.t.r.2./ 9.) a.O.5.w.2.r.B.r.) o.s.w.w.r.5.M.=Xf.{ #.p.d.r.|.,.$.[ H I o.$.E d I 0.Q [ !.>XM.t.<Xm.}./.6.5.o.| u.a.$.&.I | f.f.u.{.f.a.XX}.].oX=X<X2XoXf.-X2X3XqXHXgX=XiX0XXXe./ ^ w.a.F D v.j.0X2Xj.d.w.h.a..Xn.) O.XXN.i.t.5.d.N.",
"BXMXgXiXMXhX<X:X:X:X2X<XCXSXpXiXaXMXMXiXNXZXVXSXZXnXbXnXiXhXhX6X>X.X.X>X,X5X3XOX}.OXOXOX$X[.I.R.T.R.).R.R.R.F.F.F.z Z.z Z.x Z.G.G.G.R.F.G.R.&X&X&X%XR.%XOX(.R.*X*XOX*XqXsXsXgXsXqX$XgX>XuXuXuX3X>X<XiX9X9X2X8X5XyX2X8XiXnXaXyX1X8X8X1X1X2X:X<X9X2X2X>X5X>X1XnXyX2XN.=X=X1X:X1X2X2X2X9X2X5X2XM.m.m.M.=X8X<X-Xm.1XN.:X<X9X>X.X{. X1X:X:XM.<X9X3XT.[.3X,X,XkX$X$X[.R.[.qX$XT.D.).3X].xXfXjXZXCXSXZXVXgX1XiX].U.].3XOX[.(.OX5XgXqX4X4XgXqXgXkXhXCXCXCXVXsXAXSXhXHXVXNXBXBXSXBXaXiXpX9X5X0.2XKX1X0XiX=X>X1X2X:XiXuX>X>X9X5X,X|.9XBXBX",
"aXiX6X:X=XV.C.2X<XB.h.<Xh.C.tXiXNXiXiX9Xe.N.rXnXbXiXBXBXnXuXuXuX3X.Xf.f.f.|. X~.]./.}.OX^.).).).R.T.).D.R.R.S.I.F.A.A.h f z l Z.x x F.G.F.G.I.%XR.G.G.R.(.^.K.).[.%X*XsXjXjXVXjXdX4XhX4X3X>X=XM.XXN.:XN.:XV.h.2XyXXX9XbX1X1X9XyXiXyX1X0X9X:Xb.M.N.XX,X,X1X8X<XC.<X<X:XN.<X:XaX8X=X:X=X>X5X9X5XiX9XN.N.V.:X:Xv.M.M.v.v.m.b.{.{.a.j.v.m.V.M.d.f.P.=.y.:XiXCXgX].).R.%XqXOX*XR.).$XOX*X*X6X3XyXkXnXkX6X#X=X^.U.~. Xu.=.=.u.s.{.(.*.].{.{.(.}.|.1X2XyX4X+XgX9X6XgXkXkXiXgXgX5XXX=XN.XX4X5XCXNXM.M.XXe.d.b.b.=X=X>XyXiX9XrX#X@X2XMXaX",
"h.b.|.t.t.w.5.r.h.h.r.h.( 1.` 2.` e.r.9./ 9.O.9.3.^ V.bXV.>Xd.v.q.+.y.|.|.i.i.p.p.*.(.Q.$.T T H W E K U H T k k u i s s a 6 9 i i s s s g g g l q k l j G | H E K E | u.~. X4X].*.d.d.a.O.` 0.q.O./ ` 5.h.m.9.2.5.h.v.m.5.r.9.5.9.0.v.n./ ) 9.5.9.e.9.0.` ` ( w.9.9.5.r.m.9.9.2.r.m.) O.t.h.t.w.5.` 2.( w.9.) M 5.w.h.h.t.s.6.0.0.5.e.r.r.) F @.$.y.N.j.V.d.s.%.D.L.Q.,.T.H.{ >.o.V Q.d.v.N.XXb./.f.O.q.] I &.7.Q P P *.+.X././.~.p.x././.b.@X=X:X_.oX.X1XoX X/.d.:XoXd.e.e.w.9.q.j.v.j.j.w.v.j.b.5./ O.O.b.e.9.b.=X@X|.x.|.M.v.",
"h.i.x.v.N.9.9.b.m.h.w.r.( 1.v.h.2./ ^ 9.` C / 9.9.9.` B.8X2X2X=Xj.XXoX>. .! Z } } ..$.=.$.#.R U E E U f j U f a s u i i i 6 u 9 i s i s l h z z K.R.z U H [ K [ { E Q.].].+X/.*.y.f.i.d.0.j.0.` 0.0.9.5.5.0.9.i.M.c.M.b.r.r.5.O.5.t.b.9.n M O.d.9.` 9.O.O.5.` 1.w.9.O.9.v.h.9.e.r.O.0.9.5.` O.O.5.9.^ ^ ` 0.O.) ` m.5.2.j.oX0.a.9.5.d.t.m.e.Z r r | 9.h.m.k.f.P.W { %.=.#.W ] /.$.@.*X{.m.:Xm.N. X].e.d.I E @.o.| I [ $.6.+.qX].$.p. XOXoXXX:X9X1X+X3X3X1X.X;X{..X>X>X-XXXj.j.j.d.M.m.b.XXd.e.a.=Xn.O.d.b.b.q.O.b.n.XX|.i.b.N.:X",
"<XN.|.:XN.d.j.N.N.v.=Xw.w.r.h.w.5.r.w.h.2.M iX#Xq.t.-.` e.M.:Xr.5.d.a.O./  .+.' Z B &.Q.$.#.D.R W D.R W T W l f f a f f l l a i s f a f z l f z W U R D.W T W { { #.#.} u.p.*.*.a.0.0.0.a.b.t.0.e.9.e.5.O.i.z.i.b.h.b.j.w.9.O.w.0.t.b.M n e.hXpXj.t.9.` O.` 9.r.h.e.t.e.9.m.h.w.9.9.0.0.e.e._ q.r.5.r.2.e.M.0./ ` v.N.h.e.f.a.k.a.t.b.N.yXm.+.I G L 5.r.XX{.8.=.{ E Q.Q.T.H.P ~.| G %.6XMX9XV.8XoX4Xy.X.I H | o.| $.$.| +./.OX,.p.y.y.u.a.b.@X>X.XoX X>X8XXXoX{.-X5X5XXX>Xv.e.m.XXv.m.j.M.d.0.j.b.=XN.|.|.#X3X,X,X@X,X6Xb..XN.<X",
"m.d.:.r.t.9.^ 9.t.O.O.r.N.v.b.v.w.` w.h.w.2XaXi.-.+. .! ! / ` / X.O.O.` O.O.O.F Z &.P $.=.#.{ T E { W U R U k f f f f a l s s a s f a i a s i s W U Y W U T T T { T.j V ,.].~.Q.y.5.O.d.d.d.0.d.e.h.q.q.O.q.t.|.b.t.v.r.w.` 9.0.e.5.v.O.0.:X2X5Xe.t.9.5.O.5.( ) ` 5.9.t.w.2.v.h.9.9.9.0.e.9.9.w.9.) w.` 5.O.9.9.) 9.j.t./ C a.k.n.j.j.M.N.N.0.I I $.9.h.=Xk.+.] W #.u.~.Q.J.@.s.!.K G C 5.w.m.w.n. .! u.T H H $.o.*.Q.&.f. X X]. Xf.#X].a.m.M.N.b.~._.b.N.XX.Xk.-XyXXXb.=X1X.XM.M.b.v.b.b.d.k.b..Xv.z.x.i.z.d.v.XX@X#X3X|.d.M.v.",
"h.m.|.9.^ 5.O.O./ ) / w.w./ ^ 2.1.) ) ( ) ) O.^  .q.:.:.;.9.h.5./ 6.q.w.9.j.6.y.*.] P $.=.I T H E [ K T j f a i i i w w w 5 s a u u a f h s f k U H U U k j j E %.%.U.[.[. X+.&.p.{.b.f.b.b.b.n.j.d.i.t.9.9.e.x.d.r.b.r.h.j.t.b.v.d.d.N.hXpX>X0.9.5.9.9.9.5.w.V.e.e.d.M.t.5.h.r.w.t.9.0.O.0.t.e.w.2.) ( 9.O.O.` ) r.` 9.a.+.0./ / 9.v.V.M.=X{.&.=.+.j.m.c.j.y.&.H E *.o.| #.[ ,.U.L.%.) ^ S N ^ ( n w.$XH j y P +.*.,.] {.s.>...>.i.z.s.p.d.m.M.b.Q./.i.v..Xs.0.j.1X=Xt.h.XXb.n.XXm.d.d.d.w.d.w.e.a.i.x.z.q.0.t.d.v.b.d.>Xj.XXv.",
"h.g. .i.m.j.2.` w.m.t.5.2.9.h.( ( r.O./ ` 5.0.2.i.t.i.i.i.e.9.j.e.9.0.9.e.e.+.y.o.Z $.[.!.#.{ H.J.{ #.#.T s s f i i 8 w a i g i u f s a f g f f k H T T U T E { K @.%.[.[.>.+.~.(.}..Xd.f.v.b.e.6.y. .O.d.N.z.f.j.5.0.5.9.0.9.d.d.9.e.q.j.v.0.0.e.0.t.e.d.t.v.m.t.b.v.v.v.h.5.r.h.h.5.2.9.t.e.w.w.` 5.5.0. .O.` m.v.w.r.d.+./ O.5.r.j.m.V.V.f.=.$.6.g.h.h.0.y.=.H T &.$.o.&.I Q [ [ #.a.e.h.m.h.r.b.9Xo.d j y P | @.| | d.+.} o.0.-.e.a..Xb.O.6.d.u./.d.=Xd.s.y.a.j.j.h.j.j.f.b.d.O.M.XXM.0.5.d.f.6.d.i.x.x.q.XXn.i.N.M.N.M.m.B.",
"C.m.O.i.c.v.c.V.C.1.` t.e.2.9.` r.M.e.0.0.e.e.d.XXm.i.p.x.b.v.M.k.d.w.O.5.5.0.a.X.+.U.[.=.W E W E T E E d e a s a a 9 a s s s 9 i s a i i 9 a f U T { W U U { { [ %.H.^.!.+.y./.~.{.x.f.{.d.e.6.+.O.y.i.t.9.O.M.m.5.` ^ 2.0.5.5.0.0.m.b.j.M.d.j.j.e.e.v.d.0.9.5.t.0.e.0.w.9.( ) h.w.9.r.t.e.e.j.e.9.e.0.q.0.5.` h.5.h.h.w.y.a.d.d.j.M.h.h.v.k.Q.=.f.B.M.m.0.*.@.H I &.*.*.&.I P #.T H 0.h.r.r.1.( r.9.>.y d T | *.| o.~.a.a.y.y.d.v.t.d.XX/ n ' p.=.u.6.=Xb.s.y.q.b.b.r.v..X.Xn.XXM.M.=X>Xj.d.d.f.d.d.b.x.j.n.x.i.t.V.1XyX2XM.8X",
"V.B.t.>.d.B.N.m.9.C  .9.v.v.m.h.h.w.` e.d.h.:.q.n.N.N.XXXX|.v.k.0.b.t.d.b.b.a.y.y.y.~.[.U.J.T E J.D.{ E U T d a a s s f h f g g g g g s 9 i s s l T { E k W { { I %.#.~.U.a.y.u.~.p.d.d.n.9.w.} / O.O.0.d.O.O.h.v.r.v.O.9.w.j.9.e.e.d.b..Xb.XXj.e.e.t.m.e.i.x.-.e.t.t.r.w.r.( h.N.e.r.w.h.t.e.w.h.0.O. .-.O.5.t.j.j.2.9.r.6.+.0.d.M.XXd.e.0.d.,.Q.s.m.h.r.6.o.[ H W *.*.8.=.[ P #.{ E y.r.2.r.w.v.2.t.o.y w j &.:.+.y./.f.k.f.a.d.=XN.b.d./ t.#XlX[.u.d.:Xd.k.6.d.d.t.t.h.t.b.j.XXj.r.v.XXe.a.0.y.e.d.i.q.d.0.O.9.0.v.M.v.V.m.m.",
"2.r.w.0.i.M.M.q.O.q.i.;.e.e.v.2.w.h.9.9.e.0...q.i.N.M.V.m.v.f.a.O.0.:.;.y. .*.7.a.+.&.[.U.J.{ E #.{ { { W D.k f f f l f h s s s s g g f i s f z l D.T.{ W U W #.%.H.K.[.^.].s.p.p.p.'.{.s.a.y.;.q.O.-.9.t.x.b.t.e.w.t.9.2.t.v.m.=Xj.XXM.e.b.j.t.j.M.v.t.v.d.M.d.q.t.h.B.h.v.M.=Xv.m.v.r.e.h.h.h.t.t.i.d.i.i.q.=XM.v.m.g.j.6.6.O.d.N.b.M.v.v.b.u.=.7.m.c.w.6.o.{ H E $.$.s.| P P G H E f.v.h.h.v.=Xm.e.s.y w K *.j.k..Xa.b..Xb.b.M.m.m.=Xb.N.yX6XdX(.~.f.b.a.}.s.a.v.z.b.m.M.XXb.M.b.v.M.e.e.{.k.k.d.t.i.i.i.q.n.XXd.t.t.5.t.<Xr.",
"h.w.r.9.i.:.i.0.j.r.-.} O.2.9.e.w.9.5.e.` O.9.r.r.v.h.h.m.q.;.y.y.y.>.:.<.! } a.{.s.$.(.%.%.P.{ T { D.W U G w s s a a a w u 9 i u h g s s s s k U J.J.W W U U E #.H.R.^.). Xy.u.a.s.p.'.f.i.a.0.d.e.d.0.q.f.j.M.v.v.N.j.h.t.XXM.d.j.b.M.j.j.j.9.j.v.d.j.t.9.h.e.b.q.v.N.r.m.m.v.V.V.j.v.j.h.v.h.t.v.x.j.XXx.t.=Xt.m.C.B.h.a.f.O.j.=Xj.M.m.m.XX~.$.u.m.h.r.+.| H y H V =.s.u.E I G H K a.M.h.v.v.h.S N d.H d E s.j.j.f.6.d.{.b.b.m.B.m.m.e.M.8X@Xu.=.*.p.f.i./.>.y.x.t.d.j.t.M.v.v.v.=Xr.t.j.v.M.XXn.v.0.q.i.O.b.d.0.0.e.e.` 2.r.",
"w.h.c.t.y.:.0.r.2.( ) 1./ ` r.9.O.5.5.w./  .2.r.w.r.t.w.9.j.9.0.y...>.+.} / / X.+.~.I P.[ [ ] W #.H T k d T k l f i w w a s 9 i s f f g s i i k Y { W T j j U E [ { J.Q.Q.4X}.y.a.y.f.j.XXf.q.e.e.9.9.9.n.d.5.c.N.N.N.m.v.9.M.b.h.e.d.e.d.b.j.d.d.d.t.M.v.XXm.M.:Xk.d.t.j.v.XXN.V.XX:XM.t.N.M.b.j.v.:.q.x.'.d.j.M.h.w.h.e.6.+.O.j.1Xe.j.m.m.m.f.u.u.m.h.r.+.I d y K $.$.y.=.E E K j H y.N.B.j.t.<Xr.r.4XK y @.d.h.j.b.6.k.{.s.k.m.B.c.h.v.j.t.0.y.#.U.u.x.i.s.y.d.x.b.t.t.j.k.e.j.d.d.e.j.j.b.k.n.M.N.x.i.i.q.0.` ) t.j.9.e.r.m.",
"2.2.h.h.b.b.v.m.2.` 1.h.9.i.-.M.m.e.r.i.i.q.w.j.v.h.v.q.d.e.t.M.0.0.d..X5.r.O.} | | G @.%.] I W T E W k H k f s s s a w l h s a g f i s k a i l U { W U K j T J.{ R W %.#.6XgX}.f.d.a.d.{.d.d.0.b.a.e.t.j.i. .j.m.t.v.m.m.r.e.e.=X0.v.v.d.e.b.t.h.e.e.1Xb.XXN.t.N.M.d.v.j.v.M.M.:Xv.d.m.XX1X^ ^ N.d.q.q.|.#XM.h.r.h.h.h.0.} } / 0.2XM.N.:XN.m.f.&.$.e.v.m.o.I j H U #.u.f.~.E #.T U T 7.j.j.e.t.t.N.aX4XK H @.y.5.e.j.O.k.k.a.a.M.r.h.v.d.r.h.e.y.@.U.u.d.0.b.d.a.d.i.d.d.t.j.d.j.j.d.j.d.M.{..X-X>X:Xx.x.x.b.i.d.5.v.=Xd.v.V.<X",
"r.w.r.B.d.q.2.r.h.9.r.m.h.x.<.|.d.i.i.i.d.d.V.M.b.9.O.O.O.q.:.+.d.d.q.j.9.9.X.+.| o.] I E [ G T I I { H j f s h f l f a f i 9 s g f s s s l s a U %.J.U E U H E W Y J.U.P.+X X/.p.b.k.d.X.0.XX0.w.5.j.9.5.-.q.M.N.t.t.v.m.w.v.M.m.j.M.j.v.5.j.v.b.q.j.1XN.j.v.N.:XN.b.b.d.j.=X=X:XM.m.e.2Xe.D N.yXb..X:X:XM..X1X=XV.8Xh.O.a.X.O.j.<X:X:X2X:Xm.a.u.u.m.m.m.a.$.H U z W Q.{.s.W T T k H u.m.h.h.m.h.v.m.a.I K @.0.d.t.w.O.5.6.f.f.t.r.M.v.6.r.h.0.+.$.*.7.f.d.e.O.5.e.9.i.t.e.j.v.t.j.j.d.0.b.b.j.=XXXXX.Xv.b.x.i.t.5.e.t.9.w.N.:X",
"t.h.<XM.v.h.t.9.h.v.M.1.9. .0.0.q.9.r.w.w.h.v.d.e.t.9.d.q.i.i.' } O. .-.e.d.y.+.o.+.=.@.E @.[ R.#.#.P.W U Y l l a a w 9 s 4 i 9 9 i s s f l l s l @.K d H j d P U A.T.Q.Q.}./...<.p.+.0.0.d.X./ 5.5.9.z.t.-. .f.N.m.v.d.m.h.d.v.h.b.b.O.` w.v.d.t.j.j.M.j.M.N.v.t.m.n.x.9.e.j.j.N.r.h.9.9.w.m.>XyXd.q.t.j.d.d.d.M.=Xj.2.0.o.+.O.N.V.V.>Xm.m.m.a.y.s.v.h.v.y.&.j k k T $.0.a.#.W T k k $.r.w.h.r.w.h.h.a.@.I | 0.h.r.e.y.d.d.d.d.e.r.M.m.e.j.m.0.+.&.y.6.e.j.a.6.a.j.M.b.v.b.d.h.j.e.d.d.v.9.t.d.b.j.n.n.v.d.b.XX9.9.M.9.9.5.M.8X",
"i.q.d.q.e.3.1.2.2.v.t.2.r.1.w.m.<Xc.r.r.m.V.9.e.j.i.i.-.-.d.i.! Z :.+.i.q.0.*.o.o.Z r @.%.] U.K.#.[ #.W D.R h z a f s a s l F.i a s f a k l f l l [ I d y j E P T K #._._.+X,.| +.|  .y.a.5.) X.` O.O.-.q.y.! :.q.e.N.d.v.V.v.O.0.b.d.d.9.5.j.j.j.j.j.N.=XXXXXt.m.B.b.x.d.t.t.j.h.m.m.r.r.3.8X1Xe.d.b.j.j.d.b.j.M.M.m.m.d.y.y.s.k.B.V.<XM.r.r.0.y.f.j.v.j.+.$.T U f W u.j.k.%.W T f f P h.m.m.h.j.j.h.{.P.#.=.y.e.e.d.s.b.b.b.b.m.j.M.v.0.t.M.f.y.=.+.0.h.0.d.y.d.M.V.v.i.d.d.e.t.w.e.t.d.d.e.j.d.e.e.t.i.i.b.>XM.0.v.XXt.h.aXhX",
"l.:.x.d.q.9.O.0.w.h.h.r.m.h.c.m.<XB.m.M.N.V.m.M.b.d.d.-.i.-.y.! Z +.+.:.-.) F o.B - B [.] G T.#.[ K #.W W U s a l z g s f s a i s g s f l z l T Y T @.R [ { H I D.I L +. Xf.+.y.f./.p.y.f.q.q.+.0.t.0.:.b.f.O.x.|.b.V.M.XX=X2Xj.e.XXN.1Xj.d.e.j.M.1X:Xj.M.d.XXm.N.m.b.n.N.V.B.m.m.B.N.v.h.h.h.h.v.b..XM.d..X.X=X^ ` yX=Xf.a._._.b.B.V.:Xm.V.m.a.y.y.r.v.V.6.$.I H f E s.N.XX#.U l f f =.m.h.v.m.b.j.N.+XP.=.=.y.b.n..Xs.d.y.'.|.b.m.j.b.f.d.0.a.d.s.a.6..Xd.f.a.j.M.M.m.N.b.x.b.d.e.r.e.d.d.e.j.d.5.0.q.q.x.f.|.b.w.t.=XiXMX>Xp.",
"|.p.i.y.:.O.d.M.1Xj.m.e.m.h.r.B.V.m.h.v.m.j.v.=XM.XX.Xd.d.b.b.i. .i.a.z.i.f.k./.} } ].!.P P P.#.[ [ %.{ W l f z l f w 9 s i s i g g g s s f U U z H.@.U %.K j E [ [ | *.(.s.s.a..Xf.a.a.y.d.f.| y.i.x.i.f.=X.Xx..X1X=XV.N.M.V.v.j.=X:X<Xt.e.e.j.v.w.b.2X1Xm.N.V.2XXX|.N.v.V.m.m.m.h.m.M.M.V.m.h.XXz.z.d.d.n.d.m.j.iXiXm.q.d.k.f.N.N.<X<XV.M.M.f.s.y.M.M.N.a.u.E U z { _.V.m.=.W l f h P.d.h.r.v.N.d.d.~.@.] | 6.j.b.M.+.d.f.{.f.d.t.m.b.i.d.t.0.a.u./.y.f.d.b.a.d.j.j.m.j.b.b.x.x.t.j.r.d.d.b.d.j.d.e.d.d.b.i.i.1Xj.w.v.DX:Xb.x.",
"oXb.9.q.0.O.C |.XXV.V.m.h.h.v.h.B.B.m.m.M.j.j.w.9.i.q.-.0.d.d.i.i.q.p.x.y.i.s.+.+.u.| P I I | J.J.#.#.{ W l h z l U s s h f a s f f g s f f k k k #.{ Y ] I E K H [ @.| ,.s./.p.f.f.y.y.i.m.0.o.0.d.y.d.t.j.d.b.b.,X>XM.N.N.B.m.b.XX>X:Xe.e.5.t.h.e.0.t.2X=Xj.n.|..Xb.t.e.v.h.r.v.m.9.N.m.M.N.j.q.|.x.y.x.N..Xv.M.:Xm.r.5.a.s.a.b.N.N.V.N.M.v.s.f.f.M.N.b.f.Q.[ W z H.d.N.N.,.{ z a f J.b.v.e.O.t.j.j.y.] @.$.f.j.j.j.s.{.a.>.d.t.b.M.b.:.-.e.O.X.$.*.} 7.f.b.+.0.e.j.h.t.v.b.x.i.q.0.9.5.0.e.9.b.i.0.9.0.e.e.b.x.v.e.j.SXV.XX@X",
"|.n.9.i.'.f.|.VXn.v.B.m.h.h.m.m.C.B.V.:XXXt.t.e.9.O.:.:.-./ / +.O.O.0.i.}  .} *.+.} &.$.$.@.L K #.[ H.D.D.R l l Y Y l l g h f g h s f l z g f Y U [ W Y | @.{ K [ #.=.Q.Q.b.f. X.X{.y.u.>.q.d.f.r.j.j.m.v.j.t.q.y.b.,X|.N.b.M.m.N.:XM.b.M.j.e.v.=XN.v.w.b.|.b.z.n.x.d.v.e.h.j.t.j.m.v.N.N.v.v.d.q.i.+.x.i.b.d.w.t.h.v.d.O.s.+.O.j.h.m.V.j.v.j.y.y.s.j.d.d.a.=.#.T f { f.n.d.=.{ l f s [ {.z.d.v.j.M.b.y.=.,.=.s.t.M.d.b.f.p./.}.N.=XN.:X{.d.d.0.0.u.u.*./.a.0.O.5.e.j.m.b.M.b.d.e.0.a.d.e.e.e.d.k.i.z.0.e.b.XXn.n.XX0.m.N.V.N.x.",
"x.l.'.p.j.v.NXhXN.m.V.h.m.m.2X7X8X:X<X<X2XV.w.0.q.q.0.q.i.q.O./  .:.} 0.a.9.>.u.o.| 8.y.$.Q.$.K K { { U H l s a z l h g h h g f s h i s l f l W U E { [ @.[ { [ =.=.=.Q.u.0.a.p.y.y.y.>.} 0.a.a.d.e.N.d.b.v.e.5.e.d.b.:XV.v.e.m.B.N.=XN.XXM.N.v.j.b.9.w.|.N.v.t.t.t.t.r.w.9.e.m.r.t.m.=XM.N.V.M.z.|.|.b.d.0.+.e.m.v.t.j.a.6.X.X.9.t.v.b.v.t.t.+.+.u.N.d.9.f.u.@.T k { f.b.j.=.E f s s { |.v.m.M.t.m.b.~.U.=.Q.{.M.v.M..Xd.*.}..X:Xv.M.N.b.v.v.0.a.u.y.*.s.:.j.y.a.j.v.v.v.XX.X0.b..X|.n.>Xv.d.j.d./ _ 0.d.e.q.i.:XXXN.1Xm.j.N.b.",
"#Xb.x.i.v.h.N.m.V.:XM.j.v.j.2X8X<X<X=XM.m.<XM.q.+.O.d.d.9.0.O.O.:.O.} O.} O.*.y.$.$.+.*.$.%.I I j K H d H s i U l l h s h l l f s l f R.z R A.Y U l W W =.Q.%.#.%.{ H.U.!.].}._.s.y.s.a.d.a.a.f.z.d.m.r.j.j.d.r.h.b.b.N.:Xv.j.<XN.1XyX=X:XV.m.b.N.M.t.XXXX:XM.N.v.e.t.t.j.r.9.h.w.r.t.t.v.N.:X0.x.|.f.x.i.p.0.j.h.j.N.XXk.y.} +.9.v.9.b.M.m.b.o.X.o.z.v.M./.*.I T l I d.M.v.&.K f a a { {.t.j.v.h.t.a.=.P.=.~..X:X=Xn.b.a.| s.{.N.b.m.b.b.v.M.k.a.u./.s.a.i..Xy.k.M.d.e.v.j.j.h.M..Xi.w.9.t.e.0.9./ :XXXt.b.q.d.M.N.N.e.c.m.h.M.",
"m.V.B.m.N.V.:XV.<XM.m.m.m..X.XXX:X<XyX1XV.N.5Xx.q.t.b.d.d.d.d.6.O.a.y.e.5.+.*.~.^.Q.u.f.*.#.@.#.E I T H U a a f f k a a s z l z l z A.z R S.A.Y U R H.H.=.u.%.J.J.J.J.U.[.}.]./.s.f.a.a.y.d.{. X:X:XN.j.m.M.h.0.v.M.M.N.b.=XV.V.1X1XaX9X:X<XV.=X=XXXXXXX1X2Xv.M.v.v.b.d.v.v.v.j.v.w.e.9.v.N.b.v.x.|.|.x.:.i.b.t.h.j.=Xb.f.a.*.7.v.=XN.XXM.1X-Xs.s.u.b.M.h.s.*.@.H l #..X:XN.$.T Y l l @.j.t.v.j.h.b.f.Q.#.,./.{.M..Xb.b.a.u.s.0.v.m.V.M.M.N.m.b.b.Q.y.y.f.d.d.y.d.j.j.h.h.e.d.v.j.e.:.t.d.0.b.j.b.0XuXd.t.x.b.N.M.v.M.M.h.N.m.h.",
"j.m.B.m.m.<X:X:X<X=X=XV.N.x.3X#X=X8X2XM.XX1X|.N.d.d.j.d.t.d.n.y.6.a.d.a.a.f.s.u.U.=.=.f.$.$.%.{ W [ W U T k i 8 f a a f s l l z z x h g x f f Y W H.W W =.$.%.J.#.T J.,.~.oX{.^.u.a.y.y.p.{.u.=.N.<X1XM.j.N.h.9.d.b.v.N.M.V.V.m.t.M.M.M.V.2X<X=XN.v.N.XX,Xn.z.v.d.i.i.d.h.t.t.r.v.h.v.b.M.b.v.b.XXi.|.|.p.f.|.N.N.m.v.M.k././.a.N.t.m.N.v.XXb.>.u.~.M.=X<X}.Q.P.W z J.=XV.b.U.T W z l @.d.r.v.M.M.0.+.%.H.P.Q.oX:XM.M.f.s.*.u.b.:XV.V.<X=Xt.0.d.d.u.y.*.s.d.f.s.d.b.j.r.e.q.a.b.9.O.-.d./ / 5.e.b.d.0.t.j.i.x.v.j.d.t.b.v.m.N.M.",
"m.h.j.N.m.m.<XB.N.N.N.h.m.x.$X#XV.h.t.j.n.b.b.b.=Xk.e.d.q.5.e.6.+.a.a.d.f.d.f.8.u.,.=.*.| [ $.W W K T U k f 6 a W f s s s l z z l l l g h 4 5 D.l D.J.W $.@.%.E I E { %.u./.*.<.u.0.0.s.{.f.+.+.v.N.XX:XM.b.v.j.m.M.M.V.v.v.m.h.h.h.V.m.m.V.<Xv.N.B.:X=XN.b.d.x.b.b.z.v.9.j.j.v.v.B.m.m.h.v.j.d.v.v.|.x.x.'.i.d.v.j.j.j.d.f./.f.j.r.M.w.d.b.a.s.,.=.N.V.:Xf.*.@.T Y #.k.m.m.=.W R l k [ e.t.v.j.e.6.*.#.H.P./.d.v.M.b.f.f.,.~.a.e.9.` e.d.N.m.d.d.$.*.*.d.d.f.>.y.a.e.r.e.0.q.:.} 0.0.o.` ) ^ C O.5.t.q.9.t.i.0.0.q.e.v.e.9.r.h.",
"h.N.m.h.m.h.XXj.h.j.m.r.r.i.i.e.m.=XN.M.n.b.b.n.j.d.9.9.b.j.d.0.e.a.f.f.k.k.{.(.^.,.,.,.#.{ =.{ { E E H j a i R k U l a s s k U f f g g h 8 R G.f W #.[ =.*.@.E J.#.#.P.,.=.Q.f.s.d.b.k.b.b.{.s.M.=XXX>X-X>X>X>X:X=XV.m.V.N.v.m.B.m.V.B.m.<XM.:XiX:XB.N.N.h.h.h.h.j.b.v.v.j.M.N.v.v.h.m.h.m.M.m.m.v.d.z.|.{.i.0.5.5.9.5.0.y.7.6.e.t.j.XX@X{.f.s.*.u.j.M.N.f.,.=.T l E k.=XN.u.{ k l Y | v.t.j.t.j.d.u.#.W #.u.j.h.e.9.+.u.=.u.O.` 2.2.5.` M.m.d.0.| | +.d.d.s.+.q.t.e.r.r.0.;.O.` q.9.O.O.` 5./ 6.e.t.a.0.q.i.i.9.d.v.N.j.v.B.m.",
"N.m.m.t.e.t.b.N.v.v.j.r.r.m.h.h.m.h.t.e.n.b.|.x.b.b.q.j.b.k.e.0.a.d.d.y.oXf.y./.Q.=.,.,.{ J.@.K T [ T H H a i a H U f i s i f l s s s s f f R.l l W { #.$.$.$.j r P @.$.&.$.Q.d.d.a.d.{.b.j.b.u.b.M.N.M.d.-XM.XXe.O.e.t.m.v.j.h.w.9.r.2XV.=Xb.t.M.m.B.m.v.v.m.m.j.b.x.i.z.t.j.v.r.e.r.j.v.e.j.e.v.t.q.i.x.y.y.i.9.5.9.6.0.6.} } e.M.v.z.q.d.d.,.*.~.N.v.j.+XOX| T U #.d.m.m.*.{ D.Y f @.m.j.j.v.N.f.$.I W [ $.h.j.j.m.y.*.#.%.*.a.t.r.r.O.-.v.d.d.$.$.$.y.a.s.y.f.9.5.r.r.5.:.|.j.w.e.0.d.t.t.e.n.j.d.a.f.f.i.i.i.b.b.M.M.m.m.v.",
"d.d.d.t.e.m.j.b.x.x.b.v.v.h.v.V.v.5.5.9.i.d.n.d.d.M.0.j.d.0.e.O.o.} b.0.f.b.+./.u.$.u.%.{ @.] H H I H T U j a d d d a a i i a l a i f a a s s s T T T [ @.[ &.r V I #.%.| $.,.7.6.9.{.f.0.t.a.+.h.V.XXd.m.XXn.XXt.v.j.e.t.e.r.j.e.w.v.m.v.t.j.d.m.v.r.r.t.h.e.q.O.0.t.:.q.9.9.0.9.r.w.e.t.v.t.0.0.q.:.q.>.<.+.0.5.0.r.0.y.+.} +.d.9.e.d.e.t.s.u.=.$.N.d.yX{.V } [ H [ d.d.j.&.W T k a I v.m.v.v.m.a.,.#.T { ,.j.m.9.O...| G I o.y.-.9.t.0.q..Xy.y.$.$.&.d.0.y.+.6.5.w.w.9.9.q.f.e.w.9.O.5.t.d.d.j.e.q.-.i.i.q.q.:.i.z.b.v.j.d.i.",
"i.q.q.i.e.j.d.i.i.q.e.h.r.j.j.h.9.5.` 0.q.-.t.d.j.XXO.5.0.e.0.5.O.0.b.b.b.f.+.+.$.=.$.@.@.[ ] j T $.E l U H a d f a w i u i i s i s s s s i f f k U K I ] ] I y | W P.Q.&.@.$.6.0.a.b.s.f.M.d.a.b.j.XXd.d.b.b.b.e.b.d.0.t.d.j.v.t.w.w.r.w.v.N.M.N.v.r.d.v.j.q.q.9.e.9.9.q.e.t.t.t.9.w.e.9.9.t.d.t.0.:.:.i.0.9.q.0.9.O.O.O.6.O.y.e.h.0.d.j.e.a.*.@.$.b.` ^ } P $.I H I 0.v.d.| H j a a [ j.j.t.j.m.0.*.@.T E *.r.9.O.) } } y J F O.} O.0.+.5.V.d.>.&.$.+.0.O.+.+.q.d.5.2.9.5.q.i./ 9.O.5.0.e.` 9.0.6.5.d.0.0.:.-.q.q.0.b.i.i.i.d.",
"d.q.0.q.9.t.t.i.i.e.t.9.w.r.h.h.t.9.9.q.q.t.d.j.m.=X) O.6.9.O.O.w.9.) .Xy.+.+.y.*.$.$.$.&.[ [ K E @.T f k j a a d a i i u 9 u i 9 i a a a i s s f s K I I @.#.G $.K.T.$.+.&.| 6.+.0.6.u.k.n.a.s.e.q.a.q.e.t.t.v.b.m.t.d.a.9.5.O.9.w.9.9.9.w.t.M.m.h.t.t.v.t.9.9.9.9.9.e.e.e.t.0.t.r.w.t.e.q.q.0.0.q.:.:.q.q.0.9.0.O.+.O.5.O.6.y.e.h.t.d.d.e.+.| ] $.t.r.9.s.=.| I K E n.v.t.$.H H f a E v.j.v.v.v.>.=.$.E #.,.9.0.9.h.O.Q G @.+.0.r.e.6.O.2.d.b.=.[ | o.0.5.0.+.+.0.5.9.9.9.O.i.O.w.9.5.5.q.( d.6.5.6.0.0.0.0.-.-.9.t.j.O.M ^ 0.",
"q.b.q.O.` 5.d.i.b.j.v.m.h.h.B.B.V.N.b.t.i.d.b.M.M.w.) 0.w.j.h.e.0.t./ y./.f._.{.(./.~.Q.Q.#.#.T I $.E k T Y h Y U z l z l l g l g l l g h l l l R z W H.U.J.U.U.*XdXR.~./.Q.Q.}..XoX{.{.}..XgX}.{..X.X|.|.XXM.>X1X5X1X=Xb.b.b.v.j.b.b.N.N.M.M.yX<Xm.r.O.9.9.5.e./ 9.r.h.m.b.b.n.N.b.m.m.M.d.q.x.t.q.f.|.|.#X|..X{.{..XM.0.oX.XoXXX<XXXn.XX=X XQ.P.Q.n.m.2X{.U.Q.U.{ #.n.N.N.Q.K.J.S.z J.>XN.M.M.M.oXs.(.K.E G } e.t.h.b.Q.E [ y.j.h.c.r.0.9.q.b.=.[ | +.a.e.f.f.b.M.=XV.N.M.b.|.{.v.v.j.d.j.N.j.w.e.f.0.O.q.t.d.0.d.b.d.: = C ^ ",
"M c ; & ; - 0 0 n M N m < < < < < , : : @ ; & + @ @ & > > , , b c , > - n n 0 0 - - 0 0 0 % % $ $ % % $ % 3 % 3 3 % $ $ o o % 3 3 3 4 3 % 3 3 3 3 % % % 7 % - - 0 4 3 0 0 0 0 0 0 0 0 0 > > c - : 0 ; & 0 0 0 0 0 D 0 = # # & + : , , , > , , b / , : > , , , b 0 > 0 , : : & & : = # @ # & : , , > : > 0 c 0 , , , > : : , > v , : : = & & : - - - = # M = - - % $ $ # : > 0 7 3 4 3 - , > , , = > & $ o X X @ # * : , 0 % % @ & & * * = & : c 7 7 % = : > 0 c 0 0 0 , < , > , n < c c 0 c , & > , , - & > = = > n c > c / O.` ",
"M D D C / ! q. ._ ` 9.9.( ( 2.( ^ D ^ M B C C C C ^ C / C D N M C D C r c C C B B V v r B V y y G G G j d 6 5 8 q 4 4 4 4 3 3 3 3 3 4 3 4 5 5 5 8 4 4 q r y r r r r r v v v r B B Z } | ! / y.} O.C / ^ /  ./ D B M c / ` 5.) ) ) S ( ( D D N C ` 9.9.) ^ ` ( ^ ! / ^ C / / ^ ^ D N S D D D ) ^ ^ D D D ^ ` ) / / / D ^ / Z } +.t.` 9.w.t.0.} I V P a.XXN.o.] @.K f H a.h.N.B 0 0 q 9 y ) r.r.e.( n V y r y V Z O.O.O.O.o.G G L F / / D M ^ ) o.L V L +.F C M n M b b m m b n C B b b c M M S S M M n n N ^ S N O.D C / ^ C ^ D ",
"0XhXuXhX:X! XX,X1X<X2X8X2X<X1X>X@X:X:X1X1X:X=X>XXXyX9XhX6XnXMXgXuXhXgX4XqXgX4X6X$XOXOX[.}.(.).R.).).T.K.K.Z.x R.%XR.R.I.I.I.R.R.R.R.R.G.F.F.F.Z.W A.D.T.!.L.T.U.T.K.J.^.(.!.!.}..XoX}. X4XgXgX4XiXuXiXaXnXNXkXNXBXZXBXNXpXuXiXnXhXaXMXMXnXMXnXpX1XLXKXSXCXCXNXNXNXBXiX5XkXSXSXSXSXZXCXCXCXBXCXBXCXMXBXSXZXCXMXNXNXBXCXCXBXhXkXmXBXSXBXCXCXhX6X*XR.[.6X0X5X*X*X).K.%XwXHXSXyX/.).[.K.S.dXgXMXiX1X:X/.Q.Q.%.#.#./.=XXX5XoX/.T.%XqX6X0X2XXX/.{.|.4XjXdXFXVXkX3XsXkXNXVXBXBXCXBXNXNXkXNXhXhXmXBXnXbXbXiXuXnXbX2X2XyX5X1X<X>X>X5X5X5X",
"9.q.0.e.n n b.|.i.9.e.w.r.w.r.+.q.r.9.9.q.9.O./ / X./ e.6.e.9.5.5.9.X.O.y.s.6.o.&.+.| | Q G G j K H H H j a a d d w a i 9 9 9 i 9 u u 9 i i a s f a j K I j H G | K G I | ] | o.+.>.>.o.0.d.q.0.e.h.e.0.0.a.q.0.t.q.O.O.O.0.9.5.9.9.t.d.d.r.t.t.t.e.r.h.M.j.d.d.t.9.e.q.i. .q.q.t.r.h.r.r.h.w.e.t.r.0.t.9.w.3.w.0.e.j.0.0.+.o.6.9.t.N.j.j.b.+.@.J.%.a.v.x./.I G e 8 w / ` S Z V V e 8 G s.5.^ ( 9.} Z V G y y Z ) ` O./ Z V I P / 2.5.+.o...` } u.@.P Z } / / +.b.q.d.j.t.e.d.XX0.9.w.9.O.9.0.0.j.h.r.d.9.0.h.M.d.h.h.d.d.0.0.0.",
"0.0.j.e.C O.n.1Xb.q.t.h.j.h.j.q.w.r.t.d.d.9.O.` O.+.+.0.O.6.0.a.d.0.9.o.s.s.u.$.I | @.@.@.I H K [ T K E U a s z z d a i s i 9 w u i i w a i a a f f k K I G H K I K K ] I ] | | | ..+.6.9.0.q.e.e.9.h.t.e.i.x.d.t.q.-.5.0.e.e.e.j.d.j.j.e.w.w.e.m.9.9.5.r.v.e.9.q.O.0.i.:.C 5Xq.d.h.r.t.r.h.t.q.d.e.e.h.h.j.t.h.j.j.k.d.e.y.*.y.d.m.m.N.M.b.f.P.P.=.k.M.0.+.| I e 9 e } O.t.*.P P j w y } 9.e.9.e.o.F Z y y y Z O.O./ } Q P J F O.` 2./ L Z ) } | I Q } *.y.+.Z 6.b.e.t.t.d.j.=Xj.i.r.r.r.e.t.t.t.h.h.r.e.e.d.XXd.t.j.b.d.-.:.-.",
"i.q.-.d.9.x.yXnXj.d.j.m.h.h.v.t.r.5.e.|.O.5.` 5.) ^ 0.k.` O.9.j.d.6.0.X.6._.y.u.@.@.&.$.#.[ E K I [ E T U f s U R a 8 9 a i 9 u i a s i i i i a l l k T I K K T K K K | I I | [ *.>.$.y.h.j.d.y.j.j.v.v.b..X|.j.j.b.d.e.e.e.d.v.q.e.=Xv.r.e.2.r.t.t.r.h.j.N.v.t.i.z.q.d.b.0X>Xd.d.e.r.h.h.m.h.j.d.j.h.h.j.j.t.d.b.b.j.j.0.a.u.u..XXX=X=X<X=X3X[.[ =.oXh.a.*.| I l i d +.e.d.| J I E k G Z 5.9.` ` } F ' G j y Z O.9.9.O.} P J / 5.9.` / L Z ) } I @.$.*.>.p./.y.} a.b.e.j.a.d.XXt.d.i.d.0.t.h.h.t.0.t.t.h.j.t.N.j.d.j.j.0.0.q.q.",
"i.x.d.i.i.|.yXN.r.j.v.m.v.r.h.h.v.v.d.O.O.9.9.O.0.O..Xa.` / O.t.0.e.0.o.+.s./.s.#.@.$.#.[ I T j E #.{ U H f k U Y i i i g i i 9 i s i a a i a a l k f H I T E T H H I @.$.E | >.>.y.*.y.v.m.j.0.j.v.m.M.XXXX{.b.b.N..Xb.j.M.XXM.j.j.XXj.j.v.j.t.h.h.r.j.=XN.M.b.d.z.b.v.t.e.t.v.e.0.M.m.j.r.h.r.d.j.h.h.m.v.j.d.d.m.M.b.{.s.s./.{.j.=X1X1X5XsXU.[ P / e.k.y.| | j w d o.9.d.| G P I j G P X.X.w.( Z Z | G G d V F O.0.+.*.@.| O.5.d.o.} | / D Z J L | | +.*.*.y.+.O.b.M.t.e.a.N.b.t.t.i.i.i.d.j.h.d.v.j.h.r.h.m.j.t.j.j.e.t.t.q.",
"q.b.n.q.i.t.t.j.h.h.v.v.h.h.h.h.N.e./ O.O.}  .9.0.b.j.O.e.0.0.j.j.t.O.| u.o.u./.u.,.=.#.@.E W E #.[ E H W s l A.U s i i l g s i s f l g l g l h T H f f I H T T U E #.=.=.[ &.+...+.| y.XXN.m.b.j.m.N.m.N.XX{..XN..Xd.=X:X1X=Xk.M.m.v.b.b.j.b.d.v.r.5.` t.e.M.j.0.0.9.d.t.0.d.v.d.N.N.h.j.h.h.0.a.e.h.B.m.j.b..X.XM.b.b.XXk._. X.X=X=X1X9XyXa.I P P } e.e.y.| L e 9 f /.=Xe.| K P H k H } +./ 1.^ } | I I G d G } O.9.5.6.$.+.6.O.o.} o.o.} 6.Z V L o.,.y.} +.s.a.9.e.=Xv.d.f.M.m..XM.b.i.b.x.x.m.m.j.M.v.t.M.m.h.t.d.b.j.j.N.b.",
"x.x.i.x.XX=X=XV.h.h.v.x.b.h.c.m.t.9.9.O._ / -.9.C N D d.j.y.f.2X2Xe.5.7.} o.u.$X~.(.s.#.P.@.{ #.@.%.[ H U f h Y W z h s g h s s s g l g h h z k j U h U #.H H H U E @.=.Q.#.Q.y.p.'.,.s.XXM.j.b.M.v.=X=X1X:X:X|.n.XXb.N.>X>XyX5X>X<X2X1XN.B.V.=X:X>XN.h.v.5.5.v.e.j.e.j.v.j.v.j.b.N.v.j.j.h.h.a.f.e.h.=Xd.N M M.=Xk.b.f.b.d.{.oX.X>X=X=XnXM.O.| =.*.6.w.` O.} L d i l *.e.V.%.T @.H j j P } / ` O.:.o.} P G j V O.0.e.y.*.,.*.y.+.>.+.y.,.o.y.&.I =././.y.o.+.0.q.O.t.M.j.j.k.=Xv.v.v.b.b.d.b.|.b.h.h.h.v.v.N.v.h.h.v.M.=Xb.b.|.",
"x.x.i.i.M.M.N.m.h.h.i.f.z.i.v.h.2.2.5.O.O.i.t.^ d.b.t.) O.a.t.e.N.v.k.+.6.+.o.}.OX(.(.=.Q.I J.[ ,.U.#.{ U z l U R f f g s s s s h g f l h f l l W W U K E H j U T T $.%.@.@.u.~.,./.f.a.d..X.Xd.v.m.V.:X1X:X:X|.|.>X>X|.>X1XuX2XXX5X2X=X=XV.=X>X.Xb.=Xj.v.d.5.d.M.M.d.t.XXM.d.b.v.b.N.M.v.m.v.e.t.j.d.XX) M 5.nX>XM.=Xk.b.{.{..XXX1X2X=XiXh.0.&.=.y.5.w.e.d.y.| U l e 0 N 5.U.G | [ U E $.o.o.) ` q.} } G G G L ) 0.a.*.{.s.y.a.s.y.s.,.=.| o.| @.$.(.*.+.+.+.o.y.0.j.N.=Xb.b.N.M.b.b.b.d.-.d.XX#X.Xm.m.N.N.b.M.B.N.M.XXM.M.M.z.",
"e.d.d.q.q.d.v.r.5.r.M.|.i.y.e.w.` 9.9.i.|.q.C :X0XO.` O.0.9./ ^ ( ) 5.{.a.6./ } $.u.f.$.&.I @.J.).@.E @.E U s l k k k a s g a a s s s f a g l h T R U E E T U H K E #.I @.$.=.>.>.y.>.a.d.b.j.v.N.B.:X<XV.v.M.n.b.#XXXb.n.1X>Xe.N.XXM.d.d.d.d.j.t.j.N.M.v.t.5.O.j.v.j.j.n.N.XXM.b.x.b.M.M.M.v.j.q.0.d.t.5.k.hXhXN.j.M.M.XX{.{..XoX:X<X1X1Xj.q.| P +.a.e.d.q.0.u.I U 4 0 ^ 6.).I G I j I P o.} O.O.O.o.} G V G I *.o.+.y.k.O.6.d.p.*.+.&.$.$.$.} I P *.*.*.O.s.f.0.9.e.j.t.a.d.j.h.e.t.b.n.z.d.z.i.m.M.B.N.m.v.v.t.j.j.e.e.j.j.d.",
"j.j.w.0.t.q.i.d.i.d.m.j.N.m.N.h.5.0./ / C c O.0X) ) ` O.) +.a.5XiXX.C F 6.e.) C B v B %.[.Q.@.W %.=.#.%.[ k f U k f l s i h f i s a s i a f f f U Y l W W U W T E H G #.| $.,.,.:.>.,.p.d.j.v.m.v.m.N.N.v.b.b.n.v.b.v.v.b.#X0.` n.e.e.j.0.9.w.e.e.5.5.d.N.q.9.9.N.=X=Xv.N.N.b.d.r.b.b.b.b.v.v.d.i.q.q.i.x.6XuXhXv.b.M.M.b.k..XoX3X5X5XyXXXj.e.+.o.*.0.e.9.O.O.y.K l 9 V 0.-X).W J I H I | *.&.O.9.9.+.| I G G I u.+.+.+.0.+.+.a.a.o.y.*.o.} >.$.] I P | } +.+.0.0.i.d.e.e.e.0.j.h.9.t.i.y.a.d.i.d.w.h.m.m.e.z.d.0.r.m.N.d.e.j.j.",
"t.j.h.b.d.d.n.M.b.z.d.d.t.e.v.v.D i.1Xj.5.m.0X5.9.9.a.q.e.O.O.9.e.f.f.C O./ C / $.^.=.K =.[.T.H.$.@.I I E f i j k f k f a l f s i s i a f g s f T U l U U k E K { r J T.J J $.i.>.;.,.>.d.h.v.j.h.t.j.v.j.j.d.d.t.m.h.v.j.N.O.q.t.5.9.e.O.w.w.e.d.d.h.h.t.d.d.0.e.C :Xv.M.h.d.e.m.b.f.x.d.b.b.q.d.0.j.j.0.i.v.v.j.j.m.b.b.b.b.oX4XuX0Xb.9.0.6.$.| } 9.5.O.}  .} H k s &.0XgX[.T E E H I @.$.| } 9.r.O.o.K T H G *.+.+.*.+.o.o.} 6.o.0.u.$.| y.*.=.@.P P *.+.o.+.O.e.d.j.j.t.0.v.m.r.d.:.q.r.h.j.9.w.m.v.m.r.h.v.v.j.v.v.j.v.t.0.",
"e.e.d.t.d.b.M.b.d.0.i.i.i.i.d.h.n b.>Xe.M..Xr.9.O.e.O.O.O.^ } ) / ! +.9.5X}.s..X| I *.K V L G K V y I G j k i d f f a i s l 4 6 i i i a s i f a j f s d G f j H ] [ T.K j G I | o.:.$.>.d.e.9.5.e.9.0.9.t.t.t.0.9.r.t.j.e.v.O.O.O.` O.5./ 5.9.q.d.e.e.j.d.e.e.9.0.j.5Xe.d.t.e.h.h.j.t.h.e.e.0.0.0.t.9.r.a.u.d.9.0.t.e.e.t.j.0.6.+.O.^ ! O.9.} } | } O.9.O.! C ' j i a @.b.a.G d H H T I P @.&.O.5.9.6.o.P G d G ..+.o.>.+.} >.O.} } +.*.] | q.y.=.%.%.@.$.+...} 6.O.d.d.r.5.0.j.h.r.0.q.w.9.e.e.r.V.h.0.r.w.h.m.d.j.t.e.e.t.r.t.",
"e.9.w.h.d.e.d.d.t.e.9.d.t.i.d.r.v.1Xb.9.0.O.5.0.0.9.5.9.` / O.O./ / O.9.a.} / / Z V Z G L P v r P V G [ d e s l d a a i s i 3 9 h 9 u 9 9 9 a a a a i e d j d K I G G j I [ @.E $.y.p.i.d.d.b.v.j.e.0.9.q.q.d.h.r.m.v.t.v.v.O._ ) O.e.5.5.0.O.9.t.e.q.9.5.5.5.2.q.XXj.5.9.w.0.t.d.t.v.r.w.5.9.9.9.q.t.r.e.q.i.0.q.q.0.0.t.j.0.+.y.d.x.x.q. .} ' P o./ ` ` O.O.} d e a @.5.O.G j H E W #.@.r $.O.O.e.6.| I H j J y.0.6.7.6.+.y.a.>.s.p.+.| &.O.o.*.%.%.$.u.a.y.>.o.+.a.e.w.w.e.h.r.q.q.r.9.9.-.0.r.w.w.w.r.r.h.v.d.w.t.h.e.e.t.e.",
"N.=X:X=Xn..XXXB.N.b.m.j.d.i.b.N.=X.X.XM.5.h.h.b.b.e.j.r.t.0.` / / 5.D +.6.X.O.+.o.} /.u.*.u.=.E @.=.@.D.W k f Y D.x l l A.l z %XR.s h g s l Y Y W z l T H j e G #.E I K | I L J '  ...s.d.d.M.v.5./ O.O.+.9.5.2.` 9.h.V.aXM.d.d.O./ 0.d.r.j.a.j.d.q.-.e.d.0.5.9.b.>Xb.N.N.:X5X5X5X2X2X<X:XXXM.v.m.v.n.n.d.e.-.:.b.N.=X=X1X.XXXoXoX6X,X#XoX.Xj.y.Q.p.y.0.0.q.d.d.T f a =.M.f.E l H j H G P @.*Xd.N.v.0.| I G H @.f.a.a.*.+.P } / } o.} o.$.| X.Z V B L G y.a.*.a.Z F +.r.5.O.0.t.t.q.d.h.O._ / 9.b.:XN.N.N.V.B.N.=XV.>XD v.2X=XN.",
"0 , , : : : , : & & & & & & & * & & > , > , < , : > : @ < : = = = & - 0 % & & > = @ - v - - 0 7 7 - % % % $ o o $ 3 3 3 % $ 3 3 $ o o 3 o o % $ $ $ % % o % $ % 7 % $ $ & % % 7 0 0 0 0 > , , , > 0 , > ; & & : , , : < c : , = & @ # & & & & : & - - : > > > = , N c c < < c 0 0 , , , > , = : : = = : @ & # & & , D M & = * > > : - & & * & - = # @ @ # @ & # + o X + = & + X X X X $ % 0 0 : : : + @ $ $ $ + & # = % @ $ @ & & @ @ + $ @ = - % - & $ & : & - & = , , : > 0 b , - , , , , : : b C 0 c M M , b N m M b ` b b < ",
"c b n M C B D C D ^ / D C C C / / C D C ` ` 1.e.2./ ^ 5.` S N N M D O.n c n n c 0 0 - } r B V G V V V y q 4 5 q 4 5 f i 9 5 5 3 3 3 3 3 3 3 4 5 8 4 4 4 5 q q q r 0 q q v r y y B / } ' } O.O.O./ ^ / O.`  ./ / ` 1.2.m.( ( D S ^ ! / / ) / D C / / / C ! C / / ` 0.5.0.5.9.` 5.) ^ ^ ^ C D ` ` ( S D N C / )  ./ ^ 0.O.` D D / Z  .O.9.` ( / Z B C C / / ^ ^ Z q 4 q Z ( / j d K H y G I K P / ` 9.O.} G H d J O.0.o.I P P Z F B r B Z V V Z Z V y y V B B B B v M / S S C B C n B C D ^ D S S S N N N M M b N , , , , , c c 0 ",
"ZXSXSXHXBXhXpXuXyXyXyXuX0XaXkXuXaXhXhXnXNX2X8XyXiX6XuXyXyXaXyXgXnXMXhXhXgXhXgX6XOX).jXqX$X$X!.^.^.U.(.P.K.I.R.[.R.I.%XdX&XwX&X[.%XR.I.R.I.F.F.F.A.z z A.D.F.K.R.).T.T.T.).R.).[.+X3X3X$XsXgXhXgXyX5X1X1X>X>X#X1X1X8XiX2Xv.V.N.:X2X1X>X5X2X5X2X@X,X>Xb.x.n.|.5X5XuXyXiXyXaXhXMXNXhXMXMXBXBXMXaXiXpX0X5X2X2X2XyXXX,X:X5X5X2X5XNXNXsXlXSXnXiXiXgXgXgXgXuXiX5X1X5X3XK.S.K.+XuX4XT.F.).R.D.).[.T.[.3XpXaXuX$X).[.r r 4XuX3X[.*XOX$X6XsX+X4X4X[.[.+X$X*X*X*X*XsX4X+X;X}.;X5X2X8X>XoX3X,X,X#X=XXXXX<X:X2X9XiXbXMXBXZXSXZXnXuXiXBXSXSXZX",
"0.e.e.5.9.6.5.5.O.O.O.0.e.e.0.i.0.q.t.h.f.9.r.h.d.O.O.5.9.e.v.d.e.t.e.O.6.0.O.6.| G Z } ] $.&.| L G | j y a d d a w 8 f l s a i w 9 9 9 9 i a a d d f a j T H K I K I E $.@.*.s.s.f.s.u.y.i.f.a.e.a.a.9.d.t.t.i.t.h.M.t.` / ` 9.5.O.-.0.5.9.-.:.-.O.9.O. . .b.v.d.d.v.j.t.t.t.d.t.t.v.h.w.e.5.9.r.t.0.e.9.9.t.w.d. .O.:.q.O.q.9.*.s.N.9.5.O.+.+.O.0. .5.5.) / Z y e y } 5.X.G j I K d d G G L } 9.e.+.| G K r U. Xd.y.@.$.#.u.+.o.P O.X.L V } L G V V @.f.f.k.b.d.j.e.h.h.e.a.x.i.i.i.d.t.t.r.w.t.e.9.w.t.t.v.M.b.d.v.d.j.j.d.a.",
"9.e.e.w.d.e.0.d.j.0.e.d.d.j.t.x.b.z.b.v..XXXN.v.t.0.d.t.e.t.e.d.e.0.d.d.k.b.y.d.y.G Z @.| | u.u.$.K P.d H j j j j a w 9 h f u u i i i i i i a a a a a k K T T I I H [ H I [ &.0.y.a.0.+.0.a.0.6.5.9.5.9.e.q.i.i.e.j.n.q.9.e.t.e.w.9.9.q.q.:.-.q.0.e.e.9.O.O.|.z.j.d.d.v.h.v.v.v.v.d.v.h.h.t.d.t.5.9.j.t.d.d.j.w.r.q.y.y.d.d.z.f./.XX>Xt.t.t.5.+.9.0.q.d.a.O. .O.G d j | j.a.I k I G d H I G P O.9.j.i.=.E I { $X{.d.f.=.=.%.Q.d.o.} 6.X.Z P o.P V G I @.$.u.a.6.e.j.d.r.e.5.+.e.d.i.d.j.d.d.r.h.j.j.e.t.r.9.t.M.v.j.v.d.d.d.d.5.",
"d.d.t.t.v.v.t.q.q.d.b.j.d.v.v.z.q.i.d.j.b.=X=XM.b..XM.v.b.e.e.j.w.d.b.q.+.+.+.o.+.P | I | &.| G @.T | j j H j j d a a 9 9 l a u 9 9 i 9 w i d a f j k U U T W K | E G 4 #.H | 5.+.+.:.*.y.a.d.5.e.e.e.0.6.0.q.q.q.q.d.q.q./ -.i.d.e.9.i.i.a.v.r.r.h.v.v.j.9.d.n.M.M.d.j.m.j.d.b.v.t.v.m.m.j.j.v.t.r.j.b.b.h.r.h.t.j.f.y.q.i.x.f.f.M.XXj.v.m.d.y.y.q.e.d.p.>.O.+.K H K *.j.a.T k I H j T I G | X.9.t.a.$.I G [ !.s.b.{.,.^.U.{.-Xa.7.f.+.Q L Z } G G H E /.y.u.y.y.t.d.e.5.9.0.0.:.d.e.r.h.e.e.h.t.t.j.v.j.t.0.v.h.v.d.k.j.d.d.d.",
"m.N.b.N.=XN.j.t.t.d.j.b.b.M.N.x.b.b.x.b..X=X.X=X.XXXM.N.=X=XM.b.j.M.b.b.f.a.*.$...I *.y.$.=.I K @.E &.j d H j d d a s w 9 a u 9 a f s s s i j f l U T d U W %.H I { [ K.(.I &.a.s.{.{./.{.b.{.e.h.h.d.k.d.d.q.i.x.i.d.9.d.M.M.z.d.t.t.i.q.d.b.v.h.2.r.v.r.9.d.b.n.=X=XM.N.N.M.V.=XM.N.V.N.v.v.v.h.h.0.5.m.t.d.m.e.h.s.i.i.f.d.a.s.d.j.m.r.m.j.s.a.i.j.v.p.f.x.a.I T H ,.b._.H.T I K l [ @.I | } 5.e.d.=.[ [ [.Q.f.f.f.Q.!.!./.-X_.u.d.6.o.L | P P I I I ~.s.y.s.f.j.b.j.t.a.>.y.{.v.j.t.h.r.t.h.h.d.d.j.j.d.M.XXb.XX>X=XN.b.b.j.",
"v.b.XXN.k.d.j.j.d.O.q.i.b.d.b.i.d.b.i.b.XXXXb.j.{..X1X1X2X0X5X1X2X=XM.XXk.f.*.*.*.@.*.+.| #.=.P.=.K @.W T j d e e f a w w w f w i s f s s w d i s f K d d K I K W E @.I &.o.*.y.6.a.{..XXXXXn.k.N.b.j.t.k.d.b.x.x..Xj.b.M.M.N.b.i.i.i.d.b.N.b.v.j.v.h.h.h.h.9.XXn..XXXXXXXN.M.N.=X=Xh.m.N.<X=Xm.v.j.q.9.h.j.d.N.N.j..X|.i.d.d.b.{..X=Xv.M.:XN.f.k.d.d.m.d.j.f.y.[ U H $.a.a.#.T W W Y { P.@.| 6.h.h.b.$.E P !.u.f.a.d.=.U.=./.M./.}.a.+.| L | P Z P V P /.{.d.y.a.a.k.b.t.a.s.+.e.v.M.r.r.d.v.j.j.d.t.m.d.j.N.{.d.=X=Xn.v.d.j.k.",
"b.j.m.j.q.a.d.i.i.q.i.f.b.x.q.q.x.b.b.b.=X>XN.j.j.t.n.>X>XXX=X>X2X1X=XXXoXf.$.u.+.[ ,.&.*.Q.=.=.P.{ #.{ K j j f j d i 8 i 9 s i i s s i i i l f j a d E T { E H E E P [ *.I o.0.0.s.k.N.-Xb.h.k..Xd.e.j.d.a.b.z.b.XXXXM.>Xj.N.d.q.i.q.M.b.N.V.m.v.v.M.B.=XN.h.:Xn.|.:X=X:XN.b.M.0.w.h.m.v.j.m.2X:Xj.b.b.m.h.x..XN.e.M.j.b.d.v.XX{..X>X1X=XN.N..Xb.a.d.M.d.j.j.p.T U W %.f.y.I H K E W [ #.G Q O.w.j.6.] G V =.Q.s.a.a.$.,.P./.b.k.s.0.6.&.P | P G I $.| f.{.X.f.d.j.d.k.M.|.f.w.5.O.M.j.d.t.j.j.d.h.t.b.b.N.N.M.>XXXb.XXV.b.M.d.",
"M.V.j.v.d.j.v.d.d.i.x.|.|.b.v.v.N.d.b.|.XX=XXXm.j.{.:X2X1X>X2X>X1X1X1X1X5X].Q.u.f.%.@.$.$.| $.=.#.E H #.E a j k d a a i a i f 9 u f f a w w U z k e d T T H E W H H I &.@.+.o.6.a.u.k.k.f.{.m.d.n.j.e.v.b.M.j.d.d.v.M.v.B.9.0.e.9.-.q.e.d.v.m.N.XXXXN.:XM.h.M.yXb.i.:XM.v.j.M.t.j.M.m.j.m.t.O.` h.m.N.b.M.b.i.i.r.h.t.d.>X=X=Xv.s.{.>X>X-XN.>Xy.f.b.n.n.b.b.t.f.D.l R ).}.}.#.T E W { { #.{ =.a.0.b.s.@.E ] =.8.s.f.d.*.=.=.*.a.y.f.6./ P P Q P G I | +.+.0.5..Xk.b.O.d.d.d.y.e.-.v.M.f.d.e.r.9.t.m.m.n.b.M.V.=X.Xn.b..XM.=XM.b.",
"j.b.b.V.M.b.b.b.N.d.|.|.XXb.N.N.M.b.#Xx.b.M.M.N.{.{.XXM.M.=X=X.X.X1X-X>X1X5X^.Q.f.Q.| } a.+.=.{ #.W H H W s j k d i i a w u s g i 9 i s a a j s s w K H d e U E K G $.P F *.>.6.a.a.+.+.a.k.n.k.M.j.j.t.d.M.t.d.j.XXv.r.B.e.d.j.d.t.q.q.9.r.9.v.h.b.t.:XXXb.q.b.,Xb.N.d.d.b.n.b.XXXX=XV.m.=Xh.2.w.h.h.d.b.6X#Xj.m.M.v.b.N.d.XXd.d.j.j.j.1X<XN.a.f.d.d.j.d..Xj.k.W f R P.~.Q.#.W @.K U { #.T $.u.q.q.<.%.[ P.*.7.6.a.a.u.%.[ | y.u.u.y.} L P } P ] P P 7.k.0.e.O.6.b.O.q.j.d. .d.d.w.M.b.e.e.j.j.d.d.h.M.b.b.=XXXb.d.m.d.b.d.d.j.",
"M..Xb.N.b.M.i.d.v.v.n.b.N.XX:Xv.M.b.v.q.b.v.=X=XoX{.V.N.N.XXM.N.:X1X0X>X-X X=.&.8.u.| | 0.+.I E [ W W j f s l d d i i i a g g 9 3 3 9 f 9 a k a h w T H f j j [ K G $.L P f.s.a.y.y.s.0.k..XXX.Xv.t.t.M.b.0.t.t.j.b.j.v.M.e.d.t.j.0.q.x.m.M.v.m.w.j.v.N.n.q.q.-.0.b.b.r.v.d.j.b.j.d.b.M.M.m.v.2.w.r.r.e.9.v.1X1Xt.0.i.x.XX.Xj.j.k.d.b.XX>Xd.d.s.f.6.0.w.e.n.XXoXW s z P.u.Q.H.{ { T W H.#.E ,.b.N.d.u.H.J.%.$.s.a.6.0.~.%.E Q.s.*.*.f./.&.&.*.$.I V P $.y.j.h.) O.0.0.q.9.0.s.v.d.j.M.k.k.j.v.j.b.b.M.N.M.m.M.N.N.M.M.M.M.b.b.b.",
"d.b.j.v.b.j.d.i.x.N.N.N.N.V.N.N.V.v.XXuX2X|.XX>X>X5X1X=X:X2XN.=X<X:X1XuX0XXXu.#.| &.*.$.0.+.P I I H H H j f i k U a i a k f l 8 3 5 i l a s k d f s E H U @.@.#.d V P $.=.s.y.d.a.f.a.0.n.M.XX{.j.v.v.bX=Xm.V.e.e.N.j.h.d.j.j.9.^ O.0.z.x.e.9.m.m.9.t.9.q.d.` 5.5.N.XX0.0.b..Xd.d.e.d.v.b.e.e.w.h.h.e.e.t.5.2.h.d.0.d.d.j.j.h.e.a.d.j.v.N.j.M. X{.a.d.t.=Xr.) Z j a z %.s.,.#.K [ E [ @.%.{ ~.oX:X=X{.K.{ #.&.y.y.0.-.$.[ W =.a.| $.a.b./.u.=.@.@.E =.*.a.b.j.6.a.b.d.b.p.:.a.q.j.m.b.d.f.d.j.j.M.j.v.h.j.j.j.XX.XXXM.j.b.XXN.d.",
"-XM.d.n.XXe.t.n.b.i.N.V.N.XXXXN.h.v.m.:XM.b.N.=XXX1XXXj.=X<X:XXX>X2X2X>XgXb.| [ | } } I ] *.$.I K j E d j a a a k k i w l f l i 9 f g F.s i j k d l H { W K E { H I ] | o.} o.O.+.o.y.d.d.5.j.a.v.M.m.v.M.t.M.M.m.v.V.V.M.h.r.t.5.e.0.e.x.i.O.r.2.9.M.XXb.t.5.0.9.n.0.0.M.m.v.v.>XN..Xm.v.0.d.d.t.h.h.h.t.9.9.O.9.0.m.j.V.v.0.d.j.0.t.b..X=XN.+X+X{..X=X9X9.` 5.J.R W %.Q.*.@.@.%.%.@.J.@.G &.k.v.j.s.{ K I ] o.o.}  .| { T ] ..P *.+...,.$.I [ $.] U.s.f.j.j.a.0.{.'.'.k.e.0.t.M.b.d.{.f.N.m.j.v.j.t.j.j.M.M.M.M.M.V.m.b.b.XXN.",
"b.k.d.b.b.h.j.=X@Xz.N.V.v.x.|.x.d.v.v.M.N.N.XX=X-X>X2X2XN.v.V.M.XX1X1XXXXXa.$.$.| ..o.I I ] | I J.H #.H j d j d H k a a f s l s Z.G.R.F.i i l s k Y W R E H E E V L | &.*.0.+.0.y.+.d.e.d.t.t.d.j.t.9.0.v.d.v.v.t.r.j.0.d.j.w.w.M.t.e.j.d.q.i.O.9.9.q.-.9.9.O.1.D e.N.v.XXv.d.q.b.:X>XXXb.M.v.v.e.9.t.j.v.b.b.b.t.e.V.M.=XM.t.d.b.XXM.t.j.v.m.b.f.k.j.M.=Xv.9.v.).D.H @.&.$.J.%.=.%.J @.%.I u.d.v.N.f.T j G P o.*.>.6.+.I H [ $.$.,.y.*.$.P.| =.=.P.I @.y.d.b..X{.{.].k.j.d.q.t.e.d.d.d.d.v.j.t.h.h.j.j.e.M.V.m.b.v.v.h.j.v.b.M.",
"e.h.d.b.j.b.b.>X:Xd.v.N.b.:X:Xv.|.b.b.M.m.N.|.XX>XXX>XXX=X2X<X:X=X8X9X5X5XM.u.[ *.,.s.$.[ H ] =.J.E { d j z U Y l a s f k s s f s l l f i a l z A.R A.D.#.U H G G G I U./.e.y.a.f.y.0.e.d.j.k.6.5.e.t.d.e.t.e.w.9.9.j.w.w.e.` w.j.O.e.M.d.9.t.q.9.2.O.C 5.0.` a.) 9.=X5XXXb.t.d.M.d.j.d.0.b.XXr.j.b.9.h.v.t.j.j.r.e.=Xb.M.j.j.q.k.M.d.5.d.b.M.{.f..XXXXX5X>X1XMX*XW E U.*.U.%.#.U.=.@.@.P.#.=.f.N.V.p.{ U K ] o.o.y.a.u.{ U K | *.y.a.*.$.| *.=.I [ @.[ y.t.m.d.f.y..X3XXXd.O.e.0.9.d.a.d.b.h.w.e.j.v.9.0.1Xm.d.d.e.j.v.j.0.e.e.",
"iXyX8X0X5XuX5XuXhX5XyXaXrXnXuX9XnXpXiXuXbXbXnXhXMXnXnXNXZXSXBXMXhXMXNXNXNXgX}.!./.].}./.T.R.[.[.%X).R.R.&XR.F.S.D.A.x z R l z z g l l l z z R S.A.F.S.R.).F.H.T.T.E =.(.}..X X.XoX XoX#XoX2X{.].uXyX>X2X0X5XuX5X5X8X2X1X<X2X2X9X2X:X=X>X:X>X1Xb.|.1X6X:X1XyX9XuXiX2X>X5XCXBXbXnXuX>Xv.M.B.XX>X1X>X2X=X:X=Xb.v.m.j.0.-X-X1X=X=X-X{.-X9X5X6XyXnXgXgXkXhXpXaXNXSXZX).R.*XqXsXOX).).$XOXOX^.P.T.}.6XMXaXqX[.R.[.OXOX+X3XrX$XT.D.J.!.}. XoX X(.(.qXP.r G L.).+XyX>XoX+X.X.XoX3XyX2X>X=X=X>X;X4X5X8X2X2X2X2X=XKXiX9X5XuXbXuX0X0XaXhXuX",
"pXaX5X1XXXN.@X#Xn.N.N.:X#X1X<XXX:XXXXXXX:X<XyXhXhXnXnXZXSXBXCXNXnXBXVXkXhXhX(.).}.}.$XOX(.!.^.^.*XR.F.R.R.G.W.%X%XI.F.F.R.I.I.F.F.G.I.A.A.A.A.[.G.F.D.D.K.W #.P.#.E !.).OX3X X{..X.X.X>X1X1X4X$X5XyX2X5XuXuXuXuXgXkXNXNXpXiXyX2XtX9X2X:X0X=Xe.b.XXuXyXuXyX0X1X:X=XyX9X2XuX>XM.8X0X>X1XpX1X=X=X>X>X0XaX0XnXyX8XiXuXXXSXgXnXhX9X9X3X0XpXgX0XyXiX0X3X3X5XyXiXbXpXpX*X&X&X*XqX[.%X%XsXqXjX$X).T.$X6XuXyX4X%XR.%X!./.s.b..X~.J.F.K.).[.+XoX}.(.^.qX=.K { dXvX$X3X4X6X X3XgX6XgXgXuXuXuXyX5X6XgXpX8XyXaXiX9XiXHXyX2X2XXX1X2X=Xh.<XiXyX",
"=X=Xb.d.e.t.q.n.j.h.h.h.p.d.M.b.m.M.b.d.j.j.v.M..X.XXX>X5XgXhXgX5XyX6X3X>XoX$.[ a.$.+.y.*.| %.!.T.D.D.D.D.Y S.S.F.R z z D.R z l l f a 6 9 a k l k l U T D.R T [ I [ $.@.8.a.o.a.a.y.f.f.d.a.y.s.e.e.d.i.v.v.M.v.d.b.@Xb.O.e.v.v.h.r.j.9.j.0./ O.9.q.d.b.j.5.O.e.0.` O.9.n , c / / M O.0.d.h.r.j.w.d.d.j.h.v.r.r.v.N.M.9.d.b.j.w.6.d.m.f.q.j.j.d.0.9.5.t.e.9.j.:X,.{ { #.U.@.#.P.s.Q.u.u.=.E $.k.M.b.s.G H j 0 ,./.f.d.| H f G | | +.+.+.&.$.*.| y I dX).0.d.d.0.} d.b.d.>X.Xb.M.:Xn.0.f.k.j.w.9.j.m.t.iX>X=Xh.h.9.v.j.m.B.t.M.:X",
"b.M.h.j.q.t.q.v.v.w.3.0.i.v.t.b.j.v.j.d.b.b.j.m..X.Xd.b.d.k.v.d.d.M.b.0.d.XX~.$.s.*.y.b.}.u.Q.[.R.W D.R W Y f z U l z z R z z f l s i 6 5 a 9 a k l d { j e j W I E $.=.y.0.*.a.s.p.d.d.b.p.p.a.0.9.:.d.D ^ v.t.m.m.v.z.z.b.<Xt.9.m.h.e.e.0.q.t.j.9.O.e.w.5.e.v.q.9.0.v.M ^ 9.j.b.O.j.h.n.m.v.m.j.d.0.5.r.r.e.r.m.M.t.v.N.m.e.0.O.0.d.d.5.0.j.0.a.y.+.0.e.0.t.N.=.E K =.Q.#.[ &.s.~.~.~.P.#.Q.s.j.j.s.K H H r OX~.f.{.Q.W l K &.=.| s.s.P.#.&.u.[ %XlX=.d.d.e.0.X.O.d..Xa.M 5Xv.d.M..Xj.t.j.h.j.v.t.j.aXb.v.v.d.v.j.b.M.0.e.t.v.",
"h.v.v.v.j.j.n.|.N.v.m.d.p.V.M.t.M.m.b.M.N.n.M.v.N.oXi.d.k.k.M.d.XX>XM.XX.XXX{.~.~.]./..Xu.Q.U.Q.W W D.Y z l z A.R Y z z Y k l l l f a f l l z f l k j K E U R W =.{ @.%.8.0.+.y.s.a.b.k.b.|.p.y.:.0.O.d.D t.2Xd.z.v.n.b.XXXXm.9.0.w.2.r.w.t.d.j.M.j.b.M.r.0.r.v.d.t.j.N.` 9.m.nXNXd.M.m.b.v.h.m.j.d.5.5.t.e.v.m.M.N.=XN.M.M.j.d.a.k.0.0.5.s.d.a.7.a.d.h.h.b.n.n.P.H.H.J.| #.J.=.{.s.} +.P.#.=.s.e.t.f.E U E J.).=.s.d.*.E U [ &.| P 6.>.@.@.,.,.K #.@.$.a.v.w.e.+.O.k.{.) t.uX0.0.t.b.a.0.w.w.w.9.9.N.uX=Xj.b.b.v.m.b.M.j.M.e.j.",
"j.m.m.v.j.v.b.XXM.j.B..Xi.h.M.v.V.N.t.b.m.v.n.N.2X1X.Xn..Xn.b.b.oX5XXX-X.XXX}.^.}./././.>.,.P.$.E U D.S.A.Y Y Y z z l l A.Y f s l f a s s z l s Y U K.T.K.W D.H.=.=.| G | 6.*.s.s.+.+.0.d.|.f.>.O.5.e.v.N.nXb.:.z.|.|.k.M.N.w.O.9.2.r.h.m.t.d.e.j.b.b.j.0.t.d.t.j.t.e.t.e.M.uX8Xd.t.b.d.e.N.r.h.v.e.O.` 9.r.m.v.V.N.V.N.j.v.v.e.a.d.b.d.k.a.e.0.6.+.6.e.d.t.t.d.$.{ E @.u.H.#.,.oX+.Z *.] E =.f.j.0.o.K H j H @.%.u.y.Q H H I Z Q o.o.o.[ I &.$.I $.G @.e.t.t.) } O.d.q.d.-Xd.+.w.) O.9.a.XXr.( ) 5.8XN.v.v.j.e.e.d.v.N.j.t.j.M.",
"j.h.t.e.b.N.i.v.N.j.b.x.x.z.M.m.v.m.v.v.d.b.x.=XV.V.:X.X#XXXd.k.XX>XoX.XoX=Xu.^..X/./.'.~.P.J.U.D.U W W W R U W z z Y A.F.Y R z f f g g l l s a d U #.{ W T D.#.=.=.$.I +.6.+.y.a.o.a.k.a.|.9.y.9.e.d.5.d.t.j.d.z.x.x.b.v.j.h.e.O.t.j.h.h.e.0.j.M.f.j.b.j.v.d.t.t.t.v.v.r.j.j.t.e.t.j.M.v.v.j.9.j.` 5.` w.2.2.9.g.M.M.t.N.:XN.t.y.k.{.j.f.a.6.o.y.0.d.j.d.d.t.0.$.#.I @.=.W { s.j.O.X.| J.H.^.f.M.j.f.#.W W T [ @.8.y.&.I K @.L } | y.+.@.| +.| $.=.@.@.O.` 9./ a.+.O.a.0.6.X.5./ b.pX>X.X9X:X5.1.m.tXh.w.e.v.t.9.j.j.t.e.t.t.d.",
"t.d.d.d.0.q.9.w.r.r.i.i.d.h.b.j.r.h.m.j.e.t.x.d.r.B.N.N.N.b.i.d.d.N.b./.{.>X(.Q.b.~.Q.f.s.Q.P.P.E l T T U R U l s F.F.K.U z U z k h s a s a f s k T W ] { W K.@.U.%.=.=.*.6.y.s.d.o.6X6.b.x.f.a.e.` 5.d.N.d.v.M.z.b.j.i.d.v.h.w.e.t.9.O.w.9.9.e.v.j.0.j.9.O.0.0.O.e.t.0.9.e.e.5.0.9.0.b.d.v.v.j.5.5.t.h.h.r.w.h.w.h.N.j.N.>X=X.X/.}.d.q.b.d.9.+.y.a.q.-.O.O.O.O.&.@.K [ =.T H *.0.a.y.} I T %.y.r.d.s.@.W H U T [ | 8.] E { @.$.o.*.} &.%.$.+.8.#.I P.Q.d.d.O./ O.y.0.O.6.F X.>Xj.0.a.+.a.j.XXr.) t.iXh.w.9.r.t.v.t.w.e.0.) 9.v.",
"v.v.j.j.0.i.9.r.t.3.i.:.r.t.q.v.h.w.v.r.e.e.q.y.e.v.v.v.M.j.d.i.q.j.d.y.k.k.$.u.a.$.u.p./.=.#.%.E k W T H T R d F.G.k U T k l g l l s l f f l i k U #.=.T l D.T.~.E @.| *.+.u.y.f.4XoXO.{.p.a.6.0.9.e.t.v.j.d.b.x.b.b.i.|.n.m.v.m.j.b.t.h.t.j.j.j.d.b.b.t.d.t.t.5.d.e.b.d.d.d.e.t.e.M.b.b.1X=Xv.h.0.d.b.v.v.j.d.v.j.M.k.XX:XV.b.~.{.d.q.0.q.5.} Z ..:.9.O.O.O.:.] I J I | G K } O.6.o.] H H %.s.9.d.d.%.H.{ R H.@.| =.I E E L +.>.8.+.$.[ ] y.s.{ #.P.^.b.j.t.5.F +.9.0.0.O.a.M.w.h.e.+.5.d.>Xv.` 9.iXh.h.j.v.v.v.d.j.e.a.9.j.j.",
"M.M.M.M.z.|.t.V.m.h.x.i.M.N.m.V.m.b.XXM.M.XXXX|.m.m.V.M.M.M.b.{.|.n..X{.oXd.y.s.s.%.=.k.f.u.P.U.W k { { T T U f &Xl l R { z W l l z l g g f l f U U J.U.W k R #.u.%.U.=.Q.s.s.u.s.f.0.d.b.f.>.O.O.t.0.e.v.t.t._ i.-.d.|.|.b.=XM.v.j.t.0.e.e.t.e.d.M.XXv.j.v.j.t.j.j.b.b.e.t.t.` d.d.M.j.b.n.j.e.0.e.h.v.M.0.M.n.XX1X>X.X2X>X.X{././.{.b.k.d.9.+. ...O.9.9.e.w.d.&.@.%.=.=.[ I +.b..Xu.&.H j #.~.v.j.M.=.E E U H I I $.I K H | 7.*.+.*.*.T I y.8.E %.P.Q.k.e.) r.}._.t.e.e.=Xv.d.h.h.d.d.r.d.M.t.) h.9X5.5.r.m.M.m.j.t.v.d.t..XXX",
"v.n.XXn.x..X=X<XV.|.|.m.M.XX<XV.N.XXv.v.M.N..XXXm.V.=Xv.v.d.b.b.|.|.@Xd.} {.s.y.u.=.,.a.8.Q.%.E W R D.D.R D.f Y D.f f l U f z l l l z g l z U h U T J.=.W W A.%.Q.L.%.=.=.y.sX>.+.X.f.b.j.d.>.q./ O.t.t.d.v.t.9.d.i.b.d.b.i.a.j.v.z.d.v.v.h.r.r.=X=XN.j.j.d.j.e.t.d.j.=XN.r.j.t.M.>Xb.b.d.n.j.v.j.t.h.b.=Xv.:Xt.b..X.Xb.=X<X=X.X_.}..X.Xb.d.i.i.$.+.d.0.t.v.m.d.$.%.#.@.=.%.J.y.t.f./.%.R W #./.V.M.1X^.#.#.R D.#.=.=.[ { J.U.y.$.*.+.*.E { $.*.[ #.P.^.k.v.t.m.+Xs.6.v.j.5.w.j.d.a.a.0.t.d.j.) N 2.5.N r.<Xm.h.m.M.N.N.=XM.M.=X",
"N.b.b.x.v.b.:X8Xd.;.h.h.j.N.V.v.m.N.N.V.t.v.b.x.c.V.V.M.h.j.e.a.x.|.#X9.+.gXa.*.,.=.$.u.P.H.%.E T T D.U W W e W R f k U z l z l g l l g h f k f k U E J.H H T J.%.J.P.J.$.4X$X+.oXk.{.a.v.d.p.i.O.i.z.v.j.b.v.d.z.i.t.c.V.d.e.e.v.d.t.v.j.b.v.:XV.N.n.b.b.N.0.d.v.XXj.t.M.N.M.M.m.V.j.n.N.M.h.h.j.j.b.b.M.M.M.b.n.oX-XM.<X<X=X{._.+X{.d.k.v.d.:.*.y.q.e.j.h.h.N.*.,.%.@.=.%.#.y.a.k.^.#.z U @.y.b.j.d.=.J.{ l U E | @.[ W #.=.~.=.u.{.u.K @.=.@.[ #.[ =.b.d.b.d.X.0.a.e.9.e.0.t.d.a.k.{.M.j.v.5.D ` 5.w.:XnXh.M.m.B.B.=X>X=XM.N.",
">X@X|.v.v.t.2.`  . .2.w.5.t.B.M.XXN.M.M.M.XXv.i.j.m.h.h.t.e.0.d.d.x.b.q.oXk.y.7.u.u.=.s.[ @.*.Q.D.k d d d y U R.f f k d f s U h l f h l s R Y s l U E { U { T #.$.#.!.#.| y.*.y.s.d.a.f.b.d.a.+.z.z.d.t.b.d.M.N.n.0.m.v.j.d.:XXXv.d.M.m.N.XXv.:XN.w.j.V.j.0.e.e.d.j.9Xt.m.V.m.m.M.V.j.d.b.=XV.m.b.M.b.XXj.v.XXXXn.XX.XoX1X5X1Xk.f.s.f.f.d.d.d.x.y.s.a.e.m.m.j.M.,.@.[ @.u.%.#.f.d.0.=.[ H l @.o.e.0.d.=.E E d d K I | I K I $.,.u.*.>.P H G | &.E E J.T.oXM.N.e.} 6.a.O.w.0.d.` w.h.M..Xe.e.t.t.) e.yX<XiX:Xt.m.N.:XV.<X:X=X=X1X",
"i.i.x.b.V.h.w.d.p.i.w.d.0.e.h.B.:Xv.j.t.j.j.d.i.f.r.m.N.v.M.d.d.b.M.d.a.a.y.+.*.*.$.@.*.[ $.@.[ j w 5 R &XdX&XT k k a a f f f a a s f l l Y F.g U T %.E S.K.S.U.(.P.P.$.| +.y.*.y.k.d.f.f.d.k.:.i.z.v.t.e.h.t.e.|.j.M.1X#X.X=Xm.N.N.v.d.j.d.v.0.e.d.m.:X9.` t.w.t.j.XXb.b.N.N.d.d.1Xv.d.j.j.v.N.XXb.d.XXb.x.|..X|.|.|.oXXX1XXX0.*.u./.f.y.z.x.i.+.} O.O.t.e.w.0.,.P.[ %.o.I @.7.d.0.@.{ k U E P w.e.e.=.#.[ k H I | &.@.#.=.,.+.*.*.+.P d G P P H E J.%.f.XX` 0.Z / / t.e.0.a.e.h.e.e.w.r.d.q.5.D 9.aX:Xd.t.v.b.m.M.:XN.N.XXXX:X",
"t.0.O.0.r.w.9.>.+.+.9.5.5.5.e.r.v.e.d.M.r.w.d.v.i.j.j.j.j.v.a.5.t.b.b.y.y.0.o.*.$.@.] *.&.P @.G q H &X&XD.T G j f a a a f s f a i a a k l f W h U T @.R l T l #.Q.%.@.=.u.6.y.f.f.{.d.a.a.t.5.O.0.i.b.m.5.9.9.9.|.N.XX,Xi.i.n.M.M.v.e.v.m.v.j.0.d.XXN.t.t.t.M.N.v.>X2X2X8X1X<XV.M.N.M.V.M.M.v.j.d.j.j.z.#X#Xi.n.b.v.d.oX>X:XM.f.u.~.<.f.b.v.d.q.o...+.e.w.0.e.0.&.$.E ] $.%.@.u.6.a.=.E 4 a P.*.e.d.k.$.I #.H U [ @.I J I #...+.+.a.9.P e j | I I @.T.!.d..Xd.5.7.+.5.d.k.v.d.v.h.5.e.5.r.r.j.9.^ ` :Xt.t.M.M.N.n.=XV.M.v.d.j.j.",
"=X@Xx.d.h.h.q.i.-.+.i.v.M.d.j.h.h.M.XXN.N.N.:XM.:X#X|.N.j.v.d.9.v.N.XXf.u.a.{.s.=.=.| =.#.@.I I %XwXK.H.z z D.W l l l l l g z l f g l f f z z g U W { W z l l T Q.Q.Q.Q.+XoXf._.a.a.f.a.b.d.e.d.N..Xd.j.e.v.v.q.|.,X=Xb.:. .O.e.h.t.0.j.M.v.v.M.XXN.j.N.9.) 9.e.t.XXN.M.V.2XM.b.:XN.z.v.m.V.N.d.b.b.d.i.b.1XN.M.N.M.M..XXXn.XX|.>.u.s.f.b.j.d.j.y.+.0.q.9.6.9.6.@.K H I @.[ @.$.y.+.=.y 4 l ).*.f.M..XU.#.[ U T H.[ P I ] [ $.+.a.a.q.&.f l @.$.| $.%.!.{.j.M.>X{.>X=X5X1X=X=XV.v.9.O./ r.v.b.v.9.D v.=Xv.v.b.M.n.N.w.d.j.h.b.XX",
"hXhXuX,XyXtX,XuXiX,XgXhXbXhXpXnXbXBXZXBXnXbXBXNX9XhXMXNXNXyX+X5XiXiXhXgXsXsXkXgX*X$X$X[.).[.Q.).jX%X).).R.R.R.R.I.R.F.G.W.R.R.R.%XR.R.F.G.R.R.%X%XR.I.R.I.I.R.R.*XwXqX%XOX4XgXqX+XuXrXsXNXVXMXiXhXkXuXyXyXiXnXCXSXNX#XrX,XrX6XuXiX2X:X8XBXyX9X9XhXiXaXBXiX1X5XyXMXhXhXhXaXnXhXgXBXMXiXyXnXnXaX2XuXnXVXgXhXZXNXaXbX0XuXMXBXMXhXqXqXgXgXuX0XiXaXaX6X4X6XgXgX4X6X5X).R.I.).OX[.%X*XgXsXOX).I.xXFX*XgXnXgX*X%X%XW.[.).U.[.[.[.*X*X4X6XuXuX4XE.I.R.[.[.*X*X*XgXpX0XVXqXgXBXNXBXnXmXNXhXpXhXiXaXMXmXaX5X:XiXSXaXaXhXMXbXv.=XHXyXaXnXnX",
"XXn.|.b.m.V.:X4XyX@X:XtXyX>X9X0X<X:X:X:X<X:XiXBXhXuXaXnXaX6X4X3X2X2X>Xk./. X-XB P /.^.[.[.).^.jX).R.R.).F.F.).R.I.S.z R F.F.S.G.R.G.G.A.z F.I.l z R.D.D.K.D.T.K.K.T.!.Q.).[.4XkXsX5X3XoXgXhXuX0X9XhX4X3X,XkXnX2X<Xv.:XkXyXuX6X2X1XpX9X<X<XyX:X=X>X2XiXnXBXMXyXiXnXaXnXMXhXMXhXrX6X2XyXMXnXCXZXZXSXBXVXNXhX>X2X5X8X2X.Xj.<X2X5X.X{.oX3X6XpX9X1X>X.X X$XkXjX4X.X.X).[.T.).%X%X%XqXgX6X^.L.I.%X).OX4X5X+X).).[.F.[.J.r $XU.U.[.}.f.k.XXV.}.P.F.J.J.H.T.!.U.oXM.M.uX6XsXuX5X3X1X1X2X1X>X2X:XoXoX5X0XnXM.yXMX:X:X>X9XiXnXKXSX>X2X5X1X",
"v.d.i.b.N.m.h.l.n.B.j.j.XXXXb.=Xv.9.q.M.N.N.t.h.=Xb.M.b.XX1Xd.y.d.v.d.a./.{.3XZ $.4X@.P.Q.$.U.J.H G E #.U { J.R z a s l l l z l l h l f g R Z.6 k %XU l Y D.P.H j T E @.[ | +.y.a.e.a.s..X=X@X5X5X{.{.oXd.i.q.` ^ / 0.rX2Xh.t.r.9.w.v.v.5.t.e.e.t.5.0.0.j.t.t.v.N.XXV.V.=X:Xv.t.b.t.d.M.N..Xv.b.oXb.d.XX-.n ^ 9.:X9.t.v.m.m.M.b.b..X~.~.f.v.N.x.p...>.'. Xs.0.} P @.I J #.{ E U./.s.#.H H d I =.s.f.y.%.@.@.U U D.T.$X#.#.$.+.+.+.0.e.f.[ H U { W W =.=.f.b.j.a.{.b.a.r.d.d.a.j.M.m.v.r.d.b.b.b.b.j.j.=Xv.j.b.N.V.N.d.j.d.v.M.d.",
"d.v.i.b.=Xm.B.|.b.V.XXXX=XXXj.j.v.t.0.j.j.t.O.9.v.h.:X>XM.j.k.n.x.b.m.0.}.p.{.~.}._.@.%.I ] P.H I [ H T f k E a s l h s i a f s s s l l l g l l &X%XU W U T [ K H P @.@.[ I o.} Z / X.o.O.) q.O.e.>Xb.e.d.x.e.5.9.i.i.#Xi.j.2.` O.) 9.0.9.` j.t.z.O.9.M.5./ ` r.d.e.0.e.w.t.t.0.9.9.e.t.XXM.M.f..Xb.h.M.O.B 0.M.M.5.t.r.3.h.h.j.'.]./.f.f.M.N.N./.~.'.|.f.s.a.*.K K { T K H H %.$.s.[ T W k [ =.$.>.y.$.#.#.U R W #.| &.[ [ | *...+.d.'.$.E { { %.=.=.=.f.M.k.d.d.a.0.t.j.d.d.b.M.M.M.b..XB.M.XXn.M.N.=X<XV.=X:X:X:Xb.M.XX:XM.v.",
"b.b.x.d.v.m.h.'.N.N.b.d.t.t.N.b.v.v.t.:Xa.9.9.0.M.v.j.j.O.9.0.j.|.>X=Xd.f./.'.u.*.7.=.*.P =.{ U #.P.T U f f R f f z f s g l s a s l l l h l l l F.l R T W #.E H G G @.@.@.$.y.} o.F / } / ) t.t.5.h.2.1.n.z.q.b.z.a. .0.|.|.h.r.e.9.` 9.^ -.XXXXd.d.v.M.j.j.j.j.j.e.d.d.d.M.v.j.t.r.m.M.M.v.k.k.b.b.v.j.5.O.rXMXyX9.9.5.1.c.d.f.p.f..Xd.d.v.j.e.y./.|.b.f.p.>...E T W j H j H @.| $.E H U j I J.&.>.y.&.[ @.T U W %.%.| E [ | y.d.:.x..XQ.J.K.H.T.!.U.U.{.N.j.d.a.f.k.k.a.b.k.j.b.b..XXXM.b.XXXXXX=X:XN.<X<X=X=XXXXX=X=X=XN.v.v.",
"t.d.z.x.d.V.v.|.<XV.j.M.:X:XXXN.V.N.N.b.d.v.v.d.e.h.h.d.d.t.0.d.oX{.=X-X_.{.].{.{.}.^.Q.u.P.H.D.H.K.I.R W R l l z F.z l l g s g h z l R l f R z S.R l l D.P.E d E I ] =.=.u.*.o.+.X./ } O.e.e.O.e.r.m.b.n.|.i.d.i.6.O.|.x.v.h.h.n.d.) w.t.q.d.:XXXb.v.e.h.d.j.e.e.d.M.M.t.r.h.r.r.9.v.d.h.b.a.d.j.e.t.n.b.>X|.hXd.` j.v.m.j.p.p.b.{.}.b.x.M.M.M.f.{.b.b.d.f.0.} J H j U H k U I &.$.E U U k [ P.=.y.a.=.I I T U R { [ I [ [ ,.y.y.x.f.y.=.{ H.#.%.%.=.P.s.r.r.j.f.s.{.{.oX.XoXN.m.{.M.N.=XV.=X=X.Xb.N.m.h.h.j.M..X>XV.b.f.v.j.b.",
"0.t.z.q.d.m.b.|.:XXXb.=XXXb.q.9.r.b.j.b.v.h.j.e.d.h.h.t.d.d.6.t.:X'.f..X{.f.f.f.f./.U.Q.f.$.%.T { { { H U k j f z z g s h f f g g z F.F.a f l z R F.R S.K.{ T U #.@.=.$.I Z *.s.6.+.C Z O.w.9.9.m.t.e.9.d.x.z.i.i./ q.d.5.h.r.r.d.d.j.2.e.t.t.N.n.N.=X0.5.r.b.XXj.5.h.M.N.t.v.v.v.h.r.O.e.v.b.M.m.1XXXM.b..Xi.i.-.d.5.( B.n.i.d.v.{.f.'.b.m.=XM.b.f.d.j.q.0.+.O.J H k k k k l { [ $.U j k U #.I @.*.a.&.@.%.W W W [ | =.J.[ *...:.{.i.u.@.H [ #.@.| $.,.9.h.r.d.y.f.b.b.b.d.{.XXn..Xb.M.N.b.b.j.j.d.M.N.v.M.=X>XXXj.r.j.j.e.d.t.",
"v.n.|.i.m.M.@X|.:Xd.e.0.w.9.9.2.` 5.9.w.r.r.t.r.b.h.v.t.O.9.) e.5X|.d.k.}.}.-.+.} s.=.&.+.P J K H.H j j k i k l l l a f z s g g s x k i i h l f i U S.F.U H H G G P | Q *.*.*.o.b.a./ F 9.0.j.M.v.s.a.j.i.i.b.:.z.d.a.q.b.m.9.` 9.e.v.e.M.9.O.:XM.XXv.t.t.9.e.5./ 9.v.t.d.0.d.z.t.j.M.j.M.d.j.M.M.:XM.N.XXXXb.x.b.b.v.m.m.,Xx.V.m.f./.{.M.h.B.M.d.d.M.v.e.d.a.y.[ H U a R l U [ %.%.k l W l [ P I 7.e.&.| I { T H | s.$.K J | >.p.q.i./.#.H @.=.P.^.u.Q.d.M.d.b.k..Xn.b.:.a.b..Xd.f.{.M.V..X-XM.n.M.N.N.:XXX/ O.XXj.v.d.0.d.t.v.",
"|.x.i.d.v.m.|.x.h.t.e.r.9.w.9./ 9.0.9.w.h.t.d.v.v.d.v.t.e.5.X.5.5X$Xf.b.b.f.f./ f. X&.&.$.U.@.T I E U l f f z A.A.A.x x x x Z.x z f e a i i a 3 i f f T j j j G I [ [ | =.*.u.Z y.s.a.d.a.9.h.a.y.q.x.x.d.+.a.0.5.h.0.z.f.d.v.e.e.b.N.e.j.r.9.j.5.r.h./ 9./ ` 2.` ) j.0.O.9.O.9.O.d.h.j.t.6.9.r.q.n.9.v.b.n.XX9.O.e.d.M.m.n.>.i.i.<.p.j.w.e.M.M.k.k.M.5.e.f.....I y l l k d T [ @.%.U d d k #.P @.*.O.| | [ #.T d =.*.P H K ,.i.q.t.n.a.E E #.U.#.@.=.U.d.d.b.>X.Xk.b.|.f.d.k.b.b..X.XXXXX.Xn.m.XXN.b.n.=X/ ( d.:XM.M.v.b.d.d.b.",
"x.x.n.N.r.h.x.;.:X=Xj.v.r.0.9.5.5.9.t.x.v.e.d.h.h.e.d.d.e.e.y.5.2.b.>XM.b.s.f.].sX~.s.u.$.=.[ H { #.k k j l Y h f a s s s s s i i w a a s a a w l k d H T z U H ] E I I $.$.*.y.d.y.d.a.d.0.e.O.O.q.i.i.t.b.i.0.t.e.t.h.9.9.e.t.` / v.h.h.` ^ 9.e.9.5.9.O.O.9.9.9.e.j.0.9.` 5.5.t.r.5.e.9.O.) 0.e.d.9.XXd.d.x.n.t.d.e.e.g.j.N.0.q.0.0.a.d.t.t.h.d.y.j.t.0.a.' ' V G H k 3 3 U G J I k a d d @.I I } O.Q P #.D.H H T.] I H I =.d.e.e.d.>.I I @.=.[ I E $.0.O.9.q.>.y.f.f.0.d.f.b.b.v.N.m.j.M.XXM.=Xb.v.M.=Xd.d.uXhXb.v.b.b.b.b.q.",
"b.i.v.M.v.h.M.|.M.v.j.r.m.v.b.v.t.q.i.z.t.e.q.t.b.d.d.e.e.r.e.9.r.d.5X.Xa.{.oXp.>.+X].Q.=.$.@.H E { T U W l d f s w i s a 9 i 9 9 a f e s s d f a f H W W k l H I I @.U.Q.| y.y.y.9.d.y.O.0.0.0.y.i.i.d.d.d.i.j.9.t.e.j.9.v.j.t.e.5.e.t.5.` ^ 0.j.) ( e.9.) ` ` 5.` ( 5.w.w.9.` e.e.9.e.9.O.t.j.M.j.j.M.v.d.n.b.b.t.d.t.j.r.m.B.2.N D 5.b.t.t.v.d.a.d.v.t.9.+.} P [ H j d D.D.y y G d a R j G G G / O.V V G H G { $.,.[ [ ] $.q.d.d.t.>.I I @.&.I I =.=.d.d.i.i.d.i.i.i.q.d.d.d.b.b.b.d.d.b.{.b.d.q.5.0.d.d.1XhX1Xq.d.0.e.z.b.{.",
"b..Xv.v.j.h.j.|.t.d.h.v.b.j.b.h.i.i.d.d.v.v.M.v.j.n.j.9.0.9.9.0.0.p.{.1X.XoX.Xy.>.*.$.$.=.%.#.{ @.{ R { l a f z f s i 9 i i 9 9 u s s a w a f d a d d H k a j H $.@.@.=.&.*.f.s.a.a.d.0.9.d.d.d.d.f.1XN.M.d.i.d.t.j.q.O.0.N.N.h.2.0.t.d.0.9.9.O.b.t.t.r.t.e.0.5.e.9.) ) e.e.5.9.0.0.t.0.9.9.t.j.XXb.m.v.v.b.t.i.:.+.y.f.v.h.h.B.N b 5.1X3Xb.M.v.y.a.t.m.r.0.:./ | ] G j H U U I P E d i U W @.G G f.{.=.#.G G =.T.| a.| { #.,.d.j.j.t.>.%.] ....@.I =.U.b.b.x.b.b.|.|.y.q.i.q.v.|.v.b.j.N.M.k.d.d.q.0.q.0.d.b.d.d.t.w.9.i.i.x.x.",
"j.v.t.t.t.r.t.x.r.v.j.m.h.d.t.r.e.0.9.9.e.q.9.j.e.a.d.q.+.9.0.9.O.-.} d.XX.Xf.p.>.} P L G E %.E @.{ U H d w f z a a i 9 i 9 6 9 9 9 a a 5 a f k i l f k k i H @.=.I $.$.$.s.y.s.a.s.a.a.9.q.d.j.t.j.bX9X9.e.d.i.t.0.q.q.b.{.XXv.v.v.d.t.t.e.0.e.5.j.t.e.0.q.0.5.t.9.0.9.5.9.5.5.e.5.` 9.6.0.t.d.N.k.j.b.XX.Xv.b.x.x.b.|.b.z.0.XXC } f.1X3Xs.d.j.+.y.0.w.e.a.:.a.*.@.K H j f H K I I a w H H &.P #./.O.$.#.@.E P.E @.+.| E [ #.+.t.d.h.t.$.| +.| ] I @.@.0.d.d.i.a.i.y.:.q.a.y.i.:.d.v.j.j.d.x.v.d.e.t.e.v.j.b.b.b.q.t.d.i.0.d.b.",
"t.t.r.h.v.v.'.N.h.q.r.h.w.t.r.r.9.-.-.9.0.5.0.q.d.e.e.0.O.5.O.O.5.-.) ) O.b.'...+.o.| } P I I K E T k d H w w s w a i 9 9 9 9 9 9 5 i w 9 a a s a d j S.d a H P | I &.| | *.*.*.6.6.e.w.5.6.6.6.O.5.9.9.` 5.9.a.q.+.-.x.i.i.v.t.t.h.t.e.e.9.5.9.5.0.0.` 9.O.5.O.q.5.9.) / / 2.` ` ` 5.` O.5.9.w.b.d.d.j.d.d.d.j.z.p.i.j.d.i.i.i.:.|.$XgX4X..q.q.+.$. .e.w.a.a.a.6.$.E j H d G P I K a w j K +.Z E u.6.| I I G I K @.o.*.W I [ ] >.:.0.r.@.] o.o.] I ] &.q.5.9.i.y.>.:.:.q.O.q.q.q.i.d.d.d.e.9.d.q.0.q.:.i.q.t.d.e.q.t.q.i.e.e.t.",
"r.w.r.h.h.j.p.x.w.0.d.M.M.t.t.9.9.0.q.t.t.q.0.d.j.d.d.t.q.9.O.5.t.d.O.O.O.d. .' } } | } P J G J H j k d d w w i i s i i i i 9 9 9 9 s i u f i 9 w d j l e d d G | I I | | } } 7.+.O.5.9.O.O.O.q.` O.O.O.t.e.O.9.9.e.9.e.q.d.v.j.j.j.j.b.d.j.d.9.5.2.t.0.0.` 9.O.a.O.5.5.` / O.` w.9.0.t.5.O.O.w.t.9.9.5.O.9.O.9.r.0.:.0.e.e.q.t.z.#XsXrXa.9.0.0.y...$.i.q.6.+.0.+.| I j H j H I I I a a H K o.} I 8. .P G #.[ | G G } X.| v @.$.+.q.:.t.| [ +.o.I K #.&.O.O.O.-.+.+.q.:.q.9.0.9.0.-.q.q.q.e.0.9.9.0.:.-.O.-.9.q.q.i.0.q.0.9.9.e.",
"v.v.h.r.r.9.y.v.M.v.j.O.2.h.t.0.w.q.0.0.e.t.O.O.5.9.e.O./ ( D / C M :.3X>Xb.f./.u.~.U.=.u.Q.J.H.J.D.K.D.z l l l l z h h s s s s f z h g f z l l f U H l U W W H.Q.J.T.Q.u.a.y.a.+.{.b.XXb.v.b.N.M.=XXXM.j.M.N.N.N.N.M.V.M.t.0.b.d.M.j.9.O.9.t.v.V.XX=XN.=XM.j.M.j.j.j.v.j.b.b.N.N.d.v.O.d.j.q.XXb.m.M.M..XM.n.j.r.q.y.q.t.5.O.9.0.e.:. .C B M M B B Z O.y.0.0.0.6.*.[ H T H j V V G e f I I f.y.P o.a.=.J.%.#.=.%.@.f./.Q.U.*X,.p.x.n.9.L V ' o.I { r 0 x.z.i.n.x.p.x.|..X.XXXXXb.n.b.b.t.0.t.e.t.v.x.x.b.XX|.x.#Xx.x.x.b.m.h.h.",
"@ @ @ + @ @ + @ & # # @ : : + + # & @ & @ # @ + + + @ + + @ @ O + & + $ & & & & $ % $ $ @ @ $ $ % $ % $ $ $ X $ o o X X X X o X X X o X o o $ $ o % % 3 % % 7 % % % % + @ @ $ @ & 0 & # & # # * # # < = O @ # @ @ + + + O @ + # > <   + + + @ O , c & & & & + & + . + + + + + : & @ + @ > + = , & = = > & # # + O @ & : = @ @ @ & = @ : & & & = & % & * @ @ = O # + @ $ @ % 7 @ $ X X X X + + + X O * $ $ @ @ + X $ + $ $ + + X O O O . . + @ $ + $ X % 0 & & & & & & # # @ & : # @ @ O . O O O O + & & & # + O O . + & @ # # + ",
"N.>X,X6X5X1X2X2X>X8XaXCXBX1X5X9XiXuXyXiXyX9X5X>X.X=X=XN.b.M.v.:XnXuXn.f...} X.Z P +.P P P L J P G y y y e G e f d i w w a s s i i s s z z f w 8 9 8 y 8 e y y y V y V B V $.*.7.} 0.} } O.5.O.t.9.` 9.m.t.t.j.v.V.M.=X1X=XyXyXyX6XXXm.j.t.t.=X=Xv.V.2X:X:X:X5X0X=X.XXXXXM.M.M.XX<XN.m.N.M.d.j.m.t.j.a.a.d.XXN.i.q.:.q.b.:X1X:Xd.0.q.6.d.s.f.oX3X-XoX{.N.b.{.oXXXXXoX^.%.=.{ J.!.!.U.K.R.T.^.{./.U.*.k.L.W E E [ W J.k.j.*.%.@.%.'.=XXX{.!.^.}./.Q.U.).vXHX|.1X5X3X$X>X1X=Xn.b.N.<XM.n.|.|.b.i.i.x.i.d.b.j.j.b.>Xd.` SXaXh.m.m.|.",
"1XN.XXb.b.n.XXN.V.<X<XiX<X>X:XXXb.n.M.v.z.v.j.b.XX:XXX.X.XyXnXaX<XM..X>X|.}..X_.+X4XOXOX$XOX$XOX).R.%X&X%X%XR.%XR.A.z x F.F.Z.Z.z h Z.F.l A.I.R.I.W.%XI.%X%X%X&X%X[.*X&X%X$XqX+X6XNXgXgXmXVXVXhXyXpX=X<X2X:X>Xm.V.B.=X<Xm.m.j.XXb.=XiXnXhXyXiXBXMXiX9X5XM.N.N.b.v.n.XXV.M.v.j.v.V.=Xv.1X1XXX1XiXnXnXhXnXhXaX2Xx.b.x.M.XX2X2XyXhXkXkXkXkXsXsXuX4XoX+X$XpXuX$XoX>X1X3X!.K.!.R.T.^.).*XR.D.!.(.+X}.[.+X3X%XF.D.H.J.J.U.+X5XOX*X$X[.3XV.b.a.=.=.{.}.].(.(.!.n.N.b.b.f.f.b.N.N.d.XXiXbXSX5X5X5X9XyXhXhX5X1X:XM.b.N.>X:XnXMXv.N.2XrX5X",
"O.2.9.5.0.0.e.9.9.9.9.t.9.5.O.O.O.9.w.9.9.9.5.9.5.O.O. .+.v.d.t.0.d.5.O.q.'.y.a..X}.~.~.U.=.*.[ { T E H d d a s s a 9 8 9 6 5 9 9 9 9 8 5 i a a w d f d j H d j G V V V V Z Q Z } k.X.X.X./ } 6.O.5.w.2.t.t.5.5.9.1.2.r.9.5.9.0.5.5.5.5.O.5.5.v.j.O.O.9.v.5.0.e.9.5.5.9.5.5.O.` 5.w.5.9.O.O.9.9.9.5.` ) / ) O.5.-.O.O.O.5.5.9.:.:.+.O.X.P } +.6.o.| o.q.i.d.a.q.w.} G d G y G L G G d d G L Z Z V X.Z w d G V V j G } X.P Z V V B ( O.+.J G } } L G P I X.2.5.9.+.O.0.9.e./ O.yXyX:X/ ` 5.O.O.5.` 5.9.9.9.5.w.5.9.5.9.9.5.O.O.5.",
"2.9.9.5.9.0.9.0.0.9.0.t.e.5.q.0.9.9.r.9.9.-.9.-.-.-.9.O.O.9.e.t.9.e.0 0 C d.O.Z ' &.I I H ' P P G j j d e a a d a a w 6 9 9 9 9 w 8 5 6 a i i i i e a a d d a y V y G V L P } } Z f.0.X.} X.X.5.b.e.2.5.2.5.2.5.w.2.e.t.9.9.r.t.0.9.e.` 5.5.9.9.w.e.e.5.j.t.5.5.5.5.e.0.5.` O.9.9.2.5.O.O.0.e.0.e.9.O.O.O.O.5.5.9.O.5.6.w.w.0.0.9.O.y.o.] }  . .} } +.i.:.O.O.O.5.O.P j G j G I J H j j P } } } V / O.w e I I J j G } O.} } I P } O./ Z G I O.O.I H H H } 5.5.9.9.9.w.9.9.` D 2.` D ( t.w.9.5.` 5.9.9.9.w.w.9.w.2.O.O.O.+.-.O.` ",
"O.O.0.0.O.O.O.0.0.t.t.v.d.-.0.O.O.9.2.2.9.9.9.-.9.O.-.w.O.0.0.e.6.` n X.q..X6.Z P | P P G | P J G j j f a d i f a i a 9 9 9 9 9 9 w i i w w i a a d f a d y w y V j V V P P Z } Z a.d.X.+.+.6.a.5.O.2.2.) ` 2.5.9.` t.0.O.O.w.r.e.e.e.^ v.5.5.5.9.v.e.r.t.v.9.5.O.O.t.9.2.` 5.5.5.O.5.O.9.O.` e.v.v.e.O.O.5.O.9.e.0.5.+.9.0.w.e.9.6.y.} P ..O.....$.] O.O.+.:.5.w.w.P j G j H I K H H j P } } Q V } ' k q r G I j K } O.} } P I } O.` / I P X.} I V G H ..O.2.9.5.5.9.5.5.w.5.^ / 2.h.9.5.9.9.9.9.9.w.9.5.9.9.O.-.O.O.O.9.9.O.9.",
"5.9.r.q.q.9.-.-.q.9.` 5.O.9.9.O.9.9.5.9.5.9.O.-.q.O.9.t.0.e.5.d.d.d.O.O.{.oX/ Z +.| I | I I I J G d H j a a i s w w i i 9 9 w i 9 9 w w w 9 i i w a j f d d a G G G G P } } o.} B y.k.+.{.f.9.) ) / / 5.0.5.O.9.9.) 9.e.O.9.w.r.9.0.0.j.j.e.w.9.9.h.t.w.e.j.e.e.9.w.e.O.O.5.O.O.5.d.d.0.0.q.q.e.e.e.b.a.O.9.q.5.O.2.a.0.w.0.e.e.0.a.*.+.| o.6.-.y.| | -.q.+.:.0.r.0.I j G G K I K K H H Q P } Q V P P d k r r r q V +.h.5.&.@.@.*.6.5.+.@.| +.+...I ] | >.:.-.9.9.5.9.5.2.5.e.r.e.0.9.w.w.9.-.+.O.9.9.-.:.-.O.O.9.w.5.5.5.9.5.5.",
"v.m.N.b.b.b.b.b.b.n.>Xd.0.0.q.d.v.m.m.m.M.n.b.b.M.b.d.v.N.j.d.t.j.m.d.b.5Xb.+.u.{.%.=.s.*.@.%.@.[ W %.W z h f l f f s l l f l f s f l l d i i a a U R A.l f U E E #.$.$.} &.&.u.X.a.0X{.oX.Xe.0.5.t.d.M.1Xd.t.v.d.e.7XN.v.m.M.:XN.N.N.v.j.V.m.v.j.v.<XN.>XN.v.v.v.v.v.j.j.M.b.v.v.M.V.N.M.M.N.v.m.j.b.5X{.n.b.k.j.d..XM.N.N.V.XX=X.Xs.f.8.u.k.b. X~./.N.n.x.~.b.M.k.[ k T { { [ J.{ W H.=.*.a.y.@.=.,.U z { [ J d y X.=Xj.*.$.$.y.d.a.*.@.I o.O.o.I *.+.k.|.x.x.x.b.n.|.b.b.|.j.j.v.v.c.v.f.p.p.x.b.x.x.M.=X=XM.v.d.d.d.h.h.v.v.",
"^ ^ / 9.9.0.O.9.O.q.O.S C n b S S S N m m D C C ^ C C M N ^ ` S m < , c / F C +.} L P Z B V V y r q r q w w 6 w w 9 5 4 5 9 8 5 9 w w 9 4 4 3 9 4 q U 9 q w e y y r r v 0 0 r Z n Z }.a.F D M M D 5.) D ! B C ^ ^ ^ 2.D C M N ^ ) S S S S D S ^ ^ 1.` ^ O.^ O.` O.2.` 2.` ` / ) ) ^ D ` ) ^ / D C C M N ) / C C 5.O./ D N c c F C n 0 0 - - > b 0 0 0 c b 0 0 t b n q 4 q q r q r r q e L v c 0 0 0 7 3 3 7 0 G y q > m M 0 0 r c c > - - - - > > - 0 0 c n t M b b b c n t n _ 9.9.0.q.-.;.-.5.O.5.` O.r.^ , C ^ O.O.) 2.2.` / ",
"+ # * : & & > & + + + O + + O O @ O   O O @ & @ & > ; & : > c , , , = & + @ $ & + $ @ + $ $ + + $ + $ $ o % $ % $ $ o X X o o X X X X X . X o X X $ % o o X o + + X + + + + + + . 0 B c n & + # = @ # # + @ & # @ @ * = : : = , c @ # # # @ # * : = @ O = : O * , : : : , = * = = & # > > = & > 0 , , > 0 0 , , B M < , m < c c , 0 - - % - > B - - > , > = & % & & + $ 3 3 7 3 % % % $ 7 % # + + + $ $ $ + X $ $ % # # > # & - > > : - 7 - > > > % - - & # + # # @ @ # * @ @ & & @ & @ @ @ # + @ @ + @ # + @ , + # # O O @ @ @ ",
"pXnXVXZXBXSXhX:XXX<XtXyX6XyXhXyX2XiXMXCXCXCXSXSXMXhXBXZXNX5XrXhXVXSXCXNXkXgXNXjXjXsXdXjXdXdX%X*X%XwX*X%X%X%XR.E.G.F.I.R.R.R.I.R.R.R.R.%XF.&XF.R S.R.).%X%XwX&XqX&X&XqXsX*XOXOX4X$XjXHXVXHX5X4XgX1X5XnXnXhXhXgXhXMXbXbXaXMX2Xr.C.pXSXbXiXiXnXhXaXbXCXCXZXSXCXMXMXBXSXZXBXBXbXaXbXBXBXZXZXNXNXBXNXCXNXNXBXNXNXmXNXZXVXBXVXCXMXVXSXVXlXlXjXjXjXHXSXVXjXVXCXBXmXjXjXVXjX*X%XwX&X&XwX*XdX%X&XdXwXgXqX*XsXdX&X[.).[.*X&XwXkXMXZXVXlXjXjXVXkXgXsXsXjXsXjXdXlXlXVXZXBXCXCXCXNXNXMXkXkXkXkXkXuXaXhXMXNXNXNXnXMXNXBXSXIXKXhXMXMXMXhXMXMXhX",
"d.z.N.XX>XXXt.h.m.r.h.v.t.q.d.d.d.m.M.m.c.m.j.t.t.O.0.0.0.-.d.x.-.` n.a.e.0.w.+.o.| $.=.I I K K E j j d a a w a i a u i a i i i i i g s k k w a k j y d k k l J.@.W *.8.@.+.=.f.+.,.gXgX6X5.b..Xb.N.N.m.n.|.x.x.h.r.w.3.2.e.b.5XyXV.5.9.0.0.w.t.h.v.m.XXb.b.v.M.N.M.XXj.r.r.h.=X9X5X:Xm.d.d.d.d.j.k.d.d.q.0.0.6.0.6.9.6.` O.e.e.0...+.o.I s.{.h.a.7.+.q.5.O...$.>.&.H U #.E U G j K f f G V / Z V Z ' y e d j H G K +.r.e.f.*.| o.X.O.o.I | o.+.&.@.y.u.a.b.b.m.c.j.e.w.5...-.q.>.-.9.w.h.d.t.h.v.b.d.e.h.e.` ) 9.t.m.v.M.N.XXb.",
"9.-.9.9.d./ / ` O.) / ) ) / ` / ` O.5.5.2.9.9.` +...O.O.9.9.d.-.b m j.q.0.r.+.+.$.] I +.] | E I I 7 { j d d f j d s u s a i a i i i i 8 8 9 w w a K G a a e a Q I I | | P P Q Z Q Z F b.6.D 5.5.O.O.2.O.O.i.-.q.5.2.w.r.9.-.:.x.z.z.d.q.0.-.5.` ` ` 9.9.O.0.O.` ` 5.t.9.w.w.j.t.9.O.5.h.0.w.0.q.d.d.t.d.t.q.0.9.a.d.e.e.e.6.h.j.0.| +.+.| y.+.O.y.6.+.q.q.+...] v ] G G P G j j H H e w y G O.F G } } j w w d H G K +.w.5.6.7.+.a.+.&.$.] $.6.+.+.| o.o.O.6.e.w.3.2.2.O.O.O.9.9.:.:.w.O.6.5.2.2.3.2.5.9.w.0.0.w.e.9.9.w.r.e.9.5.",
"0.0.t.i.q.O. .` ) ` ( 1._ O.` -.9.9.w.5.9.r.w.O. .o.` 9.q.-.-.O./ 0.oXt.9.e.+.+.+.o.P +.| | E [ I W D.y e d f j a a i s a i w w 9 u a 9 w w w a d d d d a f H P G I P } ] P Z Z X.8.} B V O.O.5.5.O.O.+.O.-.q.:.O.O.9.t.:.-.0.q.v.M.v.9.9.q.d.j.t.9.t.5.0.9.O.O.9.9.0.t.e.j.r.5.5.O.O.M.b.t.e.d.q.t.d.d.a.t.0.0.d.q.d.e.d.9.r.d.a.*.$.+...s.f.e.a.y.*.a.0.+.| | | Q.j j I I U T j d w w H I 0 } [ P ..H a a d H K I *.j.0.+.o.+.6.*.*.*.=.u.>.s.a.o.+.,.y.t.r.h.h.r.r.-.;.O.0.0.9.:.e.r.q.0.w.w.w.w.r.r.r.e.e.0.9.w.w.w.e.0.e.r.",
"0.-.q.z.q.O.O./ ) / / 2.` O.O.9.9.9.w.w.w.c.e.O.O.O.O.O.0.9.9.+.d.:XXX+.6.+.O.} o.| X.6.| | I I I d w w d i a s a s i s s i u i u 9 i 9 9 9 w a e d k W j d j I I G L } P | } Q O.o.a.O.F F O.>X5.9.O.O.q.q.t.0.O.-.0.d.q.9.-.b.v.r.j.e.9.d.d.t.9.0.5.5.9.9.5.2.) 5.r.t.d.e.r.5.5.O.O.5.d.9.d.9.e.v.d.d.d.d.0.d.d.a.0.5.d.e.0.j.d.*.7.+.Q >.f.e.a.*.*.a.0.+.P J ] P j d I K T j j d a a H G X.~.K ]  .G a a d j H E *.j.O.} P | } Q &.| K #.,.$.} J J ] ~.0.e.h.h.r.r.0.9.9.5.0.0.e.t.h.h.d.5.O.O.O.5.w.t.9.O.9.e.h.e.t.t.9.a.d.",
"9.q.0.b. ./ / O.` O.O.` 1.2._ ^ 5.9.O.O.5.d.9.O.O.` ` q.e.0.9.5.` 5.) } X.+.O.O.o.I *.*.K I I P K j d j j a i a a f i i a i i 9 u 9 i i 9 9 9 k f U Y [ U k Y K I H Q *.=.&.o.o.7.+.o.+.6.a.XXj.0.0.9.t.b.XXn.z.-. .O.d.d.0.-.d.9.5.t.j.t.x.i.:.9.9.9.r.w.2.w.1.( 2.r.j.0.t.w.9.5.O.2.^ O.d.t.O.0.0.9.9.k.9.O.6.d.d.a.0.9.5.9.q.-.*.o.X.| o.0.d.y.*.*.y.0.+.I ] | I d d | @.T H j d a a H P X.} j ] | j d k d H T E y.` O.o.P / / P J J j I } | | J ] ' i.0.t.h.m.h.v.m.z.0.0.a.j.h.y.:.q.t.9.v.d.0.9.r.e.e.t.9.w.w.0.t.t.d.t.0.",
"iXaXrX0XXX>XyXXXn.|.XX8X<X<X,X>X5X9XyX5X,X5X1X9X5X0X5X0XiX0XyXyXyXyXuX>X3X X.X.X{.Q.Q.s.P.).[.K.K.R.K.R.K.A.f l l h f a a s i i i s l l h l g z R D.D.D.R D.D.J.#.=.*.U.^.Q./.s././..XM. X3X>X>X5X5X1X>XaXaXhX,X|.b.b.x.z.XX,XrX,XNX@Xx.|.oX|.|.M.:X1X8X8X2XV.N.=X9X1XiX5X2X:X9X1X=X:X<X1XNXpXmXNXnXaXyX5X.XXX.X-X>X.X.X=XXX:X>XoX}.$X$X~.$X6X5X$X$XOX6X6X}.[.^.(.^.S.D.}.[.I.R W Y l l H.=.k.~.J.!.OXH.W D.[.R.j V +X>Xb._.u.{..XU.T.^.P.^.}.{.>.P.T.Q.oXiX0X>X=X>X=X=X1X=X=X:X1X,XyXrXuXpXuXyX1X=X<X9X8X8X2XyXyX2X2X5X1X8X9X3X",
"MXuX1X.XN.1Xq.C / q.N.V.C.B.v.@X5X2X1XMXiXiXuXpX0XyX5XaXiXaXaXnXaXBXuXhXuX3XqX4X3X/.}.OX).OX[.T.K.K.K.F.R D.A.G.F.F.x A.A.A.F.G.Z.Z.Z.F.F.x x F.D.D.D.D.R D.F.P.#.,.Q.(.OX}.}.+X+XoX5X3X3XuXhXBXBXNXiXNXBXBXCXNXgXhXyXyXhXMXSXSXgXAXAX#X#XhX0XuXiXyX9XiXbXiXaXyX8X8X1X5XaXiX8X5X1X9X8X8X8XhXuXuXnXnXuXpXNX4X5X0XuXgXgX6X0X5XiXuX6X4XqX*X).,.3X:XOX$X[.+X$X+X[.).].(.{ { }.OXR.A.F.D.F.A.L.^.oX/.L.^.+XK.W j U j 4 #.qX6X>X4X$X3X6X&X%X(.T.OX+X>X5XOX[.OX3XZXnXgXhXaXaXpXgXBXBXhXuXVXhXhXbXpXyX0XBXiX0XhXtX8X<X:X1X1X5XXXd.2X5XuX",
"b.v.-.` t.O.0 n ` h.v.O.d.t.w.n.yX>Xd.q.b.j.j.N.h.h.j.N.8XbXiXyX<X<Xv.XXd.a.d.y.a.y.u.s.P.=.W I T U [ H k l l z l a s a i s s a s s i i i u 9 6 e y d j i a k P L V L &.Q | o.+.y.X.O.O.6.9.0.d.j.v.d.N.V.<X2X1Xn.N.V.<XM.:Xn.x.n.q.q.XXd.z.x.9.j.v.t.r.e.j.r.b.d.j.t.O.9.t.w.` ) 9.0.^ ) e.XXN.j.t.e.b.b.v.b.d.b.b.a.6.d.t.e.e.d./.,.,.U.&.p.i.<.,.P.u.u.].Q.Q.s.$.U j o.&.k a k k l s U ] *.@.H ] o.j i e a a d #.}.s.0.y.*.e.0.[ E @.T.~.y.k.M.u.u.,.+.w.j.2.d.M.c.h.=X>X-X#X4X4Xf.9.e.9.) D O.=XXXXX2X2X:X:XV.d.9.d.-X=XXXv.",
"b.M.d.0.0.O.C ` b.2Xt.0.O.0.j.M.b.v.v.q.t.v.v.r.j.m.M.m.V.V.j.V.=Xr.d.f.f.a.0.a.a.{.u.8.Q.U.@.E T W E T R Y l z a 9 i 9 i s i i i i s i a s i l U T U T k f U I P Q P $.| =.&.&.+.+.0.5.0.j.a.9.9.=X1Xv.h.V.2X2X|.n.8X2XN.v.z.|.1Xv.i.d.>X .|.d.r.9.9.9.e.9.` O.O.e.9.e.9.9.1.` d.j.0.9.^ ) 2.h.0X1XXXb.0.b.k.f.d.j.k.d.t.j.h.d.0.+.$.<.,.(.oX|.].Q.!.].}.].$.=.f.$.k j o.Q f a s l f h D.[ ,.#.H I o.q i e k j d #.u.X.0.s.s.j.n.%.[ I G | y.f.j.s.=.Q.5.5.i.d.j.XXXX|.M.M.|.@X|.'.x.i.b.q.e.e.w.w.yX1X9.) r.h.9.` ` 0.t.v.t.e.",
"N.t.e.d.d.t.5.b.M.j.5.d.` 9.t.v.0.b.0.v.t.d.m.d.>XM.h.j.v.d.d.M.M.b.d.+.q.s.{._.{..X/.~.=.=.{ { U U W { W W l z k w s s h a i i 9 i a i s a i i d H k E H d d E T ] #.=.$.&.} $.y.y.y.+.d.k.b.j.M.r.O.t.9.r.B.M.d.d.yXN.m.N.#X5XN.>X|.q.i.n.5.N.h.t.0.t.h.r.0.9.t.t.0.0.9.9.r.r.5.d.d.0.O.O.w.5.a.iXM./ 1XuXb.f.b.M.b.b.b.j.d.v.d.>.>.u.*.u.b.b.].=.U.~.{.8.$.$.s.%.l U =.*.l a f h s f W %.*.[ T $.+.H f a f T z T =.u.{.}.s.m.:X] G E j I *.0.e.| *.[.u.d.p.d.<XM.N.v.=X.X.Xb.XX|.N.v.v.e.w.9.0.2.9./ S ^ S ` 2.` t.9.5.O.` j.",
"5.e.e.t.N.w.` t.j.` r.m.h.r.w.t.v.v.e.j.t.v.t.v.=Xj.d.b.e.d.a.j.d.0.O./ 2.+.a.f.f.s.a.*.J.P.P.W l k T E U Y Y z l h l l l s i 9 u u u a i 9 9 i a y d H k d e I H [ #.=.#.u.$.u.a.6.+.0.d.d.XXb.MX) N aX:X:XV.v.M.hXuX2X=X#X#Xb.n.=XXXx.O.j.9.t.N.j.M.N.m.r.t.5.e.d.0.e.d.t.r.j.e.5.9.w.h.e.0.a.5.h.M a.BXf.s.y.i.j.d.d.b.j.b.v.i.a.y.y.P o.b.=X/.$.$.s.f.f.u.*./.L.k z P.,.U g f l h f W &.*.{ U E | W z U R U k { (.].{.{./.n.|.q 0 ).T $.=.a.j.*.$.u.~.p.} 0.=XN.V.<X<X2X>XN.<X@Xz.v.d.XXN.e.0.9.9.5.9.2.2.9.5.2.` 9.w.w.t.j.",
"e.d.d.t.e.w.( S r.N.m.m.m.h.r.j.XXj.j.N.r.e.0.XXM.d.v.b.d.0.5.a.j./ | ' :.*.' *.s.s.y.&.#.#.=.E U j j y H l U l f g f a i i 9 3 9 i 9 a a i a s f d a G f e d E H I ] *.@.,.$.*.a.0.0.a.y.k.b.5.XXO.b.uX0.t.O.e.m.5XO.d.N.x.i.b.>XM.w.w.e.9.MX9.j.<Xm.m.v.9.w.e.9.9.e.e.t.w.w.t.0.e.w./ X.O.0.O.9.0.j.MXhX>.~.<.p.x.|.b.d.n.XXx.q.9.0.y.| 8.d.j.f.$.&.s.k.a.y.y.~.~.T k @.%.Y g f s a f D.] *.I k W I H l U U f f T P o.o.| $.:.y.[ R.R.y L L o.5.+.$.&.*. . .e.=X9X2X2X5X1X1X2XiX#X'.=X=Xn.t.9.9.v.m.v.d.h.h.t.0.2.( 5.v.m.d.d.",
"b.j.j.0./ / ` O.j.e.v.h.m.t.t.V.h.m.m.V.=Xb.N.8XXXN.=XM.j.d.0.+.O.' } a.9./ 6.| f.a.u.,.{ P.=.P.U d y j j W f i f s i w i 9 5 9 i i i i w u i a f k f U j d d &.I | | $.$.P | *.+.} 5.+.f.k.XXd.2.j.uXXXt.0.N.N.iXx.q.0.0.q.q.v.N.M.h.t.v.d.v.w.) M.m.M.v.d.e.e.j.0.t.t.r.e.j.M.0.9.5.q.5.9.0.q.a.O.0.O.>.u.~.a.d.n.b.d.q.d.d.i.q.9.X.} L $.O.t.y.+.| $.y.a.y.u.*.*.E H *.*.W f g g h g W =.u.{ U E =.W z D.D.W W #.$.*...$.$.p.f.%.E H j V F X.0.*.$.,.,.~.'.XXXX8XhXrX#Xx.>XuXyXn.|.N.b.b.b.r.r.v.9.5.2.) 9.w.w.h.m.v.9.w.XX1X",
"iXhXpXyXpX.XN.M.hX2XyXaXaXyXiXbXyXyXnXiXMXVXSXNXNXhXgXgXhXuX3X$XiX6X{.yX4X5X9X*XsXgXjXsXR.%XOX*X%XA.H.K.R.R.D.A.G.F.x l Z.Z.x A.S.l Z.f s z G.I.I.G.S.K.K.K.F.[.[.OXOX[.*XOXOX4X6X3X3X3XgX6XaXNX9X2XZXSXSXSXHXSXMXMXhXuX,X,X0XyX8XyXyXuXpXaX2XN.XXCXMXyXiXyXyX5X0X2X1X2X0X2X5X0X9X2X>X5X2X2XXXd.XXXX5X6XrXqXqX6XuX0X0XiXuXuXrXyXiXuX3XOX).$X4XyX6X+X[.*X$X3X3X+Xs./.[.K.4X*XE.G.R.R.I.Z.).OXOXT.I.).*XR.I.%X%X%X%X[.*XqXsX*X*XgX6X).T.K.I.).}.oX=Xf.~.$XOXqX4X>X5X9XhXkXgXgXgXNXaXaXgX4X>X0X5X2X2X:X>X2X:XM.V.m.:X:X2XbXpX2XMXNX",
"8XN..X:XN.d.j.<XyXN.<X:X2X2XbXiX2X:Xv.N.uX3X:XbXBXbXaXuXhXhXgXgXtX0X.Xj.{.XXM.s.'.-X4X*X%X*X[.[.T.F.R.I.U W I.S.A.x A.l f z l l l g l l h g A.R.I.S.A.{ H.H.K.!.^.OX*X%X*XqX$X4X0X3X3X3X4X3X6XyXhXN.9.=X<X1X5XbXhXNX5XhXgX5X<XtX9X2X:X2X9XN.:Xb.e.V.ZXaXbXiX5X>XiXiX1X>XyX2XiXyXaX0X5XuX5XuXuXhXNXuX5XhXhX6X4X5X2X:XXXM.M.N.|.N.N.=X+XOXU.=. X.Xa.o.U.*XsX+X/.8. XOXR.R.qXsXW.G.R.F.A.z %.Q.}.T.F.K.!.D.A.G.F.K.K.^.(.}._./.}.oX/.#.#.K K H I 6.t.7.I P +.y.'.+Xb.3XrX,X#X$X$X#X:X2XrXx.x.@XM.v.e.w.r.e.d.d.v.m.v.b.=XN.1X1X1X1X",
"5.O.O.0.O.` q.j.h.j.w.t.w.r.m.h.v.9.9.r.-.-.3.r.j.m.h.M.V.j.` 9.t.9.} 0.O.X.5.O.>.y.X.| E I [ I j w j j 7 D.W w 6 i s s a f a a f s h f i w k k k l k H H H T I | } @.$.| $.y.y.a.a.a.6.0.0.e.j.j.v.h.2.( :XM.v.b.XXj.x.i.t.r.e.t.9.9.9.t.5.2.e.t.` :Xt.j.q.e.e.j.9.O.O.9.9.0.d.t.t.d.O.9.q.-.i.q.5.v.v.XXf.a.d.x.x.b.m.t.t.e.t.9.0.a.%.J Q oXoX(.%.K =.f.&.&.} $.[ K H ,.~.D.l l f s a | +.+.I j U W U f f H j I $.$.y.7.*.*.f.>.E K K j d K / 9.6.P ] *.>.' ..;.;... .....>.'.z.b.i.y.x.q. .-.t.q.e.5.9.e.9.t.) O.5.0.v.M.j.5.",
"5.5.O.5.9.V.|.i.v.j.w.e.e.j.h.j.h.d.t.1.:.0.w.r.m.M.d.9.d.e.e.d.t.a.' f.0.} X.5.*.$.+.*.@.[ K I G d H l D.K.d w a i 6 9 w i i w w p i a 9 i k a a a j U H j H K a.*.P Q o.$.| $.a.q.O.X.0.0.w.t.h.S M.M.b.9XM.v.h.N.>XM.j.h.r.h.w.9.^ b e.` 2.e.b.` t.M.j.e.0.6.5.O.O./ D ) O.9.q.9.O.O.-.9.` t.r.) e.N.M.6.} ..q.i.y.t.w.9.5.5.9.0.+.| I +..Xn.~.=.{ Q./...J @.| P e d $.+.K s i i i a ] >.>.I a f T f a a T E #.$.o.0.O.o.u.f.+.G H U d y ] O.2.} P | y. .>.' ...... . .' ' i.m.b.+. . ./  .` 5.O.t.t.e.t.9.j.9.5.0.^ r.O.0.0.",
"e.t.d.M.M.i.x.|.m.M.d.w.r.t.v.v.w.q.h.0.i.t.h.j.j.n.x.x.b.x.i.d.j.0.o.:.y.q.X.X.o.>.,.=.#.%.@.| T a j a j y w w a w 9 9 w 9 i w i i i a s s k a k f H k d G j K +.*.I | | @.P | >.a.a.0.e.0.e.j.w.m uXn.n.t.j.t.h.B.V.j.t.r.r.w.h.O._ t.-.O.9.9.t.j.q.j.M.j.q.0.9.O.0.O.9.O.9.9.e.0.:.q.0.w.r.r.9.b.XX:Xb.f.,.y.d.t.-.q.h.r.9.0.9.5.} ..] ^.d.b./.=.{ ,./.{.~.(.| P j j | +.H i s s a j ] Q.,.U s d H a i a U W I $.d.k.b./.*.b  .E j j j y P 5.9.P I X.+.} ] $.....>.p.i.O./ ` 0.>.q.9.O...0.9.9.5.` 9.e.e.r.h.9.2.O.^ 5.0.5.O.",
"i.0.h.v.d.p.i.d.r.M.e.9.h.b.:Xm.r.0.9...+.w.e.t.j.d.0.0.9.i.:.O.q.a.+.i.i.:.+.o.a.a.*.Q.#.&.&.| H w j e d f d w w w 9 w 9 6 5 w w i 9 i w i a i d d H d d G G G | | I | | ] o.*.y.i.a.a.d.e.r.r.h.1X9Xq.0.0.0.h.j.j.m.e.9.5.O.:.O.N ) ` ` 5.w.5.5.0.0.e.b.e.e.` O.O.0.O.-.O.9.-.O.0. .O.w.h.w.w.t.n.|.b.|.p.i.d.j.9.` -.9.w.e.5.2.) Z ' *.u.s.{.p.&.I =.s.u.=.!.P L H d | *.H w i i w d I $.| j w a d a i a I [ I $.d.b..Xu.o.M 4XD.j K j V Q +.O.] J Z D 5.+.| y...+.;.i.d.5.` O.:.e.5.O. .'  . .9.0.w.0.9.e.w.9.9.+.-.5.0.9.-.",
":.O.r.e.q.:.q.t.w.r.5.t.r.t.9.w.h.b.r.q.9.r.e.t.i.d.t.q.5.0.i.i.i.y.+.O.y.+.&.| +.O.M } +.P I I H w d e y y e w w 9 9 9 9 6 5 8 9 9 6 9 9 a w 9 a e d d j G G G P Q P Q P J } } 0.9.6.5.5.` w.9.5.5.) O.5.O.9.e.q.d.m.e.9.9. ._ / ` 9.2.9.9.` 2.` 9.t.O.d.:.9.O.-.` 5.O...O.O.5.O.9. .5.9.w.-.+.:. .z.d.y.<.0.0.a.t.0.t.-.w.e.e.w.0./ Z =.}. X{.p.,.=.Q.s.>.=.!.G I j d P | H i 9 i a f I [ ] j 8 e y 9 9 w G | | $.0.0.f.| } :.].G G G G J P | ..| L Z ) 9.9.+.:.-.q... .O.O.^ } O.) /  .` ` O.! ` ` 2.2.` ` 9.5.O.O.+.q.-.i.b.",
"j.>.v.h.|.z.XXXXb.O.) e.9.9.e.w.5.` 2./ M N N ^ /  .O.5.O.0Xd.q.q.+.a.q.d.|.u.u.k.k.y.*.=.=.Q.J.H.l U U { W U l l h s i i 9 i i w 9 s l f s f a d y j w V G j I $.8.8.*.,.=.&...O. .} C C / 5.j.v.N.N.b.v.m.V.=X.Xq.M.3.( w.d.q.:.t.9.0.j.j.t.r.t.5.q.5.9.q.q.q.z.j.q.:.:.i.b.v.j.v.d.d.h.r.b.|..X.XXXi.-.-.5./ / ` 9./  ./ ^ ) ` 9.0.} I )..XoX/.Q.I u./.{.(.@.| Q.W E =.u.{ s i a a j [ K V q 6 w j i w k T @.$./.XXM.3X,.*.j.:.I P I H { %.*.i...P M N O.0.` D / }  .i.5.a.t.q.+. .+.O.^ /  .O.t.d.5.9.9.e.v.v.j.m.i.n.v.m.m.",
"> ; = # & & & & ; ; : & # # = * @ @ # ; - @ @ = > & @ @ : , = & & @ & & 0 0 - - , , & & - % & % $ o $ $ $ $ o o o X X X X X o X X X o $ X X X . X X $ X $ $ $ $ $ @ @ + + $ $ X + + & & & : = # @ : , > : * * = : & : @ # : & & & # @ @ # = * # = # + > & @ O O O O + + + @ & = # # @ @ # # > > : , # : : = * + + + @ @ & @ # * * * # @ X X @ , 0 - % = > > & X + @ X X + @ $ X X . . . . . O X X X + o o $ % % % > , < 0 + & = > % % % $ % % - & % & & = * : = : , 0 > ; & : : & & + + + + @ % - # # + + # @ @ @ * @ @ b m : : ",
"2X5X9X9X,X3X8X<X8X>X1XyX<X<X<XiXuXbX8X#X5X2X:X=XM.n.b.d.a.d.d.N.5X5X5XXXk.a.p.,.a.a.*.,.U.@.&.%.k a d G k k f f s i i a f f f f z h h s s a w e a e e a G G I I J P P P } | $.&.6.O.+.0.a.a.q.t.d.d.v.v.t.j.m.XXXXXX#X.XV.9X5X>XV.M.v.v.N.N.M.XXb.t.b.|..XV.8X9X=X:X=XN.M.v.N.:X:X:XN.m.V.j.q.e.t.t.j.XXn.XX=XM.e.d.b.t.d..XV.j.h.0.+.,.!.#...i.NXOXU.+.b.-X+X| @.%.T K +.Q.D.f f f l E { %.=.U l W $.Y h R J.T.T.}.3X3Xa.&.$.d.y.{ %.%.%.H.%.a.m.d.s./..Xd.b.s.f.b.b.'.b.|.'.i.i.y.i.i.O.9. . .:.-.-.q.q.d.d.v.h.M.m.yXyXC.V.<X",
":X#X|.M.x.b.B.V.B.m.n.N.V.<X2X2X>XN.d.d.m.v.M.1X5XrXgX4X6XuX5X>X:X=Xf.a.a.O.+.+...y.Q.(.*X).[.T.D.Y Y W D.W Y A.z l l h l h g l f f s s f l l z l k f k E I =.#.@.P.(.^././.^./..X.X.X.XoX-X4X1X>X,X9X=XN.m.V.<X5XrXuXhXnXbXaX2X:X:X>X:X:X=XXX=XXX1XrXiXBXbX2X9X8XuXuX5X=XM.M.v.b.b.:X:X8X5X$XyX9X=Xb.iX9X5X+XoXv.d.j.d.i.r.h.v.j.k.f.~.T.U.}.O.+.OX$XqXVXBX4XU.=.^.K.K.+X$XH l x Z.x W W %.=.W x D.Q.D.A.F.R.[.%XOX;X-Xs.=.U.f.s.E T W [ [ [ +.g.0.6.y.d.q.+.y.y.j.d.p.i..Xb.n.n.x.v.0.d.b.i.>.O.O.-.9.5.0.9.-.i.x.b.=X9X:X8X<X",
"N.v.i.:.q.w.w.r.r.0.:.9.9.w.w.0.e.0.-.w.w.1.` O.-.O./ O.O.9.5.O.5.5.} +.O.+.+.+.+.$.] =.=.@.%.[ j d d d d G d w w w w w 6 5 5 w 9 9 9 w i e w w a w e d G G P I J J } ' P Z Z Z ) 5.5.5.d.5.0.O.0.t.9.` t.e.w.1.9.e.t.v.t.j.v.d.t.9.5.5.5.5.9.0.^ ^ ^ 2.5.O. .0.O.} O.-.9.2.) ) 2.` ) ` 9.-. .) 9.9.^ q.-. .} ' / ) O. .5.5.2.w.9.5.X.Z P I | +.Z t ] 3XXXF B V | | G j +.7.j S.a w i k G J V e w j I d w H K G K Q.y.0.s.&.] o.+.H K K G j [ Z 9.0.+.+.O.-./ Q o.0.2.9.5.O.+.9.1.1.2.( 3.w.e.:.O.` ^ ^ ^ ^ ( 1.) ( ` 9.m.w.B.V.",
"v.B.v.t.r.w.r.g.r.0.-.w.e.t.j.e.r.q.9.9.w.5.5.2.9.9./ 5.5.5.5.5.5.O.Z 5.o.| +.+.y.P $.@.] I [ E d d d a y d d 9 w w w i 8 9 9 a 9 9 i i a w w w w w d d V V L | K V P } P L P X.) } O.5.5.O.9.5.5.0.9.5.r.9.9.w.9.9.9.t.t.t.h.m.h.m.j.` 2.9.5.` / ) ( 2.9.0.-.i.9. .9.O.0.1.( ( 9.2.1.2.O.-.9.5.j.9.! -.y.O.} / / / } O.3.2.2.5.` F } ) Z L P } } V q } v./ B G #.[ j j X.X.T a q w a K K G G a a H | H s G G G V P s.a.u.P.&.*.$.E @.L P | @.} w.q.+.9.5.q.o.} +.e.2.r.r.+.0.w.5.5.9.r.2.w.w.9.3.9.) S ^ S ^ 2.w.r.3.` r.r.w.w.",
"` 9.h.r.w.2.3.r.w.3.9.-.w.e.e.t.i.i.a.9.h.h.3.9.9.O.5.O.0.6.+.9.O.} | O.0.+.y.y.y.>.,.&.$.{ U.%.k k j a d a a i w w e a s 9 f f s a w a a a w d j a k d G L B L G G Z Z ] ' o.} O./ 0.d.6.6.j.j.5.e.j.j.w.5.2.1.2.9.9.w.r.t.h.m.h.=Xt.` 5.9./ D ` 1.( 3.q.z.-.d.t.d.d.:.0.` ` ( ` ( 5.O.9.q.e.0.d.9.} -.s.6.X.2.9.;.+.5.9.9.5.w.0.y.} / F B X.5./ B Z } ! O.,.[ #.{ k G O.+.G w w i f K H G J f i H | j l G V G J P o.f.}.P.Q.y.+.{ $.+.| ] I | 9.0.q.d.d.d.0.+.s.f.0.r.j.d.h.r.9.2.` 9.5.2.2.5.2.2.9.2.` ` 2.2.` 5.m.j.t.w.w.5.",
"t.r.v.t.r.w.w.w.w.3.O.:.r.r.t.d.d.e.9.9.t.9.` ` 5.5.0.) ) 0.X.O.5.o.o.6.6.+.+.*...p.U.| ,.%.$.U.{ W k s k k e 6 4 8 q d 8 8 w i a s i a a w w q e w j d H G I J V I |  .| } +.o./ / a.j.a.a.t.t.w.9.r.t.w.5.` ^ ^ ` r.r.t.t.m.m.j.:Xw.5.9.2.S ^ S A 1.r.:.q.e.v.e.j.q.q.t.9./ / ) ` 9.9.9.O.e.9.q.t.q.-.d.6.} ( 2.O.+.9.t.9.9.0.{...} +./ V / ( / B n ) t.m.*.I &.&.H E :.q.I a a a d I H T H d w K u.E a y y r B Z +.f.}.=.=.*.$.K I | [ K @.+.r.d.a.k.b.i.0.+.f.d.e.v.N.h.h.d.t.3.^ 2.r.2.9.h.9.e.v.9.2.2.S ( ` ( ` M.d.e.N.v.",
"M.0.v.w.2.~ w.h.2.1._ ` -.0.e.e.h.w.w.3.( ( 2.O.O.) ) ^ ^ O.} ) D X.O.X.F F V B Z ..%.*.*.%.$.| J.D.U f d d l i w 8 q 5 4 w 8 9 i s s i 5 9 f a a a y w y L V y r V Z } B c 0 B n M S / 5.f.r.d.j.) D d.^ ~ ^ N 2.` ( ( r.v.q.v.N.V.2.N ( 1.` _ ` 2.( ` ` t.0.0.M.b.5.9.9.9.( ) ` ) 5.9.9.O.w.e.e.0.-./ C D O.5.9.O.F ^ 5.d.0.9.0.o.| B B $.'.j.0.+.} S 3.h.} | $.&.K [ :. .I q 8 w e G H U T f i [ $.q 8 d j K &.&.X.} *.$.!.u.| K @.=.[ j L O.w.w.e.d.|.x.a.y.{.b.b.j.h.3.1.) ^ ` 9.w.r.5.9.w.g.` 2.^ ` N.M.d.x.r.` S t.b.v.m.",
"N.z.r.( N.6XgXNXhXgX$Xq.S ( r.r.r.h.r.1.h.#X4XsXgX6X4X9.^ ^ a.t.( 6.0.9.M v } | &.Q.| B } T.u.,.K.K.l w { I.%XI.S.A.A.8 3 4 9 8 9 s 5 8 A.I.I.E.G.G.K.k V r J J J V B M v o.&.u.[.,.O.) D +.2.r.h.9.) N X.6X1X3XrX4X5Xh.~ w.m.j.v.N.( ) {.gXlXsX4XNX4Xl.` ( q.j.v.M.b.e.5.) d.w.e.( ( ^ ` 0.t.d.t.q. .-.*XjXkXhXkXsX$X+.N ` a.O.6.X.B $.).%XsX4XsX*X[.b.~ A o.I &.| G B ` q.U.R f a w r d H H a a @.B U Z.R.R.&X&X*XqX XB V %.u.&.E %.| V [ =.y.h.0./ 9.f.b.p.p..Xb.t.2.2.e.j.q.9.5.2.2.w.5.O.9.r.( ( N.NXVXgX6XkXkX4Xt.( ^ v.m.",
"r.h.2.2XHXSXHXZXNXlXfXsX>X1.S r.w.e.1.M.kXlXfXjXSXVXjX6XXXS N ) 5.X.) S 0.%.*XdXdXjX*XJ.c Z =.[ y d f A.E.&XwX&XW.&XW.G.f 3 3 a s s u I.vXvXeXeX&XW.&XR.{ r r | P B 0 Z Q.qXsX*XdXqXqX3XF M t.w.2.3.1.oXjXKXSXBXmXNXCXiXm.m ( w.) S 5.kXjXHXAXfXVXSX4X X X~ S t.0.v.5.5.O.X.yX>XNXhX>X9.m _ a.i.i._ 0.lXGXHXVXSXDXDX$X}.f.m O.d.9./ T.&XeXxXlXlXsXwX*X3XXXS , V V V r V 6XjX&XE.F.S.R V q q H a w r =.W.wX&XW.dXdXGXjX4X}.r G u.} I V G *XxXeXjXZX6Xp.+.M +.p.*.a.d.) 3.gXjXVXsXsX].M.~ 2 w.e.h.9.S :XkXAXKXSXVXVXsXgXhXN.^ ` h.",
"M.r.r.kXLXUXLXDXSXzXGXAX9XV.A ( w.A 9.NXAXGXGXVXVXjXhXhXoX0., D ^ / S d.gXvXJXGXfXjXdX[.P.v Q $.j q A.wXGXGXJXxX&XdXW.R.G.h 3 9 u 5 x E.FXJXJXxXeXdX&XI.{ I 0 r P r v Q.*XdXwXeXfXVX6XoXa.b S w.w.^ >XVXFXHXHXNXSXKXSXuXN.2.2 h.1.2.6XsXGXIXLXlXlXAX5Xb.<.9.< ` 5.e.S #X$XgXIXsXkXhXBXyX9.m r.t.9.9.lXKXKXUXKXSXKXSXsXOX X) m O.C >.eXGXGXJXGXVXVXlXdX4X=Xh.0 r P V r [.xXGXzX&XG.S.F.T.H 7 j w 6 [ dXxXGXvXvXvXJXJXdX$XOX@.r Q.$.V G *XHXGXcXGXZXVXfXsXO.b f.s.6.0.) 6XVXKXHXsXlXlX6Xm.A 2 5.( 1.m.NXlXGXIXKXAXAXSXlXsX3Xd.D t.",
"w., ) IXAXIXIXCXkXKXJXqXM.h.2.m 9.( 4XlXAXJXGXkXkXVXVX4Xa.e.M A 2.^ ) sXGXGXJXFXjXFXdXT.U.V 0 $.d q F.eXGXJXJXvX&XdX%XI.x l 5 3 i i &XdXvXJXGXeX&XeXR.A.G G r 0 G r U.*XJXJXJX*XfXHXoX0.s.M m w.1.( gXVXjXAXAXhXnXZXuX=Xh.1.2 2.S XXkXjXKXIXIXVXJXJX3Xj.0.O.2 ` ) ` 9.VXjXUXUXkXrXVXGX$Xb.m ~ h.1.1XPXKXIXIXSXkXAXNXqX[.f./ < ` C OXxXvXJXLXHXNXZXFX$X.Xv.{.b v P V E xXGXKXLXwXI.W.W.[.W q 0 e 8 T.dXdXvXFXvXwXdXFXsX].^.[ 0 | Q.y K.xXGXJXeXfXSXkXqXoXb.m O.a.6.) b.VXVXHXHXNXSXVX>Xn.w.2 ( ( ~ N.gXgXGXJXHXrXNXSX4Xf.i.|.A S ",
"r.< M.UXIXLXLXSXBXKXGX|.r.3.S < 5.N |.VXAXHXAXkXgXgXjX4X.X0.< A ` D ) *XGXJXLX*XdXGX&XK.=.V 0 I H y Y vXJXGXJXeX%XxX%XA.a w 3 3 9 8 F.vXPXGXvXwX&XvXxXI.T r & - j r ^.wXvXcXJXOX[.sX+XoX6.> S 5.^ w.6XVXHXKXLXhXhXVXgX3Xj.A 1 2.m 9.4XVXIXIXIXfXlXHX>Xb.1X2 < w.) ^ e.VXJXJXGXkXgXVX$Xf.t.A 2 h.1.9XLXSXLXIXHXkXSXlX*X*X}., < 9.! $.eXvXGXGXJXNXVXsX[.k.d./ = r G V G dXLXLXHXW.I.W.G.P.K r 0 d q Q.jXvXGXJXvXdXHXJXvX*X[.B 0 +.,.y I.eXvXLXcX&XKXGXsX0.O.A 5.d.0.0.b.hXVXIXLXBXSXZX5XN.2.1 ~ w.S ( 6XIXLXLXKXNXAXAXlX$Xx.` 2 2.",
"w.3.oXSX>Xt.XXDXnXnX3X5X6Xm.1 m ` N ` AXx.b.+XVXkX$Xo.+./.6.* S ( ` c /.lXOXOXvXdXdX).F.).: B $.T d l &XS.A.R.xXwXE.s i G.g $ q a 4 g &XG.Z.W.vXxXeXG.A.A.y + r q r =.eXfX).sXjX%X/ c M X.: S 5.S m =XHXgX.XSXNXSX].D X.6XS 2 r.1.2.HXLXkX.XHXJXVX+.m S a.e.< / ` 9.2.NX$Xq.4XHXHXkXsX$X2.1 1.m.r.2.VXHXkX6XSXkXlX^.P &.~.M c -.} n fXwX(./.HXGXlXP.I %.*X/ > H H V G *X}. XjXeX&XE.F.R.R 7 0 H G P GXdXF.F.GXGXGX[.].T.&Xv r $.$.d d eXK.%XGXGXHX$X].b.D m d.6.0.j.1.NX1X5XZXSXZX4X+X0X~ 1 w.e.9.2.KXhXoX6XKXHXHXs.~.OXsXA D w.",
"j.2.1XA A 1 A NXNX4.2 A a.XX2 2.O.^ #X_ 2 < S hXsXM < S ^ 0.2 ) 5.X.O.f.2 m c *X*Xc 0 0 Z B N $.T k I.7 3 7 d vX&X4 $ % i i $ e f 5 z $ 3 3 8 eXW.8 % 3 0 j - V r r B T.0 , C lXOX< * , b $.m 0.X.S XX2.< < ` SXoX2 1 2 m v.m w.h.S gX_.S D t.HX$X< < m 1 2XS ( t.t.#Xq.* < w.VXqXD } {.j.2 M.m.b.) VX+XF N f.lX].< 2 M < +XM +.} =.R.> , < d.GX[., > M S q.c K E G ).n 2 1 } eXS.5 e #.Y % G H K *.~.q 3 3 F.GXOXN m C B P.r 8.Q.T W H - 0 { FX$X2 M o.$XD o.O.d.5.5X1.1 < t.SXQ.m X.b.1.1 g.w.1.iXw.1 2 A yXSXs.2 2 / q.( ( b.",
"e.j.SX( ^ 1 w.KXKX2.* * : <X2.3.e.e.lX< 2 < ^ VXkXD * < 2 s.D N 0./ 3X3X: < C GX%Xv * 0 } ).B $.H l E.3 0 7 U vX&X3 X % 3 z 5 a a l R.3 3 $ s xXG.% . - , W y r #.L !.0 * # 0 lX$X( * < 6.VXm / O.w.0X1 1 < ~ SXrXA * 1 2 ,X~ 2.e.e.N.* < 1 w.JXsX( , 2 ( jXn.m w.r.FX0.1 S sXKXqX< < 2 h.w.=Xb.d.N.3X< < , 9.GXlX< O < m $XC B C ~.V # = , ~.fX X0 @ < m #XN G G G &Xn m 2 [.wXz $ + c H q G d y [.Z % $ % A.FXqXS , M B %Xr s.}.Q &X0 - - K.dXoX1 * D 4XC } <.a.^ VXA 2 m >XSXs.: < 2 j.A h.c.w.kX~ 2 m 1.VXkX0.* 1 A ~ n.S n.",
"5.|.PXjX1XkXVX3.2.9X2.2 1.SX~ 1.` i.JX0.9..XFXj.M +Xa.2.5.sX+.m 5.C 6XKX{.+XJXu.P *X(.u.!.).c | d z eXI.I.I.dXi f S.8 9 9 I.5 5 6 x dXx A.R.%Xl z A.e y B I.G y #.V T.$.n I dXy., {.oXoXLXdX1 ( q.w.SXS 2.M.VXj.A 5X5X=XgXNXS A 5.t.nXA ( j.HXoX^ 4X$X$XsXfXu.A 9.2.ZXKXVXHXCX( 5XNXh.` hXt.e.oXN.0XNXm O.6.FXs.5.! B  X4XqXM 0 C +X/.B | ~.*XM 6.[.P / O.gXZ v V [ vXdXgXGX=.3 z a % | R 4 r y y %X[.q w z I.V s.aXj.f.}.vXI D / Z xXI.R.&X%XB b.gXb.>XgXM } ..O.5.IXSXhXsXk.S f.3X) r.kXA 3.r.r.IXCXB.NXNXj.S 1XXX( ( 9.5XS 0.",
"5.9.lXNXVXLXhXA 2.5XiXBXLXKX2 ~ ` 0.JXJXHXHXVX2 D 0.sX1XNXVXN m r.D f.zXVXKXjXF Q $X*XqXdXB < P y f eXxXdXW.R 3 5 Z.A.F.dXG.3 5 8 z xXvXdXvXx 7 8 S.R.R.lX%X0 0 I r &XJXGXxXVXb n O.4Xk./.G 1 1.( r.VXAXjXKXgX2 S b.4XoXNXoX1 S 9.t.KXSXVXFXVX2 ~ j.+Xf.gXsXD S O.` 3XVXSXIX3X` z.sXgXHXVXA ` b.9.XXUXgXJXKXgXm ^ 6.*XhXsXu., c C OXJXGXlXGX..M D *X%X4XSX6Xb 0 J V ).*XkXHXv 4 6 R &XlXF.% 0 j d %XLXFXW.dXw 0 M CXkXqXGX%X0 ^ 6.B %XxXvXJX%.P m.sXoXkXOX< } 0.r.` NXSXKXLXt.0.p.*XsXKX$X2 h.h.w.SXLXSXKXSXA w.w.HXyXhXHX.XA 2.",
"d.^ 9.( d.AXCX5X=XyXS t.3Xu.< ~ 0.^ #X4X3XZXSX1XyX6X+Xk.}.~.< 1.j.f./ a.O.jXdXdXGXVXT.B D.0 B | G q T e W %XR.A.x S.6 i Z.z % 9 i 8 F.x I.GXI.D.A.R.s D.[.S.- G %.V | JX*X*XHXsXqX4Xa.< , 0 S w.9.^ hXVX6X6X4Xd.|.|.` S A A 1 2.` 3.AXHXkX3XVXv.>XgXgX) 2 < < ` 0.9.m S .XIXLXHXAX{.7.$XY.m e.j.j.w.VXgXgXkXkXd.3XgXSX}.c < < } B | gX[.&XcXOX+X|.lX=./.+Xu.: y I B B M 6XHXdXR.F.a y !.h $ w d d $.vXdX&XI.F.).4XSX].Q.^.K.0 d.k.C V j W vXFXvXAXd.D N M b >.+.a.0.1.( >XJXJXLXlXT.,.$XQ A v.v.1.>X=Xv.NXSXt.N.N.1X6.4X$XD 2 w.",
"j.w.( ~ e.IXIXIXKXuX2.1 S < m d.d.9.m N m VXSXIXHXhXj.2 2 2 S v.d.y./ / 5.sXGXPXJXI.V 0 r B P @.I r r 4 w &XeXFXeXG.i $ 4 3 3 i s 9 4 4 l eXGXPXxXR.z 7 V % 0 K V G 0 r > &.lXUXLXJXOXS c 7 D 5.q.^ 2 S < $XlXVXsXgXb.A < 1 A w.9.m ^ ` 2 3XNXHXHXSX3X5.2 S < b.e.e.D ( .XIXIXLXHX8.< S 2 9.b.j.e.^ 2.) < AXjXHXKXZX{.D c < C ' L c / : U.xXGXJXAX*X8.< A 2 c K @.P V Z 3XKXJX&XG.f - n % 4 f f a v L - z vXvXHXLXZX Xb P 0 V d.d.,.- 7 r dXGXJXVXy.m m < } s.X.6.O., ` .XPXUXJX&XJ.N 9.S N.q.-.0.S ~ 2 SXKXAXSXrX.X~ 1 ^ 2 ( v.",
"r.5.^ 2.v.LXKXHXsX.XX.1 ` 2 d.N..X#X9.d.) lXHXHXGXsX X2 S m h.v.b.y.a.} oXkXLXJX`.G.y B P } &.@.P y G d d &XvX&XG.Z.p $ 5 % f s s s 5 5 a xXPXGXE.A.s 4 E % y r r G B 0 Z v $XHXwX(.=.S X.v O.5.5.t.N D N gXjXqX6X4X0.: m m ` ` 9.9.2 ( m rXAXLXHXsX$XS S S S v.t.e.2.0X1XAXLXVX*X$.2 ( m O.0.9.e.d.S 9.< dXSXVXkX4X].F N D / O.$.V Z F Q.KXIXJXjXOX=.< 2.m +.T [ P I /.5XHXdXG.A.z 0 Z 4 a k f f K r j s vXvXJXLXVXgXb V 0 *.a.d.V % q L.dX%XT.Q.&.2 ( M *.y.0.XXC b {.gXIXJXvXfXY.^ 0.^ v.e.t.|.9.m.~ NXSXHXHX6XoX2 1 ( A e.h.",
"w.^ ^ jXoXHXGXjX].U.M ( ` ^ j.t.w.v.9.|.x.sXgXsXqXOX8.2 0.N d.9.k.j.a.6.GXHXVXlX%XG.K (.F B y.+.,.d H R.R E.%XS.A.g 3 3 6 4 9 9 i i w Z.l vXdXI.G.F.4 4 K q T [ E J L v (.Q.jXqX=.| B M u.0 N O.M.d.9.0.b.b.kXVX4X}.+.2 d.S ` t.r.w.2.` q.i.VXHXjX$X$XX.m.m.S h.t.v.t.KXUXDXVXqXsX&.m.e.~ w.r.d.t.M.e.XX0..XUXmX6X X8.< a./ B } @.I Z u.y.VXHXvX&X[.E b r.~ u.K I L [ vXVXkX&XG.Z.w K Q e a l f f E P #.k dXwXvXvXkX+Xn Q.v o.r.XXP 4 lXPXGXI.W ).u.r. XM {.y.f.b.C C IXUXLXsX&X[.,.$Xd.^ e.j.t.x.9.5XN.hXSXuX;XOXf.1 2.S 1.2.1.",
"9.) / lXvXlX$X/.a./ / '.m 2.0.d.r.0.` sXJXlX4X}.}./.5.h.XX2 w.d.0.d._.6.gXLXJX}.).E.T.=.c X.~.7.(.T I &XW.R.W.l w 5 4 z 8 3 s i p i a dXdX%XF.z x x w l K q T I G V B B ^.GXsX].Q O.*.} B = C C / M.) 6.GXkXNX3Xa.{.6.w.XXm 2.v.t.9.( ( JXyXZXVXsXsX].w.yX1.~ 9.e.m.h.h.KXIX6XM.$X+.7.2 D e.d.j.w.w.5.e.HXgXAXoXa.a.X.C s.c M } I I } dX(.4X6X&X[.=.V 6.XX2 *.I I I v }.KXVX$.z h a W < y i a g h U L FXI.W.%X%X%XqXo.o.[.0 o.h.XXI D.R.LXvXR.G }.5.O.M M m.f.s.a.6.0.>XIXUXsX XeX[.=.m d.M.N.0.|./ sXFXSXMX=X5.'.>.2 :X2 ( v.w.",
"e.9.~ O.AXVX|.9.>X_.s.O.< 2.q.t.d.j.w.9.AXJXlXx.b.5Xf.+.1 m 0.d.O.q.0.d.^ 4XAX&.).I.@.c | $.$.| %.S.V U %XFXW.f h s h g % 9 s s f h 5 D.dXdXR.k A.G.R S.7 y T #.[ #.] ] n P.*XqX8.f.=.c : v } O.} 5.D D hXHXjX6Xj.6XoX+.2 A 5.e.d.v.c.2.BXKXZXhX{.$XsX}.&.< r.M.M.N.=Xw.w.uX{.j.a.D 1 ~ w.e.0.e.t.w.w.3.DXJX~.y.) m.s.| < * C / P ' B [.dXqX{.$.].[.@.Q.m 2 Q K I P V b b.4XP.A.x s - b j a f a i l G ).GXdXE.K.Q.6Xa.=.0 0 y.j.f.G H r q { { H }.,.A ~ y.d.a.a.0.d.oX` 9.+X[.OX*XI 2 ` .XN.N.n.z.C d.HXJXBX3.~ XXf.e.1.: ( r.9.",
"9.0.9.N 2.>Xd.b. X} F 1 ^ 9.5.t.5.q.q.S N gXfX<.a. XF , < / O.6.0.d.{.d.c , C , 0 0 B +.=.| I | @.S.T q j T.l s z i 4 o 3 a s g f h s 4 l %XG.S.R.%XZ.7 0 H K [ [ I ] P B > v Z b < , < / | O.6./ 9.d.` m 0.sX}.) s.s.m 2 t.e.w.9.t.m.r.( f.lXsXOX].].7.1 ` b.d.n.M.:X1X3.A m m m 2 ( t.9.w.r.9.t.v.v.w.m k.' :.+XsX} c : C Z C P I Z C (.$X X+.sX*XR.V < 5.s.@.| &.$.9.S A 0 4 3 3 r u.T s k a i k I r D.wX%XR.).4Xu.n 0 @.y.b.f.%.E { 0 0 0 - 2 2 ( N.i.p.s.y.0.0..Xb.^ ) m b m N :.i.i.d.v.v.-.9.^ d.4XXXr.:XgXf.A , m 9.( 9.",
"5.e.0.d.2.^ 2 2 S < m e.b.M.j.n.v.t.t.t.` S ` 2 m m < m / +.-. .-.:.f.C 0 v Z } V G =.&.&.u.@.#.#.T I K 3 0 % % % X $ 3 w u 9 i 9 i 9 w 3 4 3 $ 4 4 3 q H K G J G G P P P r 0 , , c c N / F O./ C O.O.5.N < m < * < < A t.k.t.j.e.9.e.b.M : ( S < < < 1 ( x.x.z.d.d.b.2.` w.3.2.( ` 9.h.t.h.h.j.j.w.m.d.S S < O.>.S = = B } Q Z L P Z n c B / m M I , 0 ) d.y.I I $.| d.< ( &.4 5 e E y.T s f s s U [ Q q q f q B S < c | %.*.b.{.%.{ E G I y y ^ 2.j.e.e.d.~.s.f.d.k.v.d.d.q.O.) n.b.q.-.i.i.b.x.d.9.N ~ 1.A A S 2 , S d.j.v.t.",
"m.v.j..Xq.) ` ( S r.B.d.v.b.M.b.v.b.b.z.v. .^ ` ` N -.i.e.d.9.0.q.f.f.' C | *XdX[ H.u.=.P.=.P.#.T R P.q 4 y 4 7 3 3 q w i s i 9 i i 5 i s 4 4 4 3 7 w j H j G L d K V B $.V F V Z F / / X.P 6.F / X.O.5.) ` m m ` ` ^ j.N.N.j.t.v.v.t.x.q.6Xb.m N N S h.M.x.v.M.z.|.:.B ` 2Xh.h.h.0.t.r.r.h.M.m.m.h.=X0.r.r.w.w.w.m / } +.0.y.s.} Q P Z B n , < , c B L s.d.$.G E @.@.0.( <X$.j d j K +.K a k f i Y #.=.H e 4 0 c m ^ y.=.@.Q.XX{.J.E [ [ @.K H a.j.t.d.t.d.f.,.>.s.d.j.h.v.d.O.y.i.x.b.a.i.x.i.z.-.0.|.w.A 2 < 1 A S i.x.x.j.w.",
"` C q.q.0.0.h.e.q.M.:Xh.0.e.d.v.N.M.N.i.i.q.q.i.0.q.q.q.5.d.5.e.q.f.f.'.>.}.+XjX] [ ,.Q.%.] $.@.#.D.P.j W R.a a w w e w i i i 9 s l 9 s x a k j i k k l d G K Q.K [ 0 P $.Z Z P } F Z Z Z V / / 5.) 0.d.t.` ) ) 5.e.j.N.t.h.1Xb.j.V.v.z.n.XX0.0.d.j.h.M.v.z.z.b.m.XX:.-.5XhXj.h.v.t.v.M.j.h.h.j.m.M.d.w.h.j.w.9.` / +.y.O.O.} / P L +.} V B C M B Z | @.y.6.} H H I I 0.N.m.P d j k k >.H f k s s W $.=.T l k T Q 9.t.y.=.=.(.N.b.#.{ #.#.$.| G X.9.t.e.q.q.y.+.u.u.b.m.e.N.M.d.-.+.b.i.0.i.:.;.b.x.-.i.O.` 1.w.2.3.) q.0.` 2.r.",
"n M 5Xj.9.w.9.9.5.n.M.m.j.t.0.0.q.j.N.x.a.:.-.d.t.` t.v.e.r.w.w.e.0.a.f.0.+X4Xf.$.&.,.y.| @.] P H W %.{ F.T a d w w a w i i i s s f g z i 6 w a w d d d k { %.I j G $.).} L Z Z Z F Z X.X.Z / M / / ) ) O.9.9.` ` 5.b.e.e.t.v.v.t.N.N.b.i.:.a.d.w.r.t.r.h.d.d.v.m.m.N.,XuX:Xw.t.0.e.e.v.j.v.m.h.w.t.9.r.h.w.h.w.e./ B Z O.} C C Z Z Z B v t B D C V ] @.*.+.| H H P @.6.e.5.&.f a f H +.K f f s s k E $.H d f H o.9.9.+.%.#.u.=X=X@.E %.%.@.K I 6.5.t.5.e.d.y.y.6.u.x.m.v.M.v.d.b.i.x.9.9.z.i.x.|.b.i.i.e.e.3.2.1.3.2.1.r.m.9.^ ",
"d.2X:Xq./ 5.9.5.O.e.m.5.5.t.d.q.9.9.O.O.q.q.-.i.b.t.r.5.` 5.w.w.r.5.6.O.O.y.0.+.o.$.y.y.| @.] I #.U E H e d a d w i i 9 i s a a a i s s 9 9 w w a j a d H I P V y P V V | E +./ P o.Z O.C > / F / ^ ( O.5.2.9.2.2.2.e.` 9.t.t.t.j.v.XXn.i.i.q.e.q.q.i.t.e.q.q.j.v.v.M.m.:.9.r.e.0.e.e.9.0.t.j.h.v.t.r.j.h.r.r.t.d.a./ Z C 6.} / o.} } Z Z B ! D C Z G @.o.o.I j G J P O.O.9.+.d a a G e.I j d s s j I $.H d a T $.t.t.8.%.$.$..Xb.| | | $.@.K E e.w.e.e.r.t.a.6.0.>.+.5.w.h.v.v..Xd.t.e.d.d.` O.q.v.t.r.9.) 1.2.r.h.B.m.t.t.e.i.",
"b.M.b.e.r.5.0.d.t.d.=Xt.a.j.M.M.j.:Xe._ :.q.q.q.b.N.h.9.5.9.5.w.w.9.O.6.+.+.6.+.$.$.s.a.o.[ I K [ U E H l U f a i i a a a s i a i i 9 9 i i w a f l k d d H G G G | | P P o.6.X.Z Z ! +.0 0 k.d.} 5./ / 3.r.v.M.w.h.r.5.9.0.d.h.t.q.:.t.d.q.0.e.q.i.d.m.j.d.q.j.v.v.j.e.q.i.d.j.v.h.h.r.e.w.9.t.v.m.v.m.m.v.d.v.d.a.+.O.F X.a.a.+.} o.O.} | +.+.+.} G | s.y.*.E { #.=.a.d.h.+.j a f E b.@.H k h g Y { =.E l k E | O./ Z K G G O.a.I I | P P I | j.r.j.h.v.v.b.f.d.>.*.:.t.h.v.b.t.e.t.h.w.9.t.d.v.N.v.j.0.=X2Xm.v.r.v.t.t.i.i.i.",
"5./ O.O.9.0.O.^ M X.b.5./ / ) b..X:XN.z.q.q.d.t.t.m.w.e.t.t.j.h.h.q.0.0.6.9.5.O.&.$.a.d.*.=.T K G j K j k U k f s s s f g s i s a i i w 6 w w 8 5 4 4 q y H G G I | | | | / B n 0 > c B C o.d.F c C / O.j.h.9.e.t.h.w.` e.b.b.b.f.i.z.j.j.b.t.9.` _ ` D M B n b M M N D ( ` t.9.j.N.j.b.v.h.j.v.e.9.( ` D m N ^ 5.O.Z O.n 0 M / Z / ) F B v v v n v r r B } P y y V r D 5.n 0 3 3 4 % = r 4 4 4 9 l y P q 4 4 7 0 c M r r r r B F B V Z &.I I V ) D ^ ` / ^ D } O.>.p.i.d.x.i.t.r.v.v.t.j.h.r.5.^ ^ ` ` ` 9.( 9.r.w.v.t.q.-.O.O.",
"O O O + @ + O . + * M > @ + O : + @ : , b - & +   *     .     .     + . . + . O O O + . . .   . . X . X X . . . . . . X X . . . . . . .   . . .   . X . . X X . X $ + . X .   . + O . . & & .         & > @ O . . O @ O O & + + . O O O + = =       . O + + @ & & * : * O O O   + + . O + O O O .   @ # @ @ @ & = O O : O O O + . .   .   . . . . . + . + & . . . X $ O @ @ + $ o $ X # - X . . . 4 r B . . X $ $ = : % 7 % - 7 % @ + + & $ $ . . O + O O . . .   + & $ : - + + * = , # O @ @ O @ O & , < # O @ O O + + + . . X "
};
