/* XPM */
static char *wall4[] = {
/* columns rows colors chars-per-pixel */
"256 256 256 2 ",
"   c #1B0602",
".  c #150806",
"X  c #1C0A04",
"o  c #1C0D0B",
"O  c #15100E",
"+  c #1C110E",
"@  c #150E11",
"#  c #1C1413",
"$  c #191618",
"%  c #1D1C1B",
"&  c #230B04",
"*  c #2C0D05",
"=  c #230E0A",
"-  c #2A0C09",
";  c #350D05",
":  c #2C1207",
">  c #23120C",
",  c #2C130D",
"<  c #331106",
"1  c #32130C",
"2  c #3C1408",
"3  c #3B140C",
"4  c #2E0F11",
"5  c #231513",
"6  c #2C1513",
"7  c #241A15",
"8  c #2C1A15",
"9  c #2A1718",
"0  c #231D1C",
"q  c #2C1C1B",
"w  c #331513",
"e  c #3A1513",
"r  c #331B15",
"t  c #3C1A15",
"y  c #3C1619",
"u  c #331C1B",
"i  c #3B1D1B",
"p  c #2D2216",
"a  c #23201E",
"s  c #2C211D",
"d  c #352B15",
"f  c #362419",
"g  c #33231D",
"h  c #3C231C",
"j  c #3D281F",
"k  c #281E21",
"l  c #381E21",
"z  c #252222",
"x  c #2C2423",
"c  c #2A2729",
"v  c #2D2B2B",
"b  c #332522",
"n  c #3B2523",
"m  c #342925",
"M  c #3C2B25",
"N  c #392629",
"B  c #332D2C",
"V  c #3C2D2A",
"C  c #3E3026",
"Z  c #34302F",
"A  c #3D312D",
"S  c #2C2B30",
"D  c #352F30",
"F  c #353232",
"G  c #3C3433",
"H  c #3D3937",
"J  c #373538",
"K  c #3A3738",
"L  c #3E3A3A",
"P  c #480C04",
"I  c #471609",
"U  c #561909",
"Y  c #441613",
"T  c #431B15",
"R  c #4B1B14",
"E  c #431D1B",
"W  c #4B1D1A",
"Q  c #541D17",
"!  c #681B0B",
"~  c #472215",
"^  c #43241D",
"/  c #4B231C",
"(  c #42291E",
")  c #4C2A1E",
"_  c #542D17",
"`  c #53231C",
"'  c #592719",
"]  c #5B241C",
"[  c #532A1E",
"{  c #672819",
"}  c #702913",
"|  c #481E21",
" . c #432423",
".. c #4B2523",
"X. c #422C24",
"o. c #4C2C24",
"O. c #442629",
"+. c #432D2A",
"@. c #4A2D2B",
"#. c #522523",
"$. c #532C23",
"%. c #5B2C23",
"&. c #5B2927",
"*. c #532C2B",
"=. c #433126",
"-. c #4D3126",
";. c #4A3A23",
":. c #43332C",
">. c #4B342C",
",. c #46382E",
"<. c #4C392E",
"1. c #543225",
"2. c #5B3325",
"3. c #583A26",
"4. c #53352B",
"5. c #5B352A",
"6. c #54392D",
"7. c #5C3A2C",
"8. c #432D32",
"9. c #4A2E31",
"0. c #582D32",
"q. c #433532",
"w. c #4B3533",
"e. c #443935",
"r. c #4C3B34",
"t. c #443539",
"y. c #4B3639",
"u. c #423D3C",
"i. c #4B3D3A",
"p. c #533533",
"a. c #5B3433",
"s. c #523C34",
"d. c #5B3D33",
"f. c #57363A",
"g. c #533E3A",
"h. c #5B3C3B",
"j. c #652B25",
"k. c #663628",
"l. c #623C2D",
"z. c #753829",
"x. c #633D32",
"c. c #673A35",
"v. c #743830",
"b. c #5D4328",
"n. c #4F4037",
"m. c #44403E",
"M. c #4D413D",
"N. c #534136",
"B. c #5B4235",
"V. c #53423B",
"C. c #5B443B",
"Z. c #5A4839",
"A. c #5C4A3D",
"S. c #66432B",
"D. c #734C20",
"F. c #76432D",
"G. c #634234",
"H. c #6B4334",
"J. c #62453B",
"K. c #6A4639",
"L. c #624B3D",
"P. c #6B4B3C",
"I. c #724535",
"U. c #734B3B",
"Y. c #784938",
"T. c #72523C",
"R. c #3E3D41",
"E. c #423F40",
"W. c #4E3F40",
"Q. c #583C43",
"!. c #643D42",
"~. c #454242",
"^. c #4A4544",
"/. c #4D4946",
"(. c #464548",
"). c #4A4748",
"_. c #4D4A4A",
"`. c #534542",
"'. c #5B4443",
"]. c #534945",
"[. c #5D4C42",
"{. c #514749",
"}. c #5D454B",
"|. c #524D4C",
" X c #5B4D4B",
".X c #5F5045",
"XX c #55514E",
"oX c #5C514D",
"OX c #4E4C50",
"+X c #544E50",
"@X c #555252",
"#X c #5A5554",
"$X c #5D5956",
"%X c #5B5759",
"&X c #5D5A5A",
"*X c #664547",
"=X c #624D42",
"-X c #6B4D43",
";X c #624B4C",
":X c #744C44",
">X c #645145",
",X c #6B5345",
"<X c #6E5944",
"1X c #64534A",
"2X c #6A554A",
"3X c #6C5A4C",
"4X c #775648",
"5X c #735B4D",
"6X c #634B52",
"7X c #6A4D53",
"8X c #754B52",
"9X c #635553",
"0X c #6A5956",
"qX c #625D5B",
"wX c #735D52",
"eX c #785B56",
"rX c #7A624D",
"tX c #65615E",
"yX c #6B615E",
"uX c #756255",
"iX c #7B6354",
"pX c #7B655A",
"aX c #78665B",
"sX c #5E5D61",
"dX c #6C5C61",
"fX c #666262",
"gX c #6B6564",
"hX c #6C6866",
"jX c #6D6A6A",
"kX c #776965",
"lX c #726D6B",
"zX c #76716E",
"xX c #7A7674",
"cX c #9B2C0E",
"vX c #882C13",
"bX c #873A2B",
"nX c #8B4C37",
"mX c #AA552D",
"MX c #855947",
"NX c #8D584A",
"BX c #846859",
"VX c #936E54",
"CX c #A77450",
"ZX c #836D63",
"AX c #887366",
"SX c #947868",
"DX c #837C7A",
"FX c #937C72",
"GX c #A37E64",
"HX c #A7835B",
"JX c #958274",
"KX c #AF8E6C",
"LX c #C4966C",
"PX c #827F80",
"IX c #8F8B88",
"UX c #AB9584",
/* pixels */
"B [ 2 ; P I ; < U < < I I ; I U U P I 2 < I I I I I < P 2 ; * * * e 3 2 ~ I P ~ R P ) -.X.R R ~ f 3 d f M X.;.T ~ 8 t ~ t Y > > , > o o > > = o : 2 1 f : * , 8 : , p d d d f 8 7 p r M c p g z % % m M m m ;.m C C ,.N.=.=.[ I I t < * : =.=.M 6.N.r.N.6.L.,Xr.C.,.B b B b 7 i = 5 7 q o 5 0 z % 0 z z A v v M M =.=.b r.v b z l b v v b v m v G :.r.Z B M =.~ ~ ~ ( ( ;.( ( ;.j C t I 2 2 I : - 2 ; * 0 C ,.M <.U P P I I I I I P P I P P I 2 I U U U P P I P ; I 2 2 ; ; & < j Z j =.^ V.E x <.<.:.u.<.V c 8.$.C.A.r.v Z L <.",
"b ].{ ! ! ! I U ! ' ^ R U { U U ' ' ! ' $.k.$.Q 7.` ^ X.X.^ W ..u ) B.d.l.k.l.{ { j.,X5XuX<XK.x.-X5X3XG.2XZ.=X[.h.+.q.5.k.$...0 q @.M n @.$.h ..l.%.%.c.5.s. X] #.-X2XwXtX7X>X,.r.w.o.oX@X^._.~.~.u.V.u.XXr.~.~.@X$X[.|.L.,.>./ 2.z.I.,XG.A.>XA.>X3X,X5X3XiX3X0 ,X5XN.V.3Xm.3.' R { 2.] R 6.L.Z.K.L.G.P.eX<X}.3X3X|.;X5X5X,.s.MXT.T.T.T.N.s.Z.q._.;X<XC.2X[.!.L.J.s.p.<.@X@X~.~.@Xw.I I I U I < P U I I s._.>X=XY.z.! U { %.k.2.F.l.l.U.H.Y.{ { { ' { } ! { k.{ k.l.k.l.k.k./ [ K.-.d.|.!.>XV._.|.>X|.|.>X>XD 0.c.3XaXk. .L.u.g ",
"z ~.MXnXNX4XK.:XI.4X0XyX1XG.I.v.nXY.MXY.eXz.F.Y.eXF.6.k.Y.3X3XlXqX&.aXNXNXCXmXmXCXmXCXKXHXHXKXKXCXKXJXFXAXBXBXJXnXnXMXnXmXCXnX5 8 *XmXnX:XMXNXNXNXnXSXVXMXiXZXBXNXFXAXlXxX8XNX3X5XqXBXxXDX8XeXlXhXaXlXuXZX&XaXDXgXlXZXAX,X%.J.K.P.VXIXJXaX2XBXBXAXAXAXAXZXJX<.% V.AX@XwXFX$XI.H.k.G.0X$XtX3XgXgX@X=XqXhXAXZXjXzXxXDXxXDXAXqXgXhXgXgXuX%X%XqXgXgXfXjXxXaXSXK.d.J.=X5Xz.j.0XgXjXjX9X' 2.k.} k.1 < < ! vXz.aXeXuXBXnXnX4X4XbXnXMXMXCXNXNXVXCXCXI.nXnXnXMXMXNXSXSXMXMXz.z.U.NXY.Y.U.5X-XqXeX8XZXyXgXAXlXdXlXAX0Xc.v.bXkXDX8X*.x.M 0 ",
"q u.NXx.M.^.^.>XC.u. .C.N 3 3.K.k.k.2.$.%.1.C.o.d.6.G ^.A.^.~.V.`.[.k.5.3.l.k.k.k.Y.l.H.%.P.:X5XP.2XwXiX,X2X,X2.5.e.%.2.#.v.k.6 r c.c.M w.c.0.%.d.k.l.%.x.@X=X<X5XuX>X|.w.g.qXV./ e.5.$X@X$X@X^.e.^././.G |.[.^.G r.=Xn X.1.-.,.e.5XuX3XC.u.A.C.5X5X,XC.1X5Xf 7 F wXL r.3Xm ) X.n G A G <.r.:.M v ,.w.J >X|.^.V.}.|.~.V.V.:.m._.~.~.m.F A F G u.~.L u.m.C.X.s ( ,.r.^.m.u.q.~.L X.X.( =.M.&Xb f r bX{ q.<.Q.C.6.B.%.d.Z.>.7.] 1.H.H.l.I.K.H.G.G.L.L.,XP.P.4XH.H.S.7.4.2.v.l.d.X.s.o.O.u.w.V.[.u.A.^.u.].C.^.e.d.|.XXV.<./ p.m g ",
"5 u.AX X].^.~.M.q.e.w.+.V / 5.` ` ` ` ` ` C.C.>.A.B.B V.6.a.q.e.V e.6.@.( l.7.2.B.S.] ] ] I.P.,X=XJ.C.A.=XL.A.j.#.d.6./ W 0.c.w r v.c.n O.%...` $.%.2.$.i./.C.#.2.2X;XG r.w.s.u.o.:.s.V.N r.Z.w.=.B B m b M :.k b y.s.q.6.G.q.V X.L.>X>Xu.L N.r.=XT.k.6.l.vXP : : k.G.A =.f g m G F v F M m v m L ).G G A.|._.Q.A.^.~.s.e.G w.^._.L L u.L F F ~.^.E.e.L :.:.q.r.r.r.e._.^.|._.G q.r.#X@X%XfXB z n dX X^.{.C.6.6.7.G.B.G.L.7.$.7.l.l.k.%.H.K.l.x.d.4.3.G.H.H.l.l.7.l.7.7.k.7.2.$.3.6.*.L x W M.u.|._.L o.|.|.=X>Xm.1.6.N i *.7 # ",
"z F :Xx.:.A V A i.A m b M.~.^.` 1.d.x.d.s.>XL.o.-.6.u i ` %.E A G 6.=.W E S.U.L.L.G.Q ] ] { z.I.` ` d.7.A.C.A.V.C.9.1Xd.d.a.j.w r h.I.^ O.$...E ) / %.5.o.,.s.]  .o.^.~.r.N.C.X.E i 6.B.w.N.r.A =.A M B ,.,./.m z M V.L.r.l.V :.1.L.2X2XC.s.X.q.Z.N.k.6.{ vXt - 2 } k.M =.^ v c B Z Z V B N B F K E.~.L L ~.^.V.b.s.L ~.m.L u.~.~.L ~.u.L :.u.^.~.u.].A :.>.r.V.`. Xu.u.u.L F ~.u.L [.|.).qXF g ~.AXgXQ.~.V.s.:.1.6.7.3.6.5.J.C.] ` / Q v.l.G.7.3.7.7.l.l.1.l.1.l.l.<.x.l.s.7.o.@.s.>X^.G 9.s.D L.^.~.,.C.m.M.>XF ,.`.d.~._.l 0 ",
"z G a.k.<.V r.wX0X1Xx z G N H $.d. XG.5.e.N.s.-.>.i 6 ^ ` e i 8.V C.s.t ^ L.,X7.S.U.k.{ 7.l.k.P.` ` 5.J.d.C.=XDX*X..1.%.L.].` 5 r *X*X*.w./ c.8XyXp./ 5.%.>.=Xj.6.H r.r.r.V.C.+.r.o.` ` i.>XM._.e.<.5XL.A.~.C./.=.L./.m.7.7.,.V.U.,X5X>XM.X.eXaXFXwXs.A U vX, * U U 2.X.G L 0XyXhXL x m A :.X.:.L ^.~.^.u.J H s.<.>.L }.C.L ^.^.u.G q.A A A r.e.e.`.g.V >.V ,.`.|.|.r.M w.~.gXxXIX@X].1X~. XB b ^.jXwXV.}.^.hXkX2Xx.-.7.1.6.B.L.G.%.$.6.k.7.7.7.1.3.l.G.S.) 2.l.H.l.$.I.1.2.H.7.@.e.o.A.:.y.s.6 %.+.X.b Y C.hXc. X~.o.XX^.|.z a ",
"g M wXs.=.s =Xm s =Xe.0 G G q.c.` o.%.g.=XA.Z.B.7.j ^ Q >.G 8.y.@.A.V.L.L.=X<X] ] v.j.j.2.Q ] F.d.7.Q ] / n xXs.-.*Xr.1.%.d./ > r c.Y.%.{ / SX2.p.MX..$.' N.>Xv.:X0X;X4.N.A.1X_.s.w.%.` |.qX3XqX XC.1XC.1XwX$X[./.>X,X=XK.U.U.Z.U.:X5X6.M =X2Xx G.IXN.^.%.} : > U ! } A e.2XJXF ^.oXx G G s.i.e.u.~.F ~.^.L F =.6.r.E.A.C.:.w.q.w.A m +.:.,.:.V V r.,.V ,.,.,.s.@XfX#Xq.M.DXgXv ).zXr.$XK ~.v g #XDXqXm.s.gXgXX.r.wX+.w.1.u.[.U.s.N.7.d.2.` 2.1.5.7.G.7.U.H.2.l.2.5.1.S.<.3.7.S.r.^._.+.h r._.V 6X^.i.w.i wX'.6 l  XG V.^.XXu 0 ",
"9 i.gXq.:.x 0XB G wX[.x m D +.E ` ].*X|.].,XK.x.$.j n T w.F w.y.s.L.A.3X>X=X<XC.] K.k.L.7.l.%.%.8X>Xd.5.=.X.aXM >.qX^./ T x.%.> r c.Y.c.%.#.4X^ q.FX6...` s.A.G.C././.r.s.N.A.u.$.s.` ` XX@X@X_.[.A.1X|.A.>X~.E.w./.G.3XG.U.K.s.U.P.P.c.3.A.[.b G.AXB >XI.%.u > U z.} C.m.ZXqXm <.yXA s.M.V.M.i.e.q.e.i.~.L L :.<.u.r.=XV.G A e.q.V V q.V X.j M V q.:.=.4.r.r.`.}.|.XX|._.zX#XF _.&XZ >X~.&XF s _.zXyXs.r.gX5XN q.BXo.o.<./.[.B.6.6.K.W l.2.3.~ 3.5.7.l.o.7.5.-.G.r.G.I.s.l.1.I.G.G n i q.~.:.|.^.X.q.^.E 0...u i *X>.u.r.lXA m ",
"M ^.gX~.~.L |.*X;XgXA m x A  ./ x.d.w.^.~.7.7.o.6.X.X.>.X.v w.w.s.=X>XC.>X>X2X=X3XK.K.l.%.P.=X5.$.5.A.1.i V gXgX3XlXj o.X.4X1.> r c.c.&.5...:Xc.:XkX..j.c.3X>X<Xr.=.<.6.~.m.s.r.6.m.V.A.XXXX^.~.~.1XoX.XN.V./.e.^ A.G.r.,.G.@.r.G.C.l.o.( =.2X2XJX`.s ^./.G.s < o.P.} >X^.>X0XoXuX].x i.C.M.V.q.q.e.q.q.e.r.u.u.s.>.e.6.-.4.q.q.q.G q.r.q.m m +.q.q.,.,.w.r.r.C./.6X@X%X^._.zX;XzX~.,.>X~.|.v c ~.2XgXs./.~.xXZXiXU.:.h.m.r.:.1.A.B.N./ 3.2.l.[ 6.1.3.o.f 6.<.l.G.$.<.l.X.o.X.4.l.G -.+.i r.r.i.E.M.V.u.b +.0.C.x.q.>.].V.-XB b ",
"g ~.gX|.e.V B b i v Z e.m q.r.u.L.L.s. .u.7.4. .R / >.>.j x u.s.s.=X=Xs.C.[.>X%.] j.] { G.5.l.%.Q W $.o.b F L @X$X:.B N.}.-X5.5 r c.k.k.5.` $.c.f.o./ %.P.;Xd.3XC./.r.>.u.^.|.m.V.~./.|.q.~.r._.)...] Z.H =.r.M =.A.m.M -.G.b -.P.7.6.( -.A b :.e.z M.G |.BX6 < ` 7.k./.^.s.i.].`.,.>.C.6.q.q.d.r.A :.A L m.^.u.V.:.q.6.-.6.e.q.r.q.q.V =.V ,.=.q.V V r.r.r.r.=X].|.|.{.].|._.L A v ^.%X~._.v z  .jX0Xe.6.w.r.>XC.1.6.6X].w.~.r.C.C.L.L.G.j.7.7.=.6.4.7.>.5.2.` l.s.W Q ] :.o.1.>.>./.+.N L V.s.^.^.E.i i h w._.G M l.d.M.`.7 7 ",
"M m.gX%Xu.M G w.y.L m.~.G q.r.e.V.w.5.%.w.A X.~.s.s.<.<.V V e.w.A.L.A.s.L.[.L.K.{ G.] l.x.d.%.] %.%.k.5.t n A b w.s./.d.d.wX7X6 e 0.U.d.k.#./ $.T E s.w.j.$.&.4XC.A.s.r.V.C. . .@.#XXX|.O._.XX.X|.$X3XN.u.L m Z A y.y.>.4.7.r.4.K.l.7.V 6.4.X.( d.i.6.:.oXeXg - U G.3X|.@.i.s.M ,.>Xr.M.:.d.r.6.-.A r.s.G w.|./.r.q.f.d.q.q.q.e.q.q.:.O.m  .:.:.V N A r.g.V.V.V.i.r.e.i.'. X/.F F L ~.|._.&XB c /.qXqX9.1.7.r.C.y.L L _.^.J m.>.>.A.L.C.6.G.l.R m ..1.3.>.l.7.l.7.>.:.` Q G.1.5.2.W e m N t.u.r.A.|.q.i b A G M X.B.L.>Xd.-Xm f ",
"M |.xX].r.~.u >.C.~._./.7.e.i.6 i i %.$.M m B C.>Xs.-.y.f.8.W ` L.=X7...>XA.{ F.U.k.] c.K.%.] k.k.%.c.*.u g +.$.C./.F W h.-X7.r r L.eX#.%.Q W 2./ / $.w.2.p.f.U.@.i. .+.}.V.V E / +./.].L ^./././._.|.s.i.q.Y r.V.,.=.>.3.P.V.g.7.U.G.=.5.r.3.-.G.i.B.u. XU.u - I G.uX^.q.H L.Z v :.=.:.8.B.X. .=.:.6.e.=.G m.|.~.q.i.:XC.e.e.i.i.q.+.A q.V X.+.-.V A q.:.:.V.g.e.V.i.e.r.r.q.u.).~.XX}.~.hXF z @XuX7X>.G.7.XXV.s.r.L 1XqX|.^.s.<.>.-.^.|.k.Q @.b o.l.7.5.l.7.7.k.e X.7.R 1.l.7.7.t u q w u u.V i n i.+.l O.q.W n 6.s.B.1.5XM M ",
"z ).xXp.u.@. .{.>X~./.A.B.>.E i +.i -./ V A q.C.x.h.@X%Xu.V W *.,X3X2X` =X>Xk.F.I.{ K.G.j.%.] %.%.c.C.V.n G m.u.6.N.G  .^.G.%.6 e k.yX&.1.6.s.G.d.B.R W @.@.+.k. .*.e.g.N.r.^.A.6.^.6.XXs.^._.^./.u.r.C.~.u.n s.:. .M d.3.K.V.i.=XU.[.4.:.,.4.r.d.i.M.m. X=Xq & I P.A.,.V.A $.m A :.u.~.r.A.<.4.X.b :.>.q.L ~.).].V.i.i.r.r.e.i.r.A m A e.q.r.-.@.A q.:.:.A `.V.i.i.r.i.r.i.e.q.~.D ^.qX).gXB 0 ].lXqXs.N.N.s.r.4.s.q.`.#X=X>XV.C.d.G.G.=XJ.Q 2.:.>.7.7.5.7.x.K.%.e >.l.R <.%.` +.q.+.e w n +.n i n n n u V A / ..6.i.r.i.@X0 % ",
"z +.v.a.i.i E g.A.C.d.C.d.5.%.Q h.5.4./ r.L.{.~.!.+XW.].u.y.q.1X=X2Xc.L.P.2.I.Y.F.{ P.x.%.G.2.c.J.A.B.@.e.e.r.u.^.C.+.q.E.d.C.5 =.iX4X2.C.W -.=X/ V.C.<...n ..#.E './.m.C.r.[.`.-XJ. .#X[.{._.|.%Xu.+.^.|.~.V ^.o.m <.A.r.V.r.V.Z.G.g.4.:.:.q.q.q.V.`.u.^.yXr & I U.A.V.L =.r.H g =.u.L y.A.u.5.X.M 4.6.A r.r.q.i.`.M.i.e.i.r.i.q.r.`.[.r.r.r.@.1.q.e.q.V.`.'.e.i.`.V.A V e.q.A G L ^.|.^.fXb 0 ~.AXgXV.s.s.s.1.1.l.r.=.q./.qX3X>XB.G.T.j.x.7.H.7.5.4.4.1.2.%.l.2.3 [ Q 3.W 5.1.( w.o.Y h o.q.s.W h q n O.i.q.u.O.T o.C.f.5.u z ",
"m d.AX2Xs.O.b V.n r.J.N.6.7.B.$.L.J.'.Q.`.,XoX/./.=X..+.u.V.}.6X5X<X&.k.<XK.Z.{ I.{ x.k.G.G.x.,XL.o. ...b M.s.y.^.G q.u.M 5.s.5 M x.c.=X$.o.$.L.6.$.` d...O.@.c.i.1X;Xr.r.V.C.s.3X>X@.{.1X|..X|.|._.E././.u.L y.,.e.C.$X_.].r.d.s.g.r.=.:.q.q.q.-.V.i.G u.6.6 o I d.2XN.u.~.m.r.C =.u.G w.N.y.B.X.>.B.i.:.e.q.e.e.M.M.q.e.i.e.i.e.V.[.C.A :.:.V i.i.r.q.i.g.r.M.`.V.V.e.e.A A G i.~.~.|.|.qXb 0 ~.kXlX^.].y.S.o.( 3.O.M @.V./.C.B.7.7.Q k.x.7.x.L.l.7.3.7.6.6.3.7.:.$.$.1.:.<.>.i r.1.o.h h X.L +.u q b n  .+.L q e o.y.+.`.F m ",
"f V.xX1XW o.:.V.L /.Z.s.:.M.M.`.V.L.].`.a.`. X1X>Xd.].|.Q.e.;X7X4XT.7XJ.P.Z.6.} k.{ d.N.6.d.k.H.B.W n +.V ~.s.A A L y.o.W #.o.o 1 #.j.!.1.s.V.J.1.W W ^ ..5.@.3X2Xf.].L m./.r.6.a.K.A.Z.B.[.>Xd.e._..X[.u./.L u.C.N.r.A.+X@Xu.r.7.d.4.-.X.A q.q.,.>.e.B X.' , X < C.uX=.:.L ,.r.e.q.G F r.r.=.V.B q.q.X.q.G i.i.A e.q.V q.q.V.e.e.r.`.A N q.i.r.V.i.e.i.i.V.i.r.i.r.q.e.q.V e.G M.e.u./.|.&Xv 0 L qXjX].V.V.V.p.o.z.$.5.1.V r.a.G.3.` Q H.H.H.S.l.1.7.7.7.K.7.3.l.w.7.l.o.+.I u e V M ^ +.w 6 n E 9 9 V >.+.L u.X.i i./.r.@Xc s ",
"9 q.zX#Xq...y.G m u.L e. .<.e.M.`.V.6.i.M.i.M.|.>X>X|.|.u.y.;X3X<X5X7XC.%.#.{ { ] R 5./ $.B.d.L.5.e. .e.G L q.w.,.M >.i. .*...7 e f.!.0.1.Y o.` C.d.W n  .G.5.2XqXq._._.u.r.r.A.|.>X<._.^.^.[._./.~.#X2X^.^.u.:.r.e.^.V.u.^./.e.r.r.q.6.A p f V r.e.G F >.U > . * l.uXB F B m X.:.:.X.L /.u.u.C.Z >.M B e.q.e.i.e.q.q.A A e.r.e.i.`.V.i.i.q.V.'.C.i.e.i.'.i.r.r.e.q.A V A e.e.q.q.q.|./.u.&Xb 5 =.wXhX{.;X@X*Xf.1.2.1.1.r.6.r.7.c.H.l.k.U.H.l.7.1.4.5.5.7.C.1.1.7.>.x.H.>.W 3 ( j g s f :.e ^ +.%.b q u  .+.G s.r.u._.^.g.qX0 > ",
"M _.*X@X^.:.n W 9 i |.^.q.e.M.u.M.M.e.i.M.e.L.C.C.y.@._.%X+X6X3X,X5X<X&.&.Q { Y.{ Q o.d.s.p.=Xk.*.|.|.e.R.L q._.|./.^./.e.i.q.q q %.c.W ` q. .W g._...@...C./.J.^.XXwX#X/.g.B.o.s. .e._.^.H |._.[._._.XX_.r./.u.F u.~.^.:.,.Z.m.m.e.>.4.-.f f A r.r.e./.M.$.o . < s.uXq.4.V :.j A G m G ^.r.^.A./.6.G q.e.A q.r.V.d.q.q.A M.r.r.i.'.V.`.'.i.i.[.=XV.q.i.i.:.M b V r.r.V q.e.q.i.r.r._.~.L fXv z L aXgX^.XX^.L.5.#.1.s.s.o.:.o.$.I.H.C.x.U.H.l.7.l.5.l.7.1.r.o.1.s.:.3.l.[ I O.h , M e.f r.X.q M o.b n A G /...O.i ~.)._.|.3XM s ",
"A |.gX`.n ~.~.m.L <.^.L V ~.|.C.,.~.1X_.r.A q.L d.5.w.+X_.~.>XT.I.I.K.P.x.] Q P.B.Q Q i.$.@.C.*.A.>X^._.K G n V ~.|._.u.H i.r.o q j.j.B.$.r. .W W O.:.n E 2Xu.O.u.r.|.L i.[.5./ e.[.e._.).~.u.~.^.m.~.r.u.V.e.u.L ^.V.r.u.,.Z.N.u.m.>.q.=.f b q.q.m B Z L V.5 X < >.qX-.Z.V.-.A q.A b L [.V.~.>XC.d.V.i.q.@.i.i.r.V.<.e.i.i.i.i.V.e.i.V.V.[.`.V.[.'.V.C.r.b A b m q.q.:.A M.q.M.r.e.^.V.L qXz z ^.dXgXu.[.L.~.@.5.l.7.7.>.X.Q C.H.I.H.J.H.H.H.l.H.H.l.6.X.>.<.:.x.C.>./ Q R Q E h :.o.G /.A q E / h n G G e. .O.i i.).~.A.wXZ z ",
"=.wXDXw.u ~.~.N.u.>.@.i.e.~.|.[.e._.XX^.=.M M g V.^.V /.E.y.Q.,XL.<XJ.P.J.G.Q G.&.Q Q e. .W 0.i.C.[.^.|.^.q.i ^ u.@X^.N e.,X` $ m :X9XC.R W t +.-.u o.G b *.$.q.r.m.].u.u.>X6.m./.[.s.~.m.u.m.^.1Xr.L V.L ^.r.q._./.^.V.~.y.Z.C.V.A.~.e.r.X.m :.:.V A q._.d.e . : ^ >Xe.d.g.e.q.:.A V ^.[./.A.>X].G.B.q.i.e.q.q.i.M.e.e.r.i.i.i.e.G e.M.i.M.`.C.M.r.`.V.r.A q.N n V A M A e.V r.e.e.~.u.v _.% $ u.DXlX^.m.V.{.r.0.l.l.1.>...$.$.G.J.C.l.l.l.G.x.l.p.2.G.s.:.:.3.C.s.:.7.l.t R E X.u t i O.x w ~ i n 1.i q e.Y E m.>Xe.^.J.K.M c ",
"<.AXzXq.G G G r.e.V q.~.~.V.^.>XA.^.B.^.^.~.~.u.r._.K G u.L >.P.,Xz.] P.*X7.{ 5.B.!.M.e.r.].Z.N.:. .g.i.o.4.V u.E.6XE.i >.$Xy.# i K.a.i .. .t q.V.o.@.+.G ^ C.e.^.L ~.N.s.[.=XC.<.Z.N.>.E e./.m.A.1XA.3XC.].'.u.~.^.|.r.r.s.<.w.s.=XA.9.r.4.V A V M C.M.u.5., . : ) gXV.V.V.V.A A r./.C././.A././.K.6.q.i.i.e.r.r.`.e.e.r.e.`.i.q.r.A e.V.M.r.V.V.`.`.r.r.q.q.q.b m M X.x m b B e.e.L G c @Xs 7 |.gXjX^.u.u.B.r.f.7.l.>.*...[ >.H.C.G.J.l.l.<.5.l.` / l.r.V.:.o.r.>.o.7.4.^ $.' V i O.i +.,.t n ..n i u V q.B X.^.O.L ^.[.3XB s ",
"C 1X4XV.~.B G D ~.~.u.e.u.e.-.>.=X=X~.e.#X@X+X^.r._.J L n n o.S.S.l.j.k.c.'.G.k.w.i.M.M.M.h +./ +.u V.N./.].E.K w.s.n L e.qX@.# b G.d.~._. .i 9.q./ i @.e.r.=X/.[.1.N.s.X.w.A.7.s.o.6.e. .=X/.y.A.A.,X&X|.[.A.V./.^.~.V.[.A.A.s.N.A.|.s.r.V +.*.V g.P.e.u.%Xm . 2 >.#XM X.>.r.M.r.V.;X/.^.[.XXV.m.A.V.V.e.i.V.[.V.e.i.q.q.e.V.V.V.V.V.V.V.i.q.e.i.V.q.e.:.O.V X.m m b m x x b x t.u.b b ~.5Xz b @XuXgX^.m.s.G.o.>.$.o.o.1...-.>.l.7.c.l.l.G.1.5.7.7.&.Q -.p.:.+.>.:.o.[ Y I 3.M e @.t.L F e.....+.+.6 h M ^ y./.L q.~.h O.p.q % ",
"~ ' k.V.L e.i.V e.~.G e.u.r.~.K >X@X_.).#X|.u.y.i.^.).K h +.r.d.4.' 7.P.i.B.K.d.r.V.W i.u.B @. . .O.|.M.C.^.~.E.:.N n ~. .` m % Z Q.;Xn i | V N +.w.E._.8.^.|.`.^.s.%.` / o.d.` T +.^.V././.y.u.{.;X=X).u.>XA.C.|.L u.Z.[.2X1XA.[.].M.:.V.g.:.q.:.V.q.e.yXtXB X : e.$XV X.r.:.V.'.V.i.C.^.>X>X|.~./.^.u.A r.V.[.e.G V.`.q.B `.i.e.r.e.m q.G G q.q.e.e.q.A V M m x q.A A A m G ^.G =.x m N 0XB b >XzXfXXXm.3.1.1.>.$.$.o.1.o.s.C.G.7.l.l.G.H.o.5.%.6.7.` 2.1.:.1.7.M M W R 3 / R Y O.e._.F N n ^ n  .V i.i G r.[.q.u.L ^./.@X5 # ",
"; U } '.e.L M.^.e.e.e.G M ~.^.^.).E.e.~.^.^._.`.w./.u.y.N N n %.-.G.G.I.7...j.7.6.J.i.i.^ q.r.*.#.d.XX$.E E.).~.v N L B g B.N + M L.kX9.n E 8.*.W ].^.^. .W.&X Xi.M ..w. .q.l.&.O._.h.h.|./.l +.r.A.>X3X[.>X|.A./.u.^.A.>XuX1XqX@XL.r.q.:.q.r.V.i.e.V H |.hXv X : =XgXM =.r.r.G.[.V.i.q.r.i.e.L ~.].|.^.i.V.M.r.q.e.G q.V.G e.i.i.i.q.m q.q.M r.e.q.e.e.A A r.m  .G A V B e.^.|._.~.F F ~.%Xv s $XaX7XN.C.w.s.1.O.&.1.) 1.:.g.V.K.l.2.5.l.l.7.s.' #.2.R R r.:.o.7.M O.$.~ / W W o.+.e.w.q.n u i q b V e. .=.~.A.+. .N E.'.%Xb > ",
"; U U.Z.:.G =.u.q.B A G q.u.M.[.~.E.w.].^.m.@Xw.G r.q G M E i.B.f.B.x.*Xl.6.P.d.u.M.M.i.A $.$.W ] J.=X@.5.A.F b N M A L A Z.u.# m ].2XQ.@.w.+XQ. . .N  .W +.&X+Xe.>.^.6._.~.] 6.|.sX6X .9.y.i./.^.#...-XL.V.6XqX^._.^.>XwXuX#X[. X[.i.i.e.r.i.V V.`.A 8.|.jXV o 1 oX0XA q.e.C.'.C.V.q.q.i.M.=.:.~.^.[.|./.M.d.r.i.V v G ].'.r.e.V.[.i.q.G q.e.e.r.i.e.r.q.A `.e.q.M.A i.e.].#XXX%X#XG J ^.%Xb b XX5XqX=XL.3.f.>.$.X.,.o.4.r.w.:.d.Q %.*.l.l.=XG.5.*.l.3.$.+.=.( 4.+.( 1.o./ T E >. .D V h b n  .b 0 u N r.^.i.4.G n B V L |.g - ",
"; I Y.XXu.e.G M B v A X.e.u.X.e.^.(.M._.@X|. .i L :.b B M =.^.i.p.h.d.].G.2.G.>.f.6.A G n Y  .6.` %.XX[.3Xr.B G =.G y.:.w.s.u.% z G `.L o.8.{.+. . . ...e.e.+Xg.+.N./.#.h.@Xw.r.G _.%X| w.w./._.|.O.`.>X).).^._._.V./.^.1XuX#X].V.G.1XV.r.i.A M [.;Xe.L @XjXo.o 3 @X0XA q.r.V.V.V.`.V.V.e.V.^.~.~.~.[.V.~.u.V.'.`.m i.V.V.i.A m q.V.V.M.r.b A q.i.i.q.r.i.G i.i.q.M.e.i.e._.E.~.^.[.~.~.L |.b a O.-X,X;X=Xs.s.o.o.o.>.o.1.:.M w.C.Q %.7.H.C.x.a.s.1.' ..W T n e 6.O.^ $.o.) %.<.+.h G i n n n e.n n n m A _.q.i N i +.u.~.#Xu & ",
"- Q qX].L e.u.A V V q.q.V.e.A B L J e.^.).|._.L e.:.u.V n H u.f.i.M.h.+...+.h.G.i.i. .X.q.i o.[ ` ` +.e.>Xi.H L K J u.X.Z <.G % % ^.9X~.q.~.#.#.:...i.@.w._.r.s.A.6X1Xr.+.^././.q.~.(.^.$.f.y.w.|.^.|.6X@X|.u.Q.].V.N.r._.1X|.C.[.;X[.q.r.r.V.i.i.q.L ~.@X&Xh X : 9XxXA q.V.q.r.V.V.q.V.i.e.M.@X~.~.^.C.m.~.{.e.i.M.`.q.r.e.q.m m i.C.h.V.r.q.e.q.q.A e.e.G `.i.A A A q.B _.).E.u._.u.u.m.w.o $ +.eXiXC.`.7.a.w.>.V.r.1.1. .E R 7.Q l.7.C.l.C.C.r.4.2.o.R ^ / W ' M -.1.4.6.E o. .i G i i n n n W i l q Z F A u.8.y L r.~.f.6 # ",
"u O.@X{.L e.B B G e.q.q.e.B A M q.u.E.]._.u.|.e.B G ,.G ~.).~.q.i.V.].O.Q q.i.!.M.u.r M M X.q.E ` C._.r.>X/.G ~.e.u.E.u.A %X~.5 c ~.@X~.i.^...].g...+.i W r.e.@.|.^.f./.r.^.W.6Xw.~._.w.9.y.@.~.6X].%XtX6X;XA.C././.r.N.^.[.i.r.1X2X'.i.e.i.[.V.'.q.G L %XgXA X 1  XgXG q.V.i.d.V.q.N e.e.A i./.C.^.u.N./.^.~.e.q.A e.e.q.V i.A m A e.<.V.e.e.i.:.A q.e.e.q.[.e.x B A B G k.p.~.6X@XG L i.9X9 % ].4XhXL.J.a.a.r.w.s.:...o.n n :.>.*.l.2.l.W C.C.6.-.3.$.R e e $.>.( -.3.2.[ u V :.M b n n q.n V O.6 u i M b G e.i h :.n ....q % ",
"c L qXL u.A m u.M.i.q.e.G B e.M.^.i.e.^.^.8.V.q.X.e.G u./._._.u.G f.`.h.o.d.6.`.i.e.i u O.@.w.r.s.N.g._.|.u.~.~.r.).~.:.=.6Xu.$ D OXsXL >.~.^.%Xg./ e.X.r.N._.m.A.A.r.e.,.w.W @.e._.^.|._.q.^ q.~.@X&X$X_.A.C.s.^./.e.6.q.-.q.i.V.i.i.V.g.i.V.V.V.V.G G ~.jXB X 1 X.fXu.e.i.e.A i.e.G i.i.`.M.^.$X%X~.L ~.u.L ~.q.A q.q.B e.e.e.N V A A V X.A q.<.i.i.q.q.i.`.w.G m n >.q.XXq.E.~._._.e.{.qXM = O.0XwX_.d.6.p.r.@.r.1.^ ^  .^ >.:.*.1.5.1.' W e O.>.6.o.[ :.X.1.o.X.o.,.o.X.O.M q.E t w V  .e i e x F t V M B M h A e.M G }.0 5 ",
"0 K %XJ B B A i.M.e.e.u.G G u.M.M.i.e.M.q.<.i.M.w.].^.u.e.e.s.i.<.i.^.f.i.].h.s.i.i.@. .X.X.-.X.w.>.f.C./.V.^.L ~.~.L G :. Xr.% v _.sXF n u.H g./.w.,.r.r.5.W M C.2XA.w.m.>.n  .+.w._.w...w.^./.^.u._.Z.|.XXV.V.6.:.>.$.V.[.r.i.r.r.V.g.r.y.V.r.i.V.{.~.#XgXV X : >.qXm.G u.u.q.M.e.e.e.M.].e.e.E.^.|.~.^._.~.^.e.e.e.G G A q.r.m q.i.q.f q.:.M.[.r.G G i.i.`.M.'.i.M.d.e.|.u.i.i.u.e.V +XqXz > I I.j.s.6.l.@.1.p.1.*.( :.q.r.s.>.-.w.1.j.) ,.2.( o.o.o.o.t ( X.) M X.o.r.V +.o.+.g ( b M M e e , 6 b h L G +.Z B :.~.w.w._.z % ",
"z F &X~.Z M m A G e.A u.e.i.G A i.M.i.i.q.q.e.].e.oX'.M.^.q.r.s.s.e.e.M.`.M.i.`.q.A A M M X.V M =.w.'.~./.).u.G G G =.:.G >Xm.$ c W.jXu.J E.q i q.b u  .o.@. .` $.N.C.r.1X,X>X6X+X..g.`.@.o.g.|.g.~.[.|.A.XX^.C.r.q.i.p.;Xg.r.[.g.V.i.i.r.V.=X[.C.[.^.~.&XgXG X < k.gXE.q.u.G M.`.G B e.i.e.e.C.^.XX6X|.%XXX~.~.e.e.+.V M m q.G B G M.G V A i.V.c.e.q.i.`.M.i.M.V.M.e.w.^.^.E.).e.|.^.G _.OX# # I k.! 7.@.t n f.V. .X.V -.w.+.h ..w./ / $.X.o.7.o.1.o.o.X.Y 1.X.M M ^ +.x.n X.+.:.j b b s u w - = x w =.G A w z F u._.=.u.|.z # ",
"v _.gX~.A H B A B x m A e.u.e.G e.i.A b X.M.M.i.i.`.`.i. Xi.r.s.e.u.M.`.`.J.].].e.q.>.X.=.G X.i.8.>.i.@.|._.y.u.L m.,.=.L |.q.$ c +X%X|.R.E.N N M r 9 m i +.1.5.%...X.r.s.A.C.|.%Xd.#._.i.i.OX~.^.%X>X^.=XqXi.q.r.r.w.+.r.r.w.V.i.r.i.r.r.g.g.[.[.'.M._.@XgXG + 3 7.fX~.M.G e.e.q.q.i.M.]. XM.[.s./._.~.|.].~.u.i.q.V m A m V N m A q.q.+.A e.e.e.i.G ].'.`.V.`.q.w.:.t `.i.+.L ~.@X~.F ~.|.# $ e ` { $.9.e.r.V.c.:.>.X.+.r.n E r.d.X.W ~ ( ( -.+.7.o.o.V :.+.+.+.( M :.+.X.j u 6.:.:.M n =.h 6 9 s n G X.H j - w G u.L ~.$Xz $ ",
"F _.gXF B m B B m x u m G e.e.G q.q.A m u B.i.B.M.M.`.`.e.i.s.i.i.`.V.`.i.V.].>.e.M.e.n @.X.h G. .T O.:.r.u.:.r.r.r.u.=.:.@Xu.# v >X9Xg.~.F l q. .t t u u i / W / W  .o.| s.V.i.6X]./ C.`.].|.~._.|.<.e.XX].o.q.q.q.>.:.n W  .X.r.^ +.r.[.V.V.=XZ.V.q.u.#XfXu.7 G  XfXu.u.e.i.A B i.`.M.`.`.i.e.q.e./.~.@X|.E.L e.q.V B X.e.q.G q.e.G a.V A M.M.A e.e.`.`.V. Xi.G V.M.n e.e.f./.|.n q.L ).~.# # w Q ] ] 7.d.1.>.s.,./ ~ O.g.r.r.r.V.V.^ o.+.o.$./ 6.r.-.^ :.:.:.M V M :.b o.:.O.,.M m M h +.q > 6 9 b V m g M u b M M L r.$Xb 0 ",
"B C.0X,.g b Z m.e.x f m V G G B X.q.e.A e.e.G V.G `.Q.].q.q.`.].i.q.i.`.`.i.q.6.M.Z.e.>.=.A M X.@.>.=.V u.r.V L r.N.N.L w.gXG # b =XgX_.:.h  .$.*.C.C. .i w.$.` #.E  .n a.w.Q.V.6.C.'.@Xg.i.^.).+X].w.i.i.-.4.i.r.A i.7.Y t +.q.r.T t V.V.[.C.=X[.=Xr.r.9XgXu.z H %XgX~.A u.M.G G i.e.M.].`.^.e.i.{._.|.|.^.E.u.q.q.A f X.M.e.q.A q.G A q.q.<.w.G G `.V.V.'.`.V.W q. Xi.e.|.|.|.^.`._.^.V $Xz % M k.` U F.P.a.5.1.-.r.) :.r.h +.r.V.>.>.r.X.X.=.:.+.1.-.o.@.:.+.-.:.,.+.M r.w.=.+.g j +.^ b M t , q n n b 6 M M b j M G u.}.c z ",
"b ,.>Xu.B b g Z G s m G G G e.i.G e.A X.q.q.e.`.+.`.'. Xi.`.r.'.i.+.e.h.`.M.i.<.i.i.A >.:.i 6.e.e.G +.@.A.[.G =.e.q.y.e.B @XN # z ;XdX@XO.t / 4.` W / ^ W Q...%.%. .o.$.i.].0.9.| A.9Xp.w.@._.|./.1.w.`.-.s./.M.6.A r.r.E @.'.i.O.X. .V.c.[.=X=XA.=Xg.`.0XjXL a K _.qXXX|.u.`. XM.G `.'.].V.i.i.i.].@X%X~.L ~.e.G A X.A m M V q.q.M.i.O.e.e.i.V.e.e.`.'.V. X].`.q.B g.E ~.|./.].|.^.i G m  Xc 0 T j.! k.K.3.x.C.1./ r.r.t 3 O.M r.V.`.s.7.r.V M M +.>.:.o.X.o.=.r.:.+.w.r.h.r.+.b s r b O.,.w.:.w u b V V j s M M j b X.L ^.z % ",
"0 F 6XG u g m x B g A B A B e.i.G e.M.M.e.e.].i.M.1X Xi.q.e.e.:.i.i.r.i.i.M.M.V.i.i.A e.d...X.>.r.u.u.C.r.i :.C u.L u.,.M w.B # k ].hX^.e.q.+.1./ ` ..o.W >...#.../ 5...$.r.r.^.*X|.`. .+.9./.V.r.6...n  .M _._.u.e.q.e.q.w.f.`.w.g.'.'.*.6.C.[.G.G. X1XqXlXu.z L _.%X|.@X@X].`.M.e.M.i.M.`.V.u.m u.|.#XL F u.e.A A A M.<.A q.A q.M.'.r.M.q.V e.q.G i.e.e.^.'.e.O.G g.E /.u.E.~.+XL G q._.$Xq 7 I ! } S.G.7.S.c.7.>.o.6 W +.=.:.i.XX$Xr.,.w.,.>.r.-.s.C.w.:.1.-.-.M g r.,.w.q.X.b s b X.w.C.q.V q.b m M X.b g j M b g V =./.0 $ ",
"k F @XA g M M m B M n m x m e.A A q.M.i.M.M.`.'.1X1Xi.q.i.e.G A e.`.u.e.e.i.q.e.A i.e.`.;Xi.w.u.w.y.u.^.o.T r.u.w.u.G m.:.|.K $ z ].gXu.~.i. . . .~.q.| n L e.+. . .o.E @.$.o.s.].g.>X1X@.r._.|._.#X*.q.i  .u.E.E.u._.~.q.A i.r.r.r.C.*.s.g.C.G.P.wX}.;XqXzXu.$ :.%XjX^._._.@XM.i.q.e.q.V.`.i.r.M._.e.|.~.L u.G V X.B A q.i.q.A `.`.e.G q.e.q.q.q.B A A A e.i.V G V q.q.i._.L _.^.~.L G ~.fX= o P { v.k.S.5.l.5.1.1.r. .-.E Y u.m.|.|.q.+.w.1.+.+.r.r.:.V M w.:.j b q =.+.:.M s b b  .b m :.=.6 u M V M M X.M e :.M b u :._.s % ",
"v u.0XH g g M B q.q.:.g 0 B q.q.q.A i.i.>.w.q.`.'.V.e.q.G i.i.i.i.q.e.].i.M.i.B q.i.e.M.e.s.s.=Xr.w.r.K ~.~.~.u.~.M L |._.|.L + 5 }.hX|.G  ... .u ).l | E.J L ).^.O.:./ $.$. .o. . .5.]._.|.@X@X/.^.1X~.u.X.).~.E.u.~.u.G G :.q.M >.%.] a.V.K.;XwX2X|.=X&XlXu.0 L tXuX|./.V.u.e./.L.V.:.e.i.i.e.].@X^.u.m.m.u.q.B A X.i.M.q.A q.M.V.q.G e.q.q.N ) b A A G V.e.V q.e.A G V.^.^.@Xq.t.^.e.].hX> . P k.z.F.S.l.3.5.,.1.>.o.V e E u.m.^.|.r.w.r.w.V V :.:.j M q.q h M =.s b V M M s x N b j M :.:.g w b N ( M =.=.e M b j h G ).s % ",
"X.^.*.8.M M B m b ..X.x 0 B M q.e.A q.A t n q.i.M.V.`.q.B q.e.M.q.i.q.w.i.M.q.q.`.e.J.M.^ ^ ^.f.~.^.1.u.r.m.u.~.).u./.^.].sX~.o 9 +XxX%XK ^...i ^.].t q u.^.G i  . .+.@.+.+./ +.O.O.i n ~.Q./.^.^.[.%X].^.u.^.%X^.^.@X~.~.e.A V 4.g.C.f.C.'.|.0XtX=X[.>XqXlXu.0 ^.ZXkX|.@X^.X.H ^.|.{.<.i.e.e.i.u.e.e.=.~.u.H q.G G G B A A q.i.e.i.e.i.e.e.e.G +.>.m x G G q.i.i.q.A G L y.u._.^.`.%X$X~.qXz   I H.z.J.J.R 5.d.r.i u ^ -.u.q G E._.C.V r.s.C.C.r.+.+.M ( ,.n b b g b b V =.V E 6 :.9 b M M =.=.M b ^ q r ^ t h M M X.A r ..7 # ",
"Z i.-XV h f V M q 6 m A b g B A G q b X.B q.q.E A q.M.V.G X.i.`.V e.r.V A G r.V.i.M Q o.*Xi.e.b F 1.@.~.r.,.=.u.u.~.u.X.X.eX .7 A hXgX@XL _.@XL ~.~.i n K K ~.N t  .n n n i.+.+.+. ...| 6X|.V.^.V.r._.>XG ~.|.=X]./._.~.L G V A :.r.C.M.^.|.|.=X|.6X_._.6XjXu.0 ^.jXkX|. XM.G G ,.r.r.e.e.e.q.`.r.~.L F w.v :.e.x M e.M.e.q.V.i.V.i.G e.G e.e.A q.V.`.e.x B q.q.+.n G F ~.~.u.6X'.~.^.|.L &X7 X P j.k.*XQ W  .{.O.u >.r.r.|._._._.~.e.s +.r.r.r.a.+.V V +.M b q s b b M b  .w.n m V V m b b M M M =.M 6 g ( 6 t M n M ^.G 0.0 # ",
"b g.qX+.r h h X.m g g A X.m m m B q u m m N x b e.i.e.M.A M e.i.i.+.V N M O.i.i.q.G n b A A M q  .i.,.~.e.+._.u.~.^.V.:.G 1Xq.0 :.ZXDX&X~.~._.).G J ~.~.R.L ~.).G L l e.u X.$.+.@.@.5.O.q.^.~.q.m.r._.u.|.;XC.i.Z.|.@X^.,.L e.q.r.s.C.^.u.u._.+X6X@X)./..XgXK $ ~.wXlX>X/.G B G A ^.^.q.`.i.M.].^.r.V.=.Z v ~.u.L A G M.q.q.M.M.`.i.G G q.e.e.q.M.M.M.A o.A G G e.q.G E.G G G $X`./.]._.r.qX7 o I k.U.7.%.#.e.^.>.:.<.s.+.q.u./.^.e.+.g M +.s.c.:.V M V q.-.M , r b ( g b +.:.+.:.M ( g M ^ M e X.:.+.f j M j ^ i u M ^.:.#X% o ",
"x e.=Xq.6 b j X.t 1 f B V x x B w b b m m 0 s V q.r.`.i.A A A q.i.i.q.q.e.A q.G G q.e.A m V / h g =.^.~.V M _.|.~.~.~.~.L wX^.z F fXxX_.^.~.u.L u.L E.q 9 ~.^.~.u.e.u.u.u. .@.@.w.#...+.i._.l q.^.^.E.u.^.~.w.s.|.Q.%X_.E.:.V.^.@X#X_.V./.|.^.|.&X@X}.@XXXaX~.% L DXZX_.|.i.m B G ~.~.G e.i.`.M.{.r.=.A B F ~.|.u.x m e.M.i.G e.`.i.A X.q.b m i.V.e.q.N B M.V A e.e.n L u.V e.wX`.w.#X].M.fXs & U MX:X&.g.w.^.s.>.>.r.s.+.+.>.V M +.h f +.M :.w.V +.M b M >.w.M b h X.b ( b M r.+.b f b b +.+.e M b n b b t u n i u N =.G |.0 # ",
"N G >Xr.O.b X.i t e X.X.r.m x v q x m q.q.z a u b V V V e.n b M n ^.q.V M A q.e.A B r.n m N t w e.r.L V n G N |.p.i i._.y.0XV.k D gXxXE.u.m.u._.~.E.K L B s.i.L ^.u.~.q.~.@X#.` #. Xi.i w.E.@._.m.u._.e.H (.u.y.r.s.w.L u.w.V.|.#X|.^._./.i.`... ...|.#XqXBXr.a L gXzX^.q.G N G x B w.B G e.e.M.A./.=.=.,.u.L L F G u.M.^.i.q.q.i.e.e.q.q.G e.i.G A V q.M.].V.V  .u.u.8.+.@.i.wXa.i.$X:.b $Xv & U JXBXQ W i.|.V.X.M t w.M M +.b M :.M :.M M +.:.V b M s b =.r.o.w e , j X.h  .+.M g r ^ h -.>.3 g b t g ^ q >  .n n n u q y.# $ ",
"b :.$Xe.M :.e.A 6 t j q.e.X.B L u.m b t V b q w A b h b M b q.e.M e.V b t E n V +.b A b u 6 n N e.u.u.L E.L l b w.i u./.V.qXu.z :.lXxX|.u.u.^.[.~.L J L ^.;X|.H ~.N ~.).E._.>X^.].=XE.~.G L ~.E.u.G ~.G ).@XE.u O.y.A L r.A./.[.@X>X6X2X Xn |.i.i.N.r.|. XqXL z K uXxX^.i.i.q.M.q.e.V.u.L :.m.^.V.|.,.m u.~.F L B D ~.i.N u.i.i.V i.u.e.e.O.i.r.e.e.e.i.^.t.u.G u.|.~.^.e.i w.=X`.d.V.E G %X> o U UX:Xo.R w.>.n n M +.,.b +.:.r.r.V g M M M M j M ^ :.b g 1.r.:.u b b j M X.:.b h b s f ^ =.r.-.b j q f b V b B i b b u q  .# # ",
", ^  Xm m V m m m b p x m m L XX].t m q.e.n 6 i q.b x z m b h M g b e.V O.Q  .m M  .i t u w h V O.=.v J u.e. .u.q.i L ~.~.3Xu.z F aXaXs.q.e.e._.L ).~.G E._.+Xg.].e.N e.E.E.Z.A.@.n L H G :.B x F L w.t.L G u.w.r.r.M H V./.m.|.A.@X@XZ.Z.V./.[.[.A.i.u.~.%Xg.% G ZXxX^.oX`.A V `.`.V.{.r.F =.L F e.u.8.:.L G D F L ^.m.G G e.u.i.`.e.V V ^ :.q.e.q.i._.u.q.~.L ~.u.).~. .i ~.i.~.| t +.L [.5   P U.I.2.#.^ e +.M M :.<.r.s.<.:.V M X.:.w.M g g M <.:.+.w / :.b g b V b q b +.s g b b b b X.V o.^ b b f V J F u.i N M n | O.o . ",
"i  .>XM f f x h i x g p x x w.^.G q.V O.q.q.6 u V n s z m A q.b b G i. .E i X.m N M e q q n G A b m v L A A B L D G V._.|.uXM.0 N gXxX|././.r.^.F ~._.m.u.^.].d.e.L B ).n M A.d. . .V ).|.~.O.n K L ~.e.r.Z r.~.s.n.G =.r.u.Z.#X$X@X6X].s.+.e./.|.|._.u._.@XK % F ZXxX|.i.M.].r.e.5.r.`.^.B F G G y.^.m.u.u.G c F L ^.D r.e.G u.M.`.W E ....n q.q.G ~.^.~.^.G F u.F L  .+.^.e.| i. .O.e.n #.> > R #.x.6.6...n >.M M r.M =.r.M X.b M >.:.+.g g +.,.X.e :.>.V j r h m b b g q b b M :.u u g f s q j  .M ^ r.u.l =.i l n i n *.> o ",
"H e.g.M x , m -.g g j j V @.@.F 9.q.A V X.+.w u b q z B e.G m f B i.M.e.V M q.O.m @.j x M 6 x q.M G u.e.B B v B F ^.^.G  X-X~ & : I.Y.].~.^.m.).~._.n >.G ~.).~.G G L G  .e.m.r._.8.e._.^.L M L u.L u.E.J F =.:.:.u.=.C 8.^.|.1X#X[.qX%X^._.^.^._.qX^.~._.uXK $ F %XlXXX~.u.].M.e.r.+.|.G G y.q.u.v F G V N G u.m.F O. .e.i.i.].^.e.W E  ...O.i.u.~.~.|.|.L u.e.L D J n /.i. .q.{.r.w.g.n p.6 : I h.G.@./ X.+.>.+.+.:.+.+.:.M +.M :.w.M g h b O.V o.E h w =.( b ^ b b b N ^ X.M b b g b b , 6 g e h ^ M N 8.G y.q.i u l ^.].z % ",
"D A qXA q 6 6 m n +.x m i.C.q.=.+.w.q.q.q.B g s g A B e.A x V M B M q.e.B +.e.G h j f , 6 N h i  .q.A u n N A G G L L V @.x.~ : 3 H.! i.^._.^.~.w.u.G ~.E w.e.^ ..7.].n i n W @.o.^.).H ).^.^.^.s.u.L ~.A G L w.L F M F +.=.N.#X>XA.=X>X@X|.[.|.+X~.m._.%XqXL 0 L ^.gX;X-./.^.H u.s.e.|.M o.u.L L c F b n b G V i  .'.w.~.i.:.G ^.u.V w / E i e.m.^.)._.^.L u.^.u.~.=.q.@.t E i.G V i g.e.V.q & ` AXP.O.[ >.:.X.M >.:.b +.:.M M O.>.:.g  .r f ^ M ( V 6 w j V j M m b :.V b j b s b s 9 b u w b , T M M 6 L E.~.w.u F J l  .5 % ",
"6 ^ gXF x 9 B V.q.e.A j '.V.M.~.e.~.u.>.x q b 6 x e.'.'.n z X.M A B M V s g h >.-.f j t h V :.m M q.Z w u 6 r.e.n H ~.^.e.U.-.o * J.Y.`.G L ].+XF u.u.u.i +.O.~.>X$X@X@.+.^.].| | y. .u._.@X_._.~.,.s.u.K u./.s.L J F =.,.u.F A..XC.d.L.A.C.A.^.|.|.^.e. X9XF # F u.qX/.r.^.~.e.u.e.]._./.e.q.=.F G L O.b q.m.n i  .O./.|.~.i L ~.:.e.G i.O.V q.9.u.|.~.u.G +.~.u.M.e.:.W E  .q.q.q.q.i.~. X6 X U 2XJ.s.<.>.X.u s ^ M >.C.s.:.g :.:.X.^ ( X.( M +.s u b 4.V =.m p b j r.,.M M =.f s f q s b u g V i j V :.u.~.8.G L D 8 9 M 5 # ",
"& 1 C.K G B A E q h  .q.:.-.r.].*. .^.V u b m z u x i.q.q.X.A f m e.G G q.q.A b q.@.M 4.@.+.X.x r m m m b X.q.n u C._.~.|.gXe . : [ eX|.F F e.|.L ^.i.L L V e.^._...6Xw...). ./ q.8.9.].w.$X[.^.e.u.L K u./.A.m.L y.A F L G V C.A.B.s.>.^ i.|.V.^.@X_.,.V.qXF # b C.qXL e.L ,.f.u.i.~.G i ~.L X.V.L N L e.m.V.i i i  ...+.~.~.u.n N B e.`.].i.w.@.9.G B G q.e.i.e.q.e.n w.V.+.V A i.q.~.@X5.r > U l.1X'.>.M 5.h b :.:.C.J.<.s.s.w.:.^ ^ ^ b O.7.>.h b s +.b V M M b b =.:.V q.q.s b j m f ^ b 1 E n V j :.:.A G B F h 9 q i o O ",
"& e *XG b t h , 6 f b X.V @.w.>.V.O.e.V A n b k z B q.N +.V e.G v G n b M e.q.f q.:.f 1 e  .e +.X.m j V x x g g m M G ^.XX7X .o : ' DX^.=.m G =.w.r./.u.u.u.~.s.~._.V.^.~.~...W +.@.y.^.y. X@X^.u.u.V.G L @Xr.L J L u.:.L A +.,.N.C.r.<.X.:.s.~._./.^.r.^.&XL % B Z.@XG A q.G L m.E.L L i q.G G i.B x G ^.w.i./.h W n E E u ^.N u u L i.].+.`.i.e.q.O.A q.:.q.q.q.q.G V q.q.i.i.V A e.L X.x.g & ~ I.x.-.,.V V :.-.:.<.=.o.>.T ` / X. .^ ^ f M >.-.:.X.b V b V =.f s x j :.:.V V b b m q M M h f h E V V ,.:.:.G u G F q 6 e o . ",
"& t 9XV r u r u M :.q.o.$.w.q.w. .O.:.i g A V m q V A V M b G h x q.N x z G q.f h e ^ e w i o.r.X.j N b x x x 0 v H <.|.^.fXu.5 : h.xX{.g G ~./.w.L m.J ~.G q.+.e.V.r.y.M 8.N t.+.|.^.]. X&X^.V.C.F :.L F L 8.F :.m.~.^.r.^./.].C.r.V.<.M X.=.~ n e.:.X.o.qXF 5 b e...h m V @.F u.~.~.G A q.r.e.G :.K F L i  .@.^...i.n V u.^.V t V w.^.L.i :.i.1X'.N q.e.r.A e.q.A B A q.V :.A V e.~.<.[ x.r & U H.K.M.M.,.:.=.V M :.<.$.<.h  .O.n ^ M n t :.>.( +.V V V V q.=.=.j N j =.=.m M m b b x b m +.V +.+.:.V V V M m q D F = x e.. . ",
"* 3 2.W i w 6 :.$.V q.1.W i h q.A r.q.n m m  .m M -.1.3.V m b b A G V s m m z m M X.r i 3 b t ..n e.X.q n n b q s v :.m.L #Xe.o 6 C.P.r.G ^.L u.L L E.E.~.u l G +.G E.~.i i b J u.L ~.~.r.[.[.~.F G w.:.L F L L /.V.u.u.~.u.m.V.w.<.A.>.i t g d.5.n X.) ^ 9XN # B 0X`.O.=.,.=.u.L u.m.w.r.u.u.u.+.V w.G N O./ E O.E +.y.p.M.u.~.G :.].s.e.e +.G e.`.q.B q.e.q.q.i.i.i.X.:.X.b 8 q.G q.~ o.l.m - U z.K.s.H B m e.+.b +.:.+.<.>.w.<.b e n ^ i >.>.( b V M b ^ <.~.i.V q.M V :.N b b b b m A :.r.:.i @.V M b  .M :.c S B 9 q e.k . ",
"& 3 C.i e 9 a.NX,X=Xx -.>.n g s V m j ^ V V Y b V q.q.+.@.V u V G m x m A A A B A g g f e N  .6.A B f  .V B s.-X'.M z L L qXL # s 7.hX>.q.G @XAXlXg.m |.t.n M G V J ~.K i V L L u.u.L ~.s.s.u.^.A F u.~.L F L r.r.r.u.m.~.u.w.r.C./.^.6.>.^ P.MX:XP.g n X.p.B $ F %X&XE.^.r.lXIXzX_.z +.H B 9 e.G x :.i b M i i @.+.i n +.i i E.e.|.'.V G h X.e.G e.i.r.r.e.i.q.B A r.M V r.2X0X4XoXs r j J.x X U } { w.B ^.3X=X-X>.X.+.<.>.:.:.<.g , , t ^ n M +.:.>.V :.X.X.B u.r.A V f s X.b b m B w.u.V  .V r.h M n m :.0Xa.h.L z 6 7 :.+ . ",
": h 1Xw , g x.1 8 -XM j >.+.b b u 1 6 u g b , t x s A m O.0 B A +.p.G N G i.i.q.e.A ^ u t V A q.A M m  .A V.eX% q &.N s m  Xu.z m l.5.X.M.i.DXv c ;XL w.u.G e.w.L u.V.~.q.~.q.| i n g.V.r.C.~.[.C.u.V.|._.r.L L /.C.m.V.m.,.u.1X|./.^.g.X.>.4X7 u BXM g y.].B # B #X&XF :.).zXF F %Xc B F L F F /.V.u.j e u M n +.w.n  .o.+.i n >X].G e.e.O.=.G ^.M.V.V.V.i.G e.A m M A A [.*Xx G zXF f X.0Xr & I } U o.q.AX X0 n C.s +.<.M V M s.M w e u u =.>.w.r.V.w.:.r f f <.e g s b b V f m F F D B e.@.:.q.b V n m V.r.5 V  X0 u 6 X.. . ",
"* t 2Xw = b x.g i 5Xh h :.r.w.A g w w h X.q b e.A 1 6 e y A i.e.A e.i.G X.e.e.m A j +.O.A m M A G X.b m x [.;X7 m aXm s M [.L 5 : U H.r.~.m.DXB u 0.i.G s.n V  .^.~.^.|.).q. .+.).^././.A.|.|.1X&X%X|.qX%X/.~.~.XX>X].A./.u.|.$X1XA.C.s.-.s.:Xn >.SX/ t g.%XF # g ` uXu.u.%X&Xc F fXB v F L :.r.C u.q.h i q.+.q q i i o.+.+. .{.C.e.V +.X.x X.e.M.M.V.].`.V.G G e.:.X.,.q.[.1XB i.FXK M :.L.1 : U } } ~ A '. XB g.4Xs M 1.:.<.:.<.>.w i n h o.+.r.,.r.r.V m X.X.>.:.6 B A :.A B b G K v v L E O.V V q.n m ^.t 5 G / % 7 6 T o X ",
"& 3 0XA =.g w.5Xj.l.r w w Y n g.^ h , u s.p.q.q.V e V n b r.i G B +.G X.Z G Z v G e.q.A m q q w B A B N x x '.1XwX[.# M B oXB X = [ c. .i.G 0X-XzXc.6 G ^.n r.e.C.u.L _.L F V +.l +X^.u.$Xw.c.1XqX&X%X%Xs.C.|.[.~.u._./.C.r.1X#X|.|.~.1.>.M G.:XVXG.5 ^ G  Xb # m ..3X:.r.L fX#XfX#Xz F L r.w.G M G n t e.u.v 6 w n n M o. .M r.G e.q.e :.e.G +.u.^.^. X'.i.e.e.q.q.q.e.i.q.2XwXZXV.m i.r.k.1 : U ! ! r.r.,.AXAXFXV.+.s.C.3.t ^ [ M w h M u n ^ V.,.:.r.X.V n n n :.n 9 h X.B M L L ~.D v F L b b G q.q.G b `.g.'.q & > u ( o . ",
"; $.k.n V b , g W ^ g  .u - h u i w , 6 w ~.u.q.V 3 q.q.i V b g A G G b A 9.m m V A m q b q x m m g x b b s 0 A B # q m 7 e.F . & ' K.X.:.V G q.G z q L n t m./.r.u.:.E n J m b i L u.N ~.e.d.^.^.|./.u.m.G V./.C.u.u.~./.L u.V./.~.,.[ -.X.q h f 6 T g q #Xu $ v Q.$XC <.~.K K F u v G ^.H u.K M r 6 E ^.y.i u n O.M n M i  .G G +.=.x u.i.r.W E E i.i.i.A e.w.r.q.q.q.V :.:.V b q ..i.oX%.: & U } ] M.[ j G e.m n >.6.5.o.E o.Y u 6 w X.h M X.w.s.r.V :.r.@.>.e.i.:.f >.V.=.n ~.L ^.L :.F K < w A V X.j 0 8 6 7 7 : : 3 )   . ",
"2 R *.B V ,.M M i X.r.V b i s 6 w M w , e +.>.t w i s.w.t e M b 8 N V g x G A M h q.A x  .V m q.A x m g o.N m s x z s A B @XL O * Q { o.:.:.:.v m G h V :.H =.^.~.G :.E s.~.H F K F  .b ,.r./.A.V.V.A.F :.B w.V.m.r.y.V.V.r.^.m._.].X.X.o.o.X.^ / o.u M F gXN O z ;XfX:.r.+.H F c v :.G L =.u.G b h M b M u.C.~. .w.@.+. .i e.~.M.u.+.x r.{.*.@.i...i.n u.q.i.V.r.q.q.A M V V b :.:.+.^.|.' < & U vXG.-.^ t X.M q.p.s.:.` ~ ..>.M ^ , , w f >.+.Y i N b r.e.n <.r.>.,.G u.C.u.L /.i.u.u.u.u.q.N M B G V j q.N : q M +.< ; U X X ",
"I P 5.L ~.q.t h E Y M :.u.^.@.w i V +.b :.>.+.j  .W r.V.'.E b b A M c F F ~.e.M :.q.m A X.X.m e.e.b >.A G G 9.B u.i.q.G _.=Xb o : U z.4.$.w.g.-.V.>./.m.^.m.Z ^.V.N.~.G :.~.).(.L J L u.E.u.m.^.n.u.C.^.^.y.s.Z.y.r.V.N.^.y.}.~.}./.e.X.X.X.s.i.<.u.K B L &XL # z _.gX~.V.<.:.L M F F F w.=.,.A :.H :.G O.E m.i. .M  .e.+. .:.T O.+.@.`.|.1X^. X^.~.|.$X^.i.i.i.i.b A @.w w m O.,.:.q.>.M.{ - : U bXk.Y ^ t 2 ^ p.w.1.>.@./ Q $.r f h u q u M M O.e V A s.A +.g.w.w.i.e.m b M ^ N ~.~.L ~.u.M A X.M m 3 X.i.X.h g u X.g & I     ",
"I ' U.] 0XqXL.l.2.1.0.A.@X#XqXjXqXW ..G.$./ $.d.5.#.r.M. Xj.s.M.@X%Xs.s. XtX#X1XfX&X_.&X/.^.~.@X@Xu.a./.^.M.M.@XqX#X#X|.i.=Xf X * U U.j.{ G.=XV.C.C.0X X>.].#XfXgXuX#X%X+X].gXfXsX{.|.|.%X%XqXqXaXtXqXgXgX&X>X0XqXiXaXuX3XqXgX&XqX#XfXqX9X$X&XqX2XfXuX&XqX&XF $ z ^.gX&XqX2XA._.C.L ~.).]._.|./.|.|.g / ^.XX$XoX*.Q R W h.$X#X*.9XqXc.c.:XU.gX9X5.J.d.fX&XfX&Xi.XXi.^.}.E  .^.~.i./.@Xi.I.,X< : U bXU U U Q Q ' >XC.I.qX9X*X:Xk.[ Y ~ ^ ^ n X.6.g.].].`.`.M.`.2XoXM.#X Xs.*X|.J.p.~./._.&X[.i.i.s.U 6.U >.w.-.1.5.o.t ^ ' I & X ",
"U ` * u u.L r.w.3.:.M X.M F t.~.G b b M M ^ s u n L F M G u.r.s. .^ j t h j X.:.M X.V L L y.u.B.f.M L ~.L y.~.|.i.^._.+.M o.~ X * ' ' h ) U o.h f T ^ >.2 < X.~.m.u.K R.~.D u.G J F F L ~.^.^.~.E.~.L ~.^.G L u.L u.^.~.^.N.m.F H L ~./.^.K F G K u.V.G L A F + z ~.u.u.V.A.~.^.L ^.~.~.r.^.E | n ).~.~.m.n e e e o.@.Y R / ^ i.Y 6. XW 6.[ s.@.i.<.^ e.^._.u.L V V F <.i b < 3 ~ ) X.B q.I I : U U I 2 2 t T I ^ p.O.~.#Xs.+. .^ 1 6 t 1 b +.r.e.q.e h =.^ M ,.+.u >.>.) w.~._.B u.:.E.~.:.h A r.~ >./ -.<.T 2 T / e r t 2 - & ",
"I & o % # # % z > 5 # $ 5 $ # 0 % 5 7 # o . X # o o X   X o + X . O o o o o = > > X & X X o o o + O # + + # O 5 # > o > & X - * 2 2 X X   X X X X & X o . . + # $ % % % + # $ $ $ 5 $ % % $ $ $ % % % % 7 # % % # % % % % $ $ $ % s 0 z % $ % $ % 5 $ # # # # + v u 5 % 0 s z % $ % 0 # # 0 q # o z c z 7 o & & > > + > > X > > X X : , 8 < 1 , : > 7 7 9 q # 5 > # o o o o . . X o z % 7 & - < 2 * & & & & & > a v z z :.v q 5 > o o o o + 6 5 o X X   &       X & &     6 z z s c z % O X X # # = a 6 7 6 &   & & & X & & - * ",
"P 2 m =.f q m M I * * j u.A x v 8 * * * ; * * & * 2 P * ; ; P I U I I I Q P I I I I U I I I I I 2 < P I 2 2 * < & & * ; * & < I I 3 < 1 < * : : & > > & , r & , J L u.s.o.s.x v Z m v B F v =.=.w.w.,.:.b z b ,.<.,.=.F B s.<.B D r.s.G c m A F M B c s z f q 7 m -.,.<.,.v ,.r.B =.<.=.,.B s.,.w.r.N.o.:.I e : 1 2 I I 1 < r Y I U ' { U U ! U U U U U U U U I 2 I P I < < & ; < < I e * < I U U * < 2 I 2 u ,.u.,.<.6.r.s.r.=.I * < I  .B =.~ R 2 2 P P ; ; 2 P 2 P & & b j r.s.s.s.$.P I I U I U U U I I I U ; * & < < < ; & ",
"* ' FXk.j.-X>X%.! { Q d.&X8X5X}.X.R U U U U Q t ~ k.P.B./ k.nX4XU.z.P.I.} { U z.4XY.:XP.{ U.H.z.K.G.k.z.z.G.%.k.' { z.F.z.k.nX` < } } } } { } ' ^ ' Y.=X:XrXMXnXaXAXuX:XK.ZXAX2XAXHXHXHXBX^.B.L.wX3XJXKXHXCXGXAXZXAXAXHXHXHXGX7XqXBX6X|.~._.%X&X1XrXwXwXBXSX3X7 s MXCXCXAXSXGXAXrXrXVXVXKXGXAX4XrX2XHXKXCXJ.CXL.[.{ z.MXT.wXFXAXFXVXNXSXBXVXJXVXBXVXNXMXY.mXnXmXmXmXcX! ! U ~ } { U j.{ ` I ! I } vXcX} } Y.0XjXJXSXBXHX4XzXzX*XMXF.nXCXCXBX$X9XwX*.nXz.nXz.F.4XI.x.3XC.{ #.-XwXCXHXHXmXCXCXgXwX! ! { } ! ! ! ! ! ' U ! } cX* X ",
"* ..FXk.z.c.aXI.=Xd. X2XlXqXqX].].B.].7.o.` C.s.3.P.iX X;XAXSXeX5X4XBXNXVX*X{ j.kXzXAXBXBXVXZXeXU.MXiX5X4X2X0X4XU.uXBXAXAXzXF.* : ! vX} z.{ } oX#X@XgXyXaX2X1X;XgXAXxXBXzXAXqX0XuXqXaXaXuX$XBXBX3XlXAXlXeXtXxXFXJXAXlXSXMXY.AXlXzXAXxXfXsXsXlXlXhXZXAXAXZXSX|.# s 3XCXHXaXAXSXgX&XqXaXlXxXuXZXaXaXuXBX4XwX=Xx.H.F.P.nXH.x.Y.NXz.bXbXvX{ bXCXCXNXnXNXVXFXAXBXZXGXVXNXNX:Xz.F.k.H.H.v.{ 2.{ } ! P U } } z.BXZXDXUXIXFXlXAXBX0XJXxXZXc.v.xXxXxXgXk.ZXlXI.AXBXgXlX0XgX1XMXqX1Xc.jXaXbXDXFXnXAXeXI.*X5X4XY.U.lXU.k.F.BXd.=Xz.{ } X   ",
"3 5.kX*.@.n u.n i T X.n u.].+.G u.B =.>.@.R o.B w.-.C.s.M.L.6.6.l.7.1.7.l.G.L.d.5.7.3.l.H.x.5.7.7.o.$.$.$.1.:.X.<.6.l.7.oX5X{ * < { I.C.A ( G u.r.:.q.m A r.V V e.A./.1X,X,Xu.^.E./._.N.N.F N.s.G =X[.Z.N.w.N.<X3X2X=X4X<XrX,XV.E.}.1XG H ^.C.$.V _.M.|.s.A.u.# 0 >XSXnXH.T.Z.s.e.~./.~.e.,.C.w.r.^.=XL.r.d.) X.) +.k.>.s.U.4.1.z.z.k.j.v.Y.NXnX{ } Y.G.H.H.l.d.rX4X4Xx.V.z.^ ^ 2.h X.6.R U I P U } A.L.iX3XV.@X&X_.|.,X2X].wX`.,X].$.2X>Xe.G e.=XC.B.2XwX|.~.%.i.>.l.q.A b i.qXG.9XaXc.,X&.n M 6.6.B.B.{.B.` ' ] T E i O.`     ",
"t p.lXw.w.i X...W o.^ i N ~.+. .N x :.:.s.-.X.A <.q.d.6.V -.6.K.H.5.5.H.G.l.7.l.x.7.7.7.l.l.l.5.$.1.<.H.2.2.R X.M 3.3.X.3.aXx.& < ! U.:.B F H X.e.r.q.M X.:.r.r.m s.r.=XL.=XL _.~.~.u.^.,.B A s.#X=X<.A.Z.y.N.,X2X5X>XY.<X<XL.>Xu.n 2X].w.XXC.Z.N.s.Q r.A XXV # ,.ZXSXrX<X<XL.>.8.|.^.:.u.n 8.~.C.~.=.r.,.6.[ ^ X.M >.X.$.v./ -.{ ] { { I.:XP.I.I.k.k.] l.l.j.x.x.BX,XM.i.s.^ M o.e h 1.R ' R P U { d.L.uXuX[.~.6X^.^.L.:X@X1X..z...| J.=XV G u.j.%.>XwX3X~.^.=X*.@.=Xw.w b O.;XJ.j.k.gXwX=X/.X.o.^ -.L.q.u.w.) / h 2 t 6.U > 6 ",
"q w.wXw.X.3 q r.].w.O.j r +.u.e.B q A :.r :.e.B A m 6.d.A d.G.x.l.6.7.l.l.H.G.G.U.l.l.H.l.l.7.3.1.7.6.H.l.%.Y 6.>.M X.X.+.I. X* ; { MX:.>.,.:.<.i.V q.q.=.:.r.q.q.s.[.qX>X=X~.~.~.~.i.^.L F F V.2X$Xr.C.=X:.,.5X3X>X3X5X3X5X>X2X_.q.a.d.s.N.O.#.>.w.o.r.=./.n o r.3XSXBXiX<XN.V.L F ,.u.C.M w.~.s.~.J s.X.) [ M X.X.-.1.d.*./ o.%.] ` Q I.H.J.l.5.H.-Xl.7.7.l.U.K.P.P.M.q.1.V s.<.h o.s.o.{ U I U } g.B.[.s. X@X|.~.N l.K.@X1Xr.c. .V 3Xi.e.r.M.H.d.w.3X>Xu.~.^. .q. X&X^.[.` %.7.I.aXuXC.=XL.A f ( X.h =.G q. ./ T T P < d.9 # ",
"t i.wXE R t ..:Xv.1XG i h Y g q.q.i A 6.b :.A m e.X.X.e.V 6.r.-.1.7.3.r.H.I.K.1.3.7.7.G.l.L.l./ Q l.o.l.H./ Q AXMX4XX.X.M F.P.& 1 l.MXr.r.H ,XeX XM.N V V i.V.V M r./.3X1X>X_.E.~.t.{.~.u.L =.V.2X1Xu.s.A.Z.N.,X,X,X5X5Xc.5X<X=X[.^./.w.N.,.jXeXc.qXw.u.:.6XG $ v 2XAXMX7XN.uXlXgX%Xv m.^.y.r.r.u.~.F q.M o.$.X.:.-.:.:.7.H.Q ] { Q %.{ z.G.U.c.W Y.l.@.G.l.U.MXMXwXP.e.e.X.2XnX4X>.n h.6.z.R I U } '.qXC.d.FXxXxX@XA k.2X_.=X5.j.@.t.B.i.i.V.u.l.-.7.,Xd.w.y.M.i.i.`  .%.[.c.d.d.s.5Xl.) 1.G.4., w b > s i.aXqXY.T f r.e. X4 # ",
"h =XlXt / t [.~ ^ l.-.3 i e b @.O.o.g.M A s.M u r.i.G.>.m d.d.V.G.G.3.7.U.P.7.6.1.7.1.6.5.7.7.o.7.R o.1.I.l.BXb ^ BXs.h M x.G.X < I.yXA H ^.zXx z `.V m V V >.e.e.C.A.|.|.[.~.i.~.m q.u.^.~.^.A.2XA.G L.A.B.>XT.H.A.>X5XK.eX5X=X^.E.^.n u.^.zXb F BXL u.V #XF # c }.AX4X>XqXJX;.,.zX:.:.^.:.V.s.r.r.G o.n $.3 T B.s.s.>.T k.-X*.{ j.z.z.nXz.} Y.x.k.{ C.Y.C.U.MX3X4X[.i.u.yXwX7 e.0Xb :.G.I.R I U -X#XA.L IXgXv _.DXL J.r.u.}.>Xf.@.%X`.r.V.V.i.{ o.G.L.9X#Xg.#X3Xf.` M @. .~.h.` ` %.{ Q ` x.$.3 e 6 w i `.^.s / *.6 <.=.].5 o ",
"M /.c.e ~ 3 C.h t $.^ w X.t X.n h  .E q.O.r.O.w :.6.d.+.V q.7.G.U.G.3.r.U.U.2.3.5.7.l.7.$.$.6.o.$./ t R H.J.5Xb :.BXM n s.J.M.X < Y.iXm.e.q.zXB m =Xm V q.C.r.q.~.2X|.1XA.C.m.G s.N.=.e.V./.Z.s.s.Z.u.A.L.V.L.<X2XL.,X5X5XeX=XC.r.~.y.~.^.).gXv u v.:.~.G /.F # F 1X4XJ.A.gXJXw.u.gX,.m.Z.u.r.V.N.|.r.) g X.3 M s.<.:.o.t Y.:XU.d.{ { z.Y.j.%.%.c.{ Y.Y.I.s.U.U.C.=XZ.'.q. XoX% O.1Xi X.4.z.R P U yX#XZ.F gX%Xu.qXDXf -X|.i.w.%X Xw.{.V.r.V.r.e.L.[.r.Z.1XqX].^.].*Xr.w.~.L E.N.k.` / ] R 2.j.i , w t E ( yX&Xm %.*., t t y., + ",
"u |.gXh o.( w.H.%.&.e 6 e W / V V n 6 q o.C.g.w b r.d.-.r.i.7.G.G.K.G.r.U.K.x.5.3.G.l.$.o.5.5.5.:.b b 7.H.1.s.4XBX,X# M s.C.>.X & L.xX|.i.q. X X XV.i A A e.4.>.J >XA.A.u.M.L G C.=X=X[.Z.A.L.s.C.A.N.A.C.G V.C.>X3X-X<XiX3XV.;Xs.w.:.q.~.G gXlXeXi.b ~.m./.B $ A lXAXA.[.^.wXIXIX#X=.r.C.A.,.~.^.|.:.) f h t n 6.s.:.X.<.Y.H.w.o.j.{ I.I.k.$.2.5.c.Y.Y.H.s.I.U.G.K.=X[.r.e.9X X2XM.q t >.k.r I ! xX%XXXs._.zXjXIXXXG L.@X^.~.$X&XXX`.r.M.V.e.i.=XC.:.i.p.*.y. XXX[.`.~.u.u.G 3.K.l. .W ~ 6.[ ) t t R M n f.v.c.zXV T r.,.C.5 o ",
"k |.aXO.o.1.h ( R T 1 u W ^ u u u 6 , b V e.e.q.G ,.d.M A q.7.6.d.K.r.M G.x.7.r.7.H.7.6.$.6.6.6.V s s =.l.$.q m ,.f q 1.7.H.Z.X * qXAXi.e.e.A m V z :.q.m m A N.^.L.C.V.u.u.m.V.s.N.XXA.A.>XC.V.C.6.s.r.s.^.Z.>XK.7X2X3X5X,X|.=XA.9.:.J R.L v ~.L s A u.w.|.F % ^.gXAX<X4X^.M 3X#X:.m.u.u.A.r.^.XX$X{.l.$.^ g M -.l.:.M X.l.6.:.:.o.] 7.s.7.$.I.{ v.I.I.I.H.H.L.x.C.x.r.:.q.+.G q g X.u 1.-X^ I [ lXsX6XJ./.V n L F ~.s.C.B.r.^.#XM +.w M >.i g.s.w.r.8.].^.^.w.@.^.1.g.G V :...l.l.n 1.x.G.7.7.( X.=.o.T M :.E G u Y N.r.i.7 % ",
"6 e.gXo.m.s.i h I ^ +.j b 3 i w t 6 , 6 m q.:.V e.r.6.E q.r.r.q.r.Z.7.r.C.G.x.V.6.3.3.r., ^ -.b V +.^ o.l.o.M b M 3.:.1.3.x.B.- :  XZXe.i.B q.A A q.r.A M q.d.s.~.s.w.m.V.e.L <.w.,X_.G Z.>X;X>XC.N.N.<.A.>X/.,XB.A.=X3X,X[.u.N H 9.L ~.~.L G G F V./.^.u._.F $ ^.qXZX,X5X>XL.C.m.~././.V.A.2X3X~.m.F =.) s.X.M X.X.o.Q s.J.J.+.>.d.{ %.s.5.) l.k.v.U.H.H.v.H.G.G.K.s.r.q.r.r.X.t u.i.w e wXr I [ jXe.@X9Xy.i.^...M _.%X=XC.^.i.i.A N +.g.V.i.q.<.u.3X8._.>X$X|.w.r.r.g.q.A +.@.k.G.V V 7.k.l.l.@.^ ) 1.l.>.[ %.2...` X.+.+.= # ",
"v u.3X .) 1.n X.>.-.=.g F N n i u , g v =.V.F e.i.i @.r.B.G.G.V.g.r.r.G.K.x.K.C.s.C.-.V r 3 o.s.3.+.( 1.5.5.<.M +.3.M +.3.Y.s.= < -.aXM.e.<.A i.A q.q.x M @.r.B.H r.C.V.m.L B r.C.5X~.L [.~.=X>X/.[.N.B.,X3XN.A.,X>Xu.C.6X>XV.w.q.u.u.L |.F ~.L ~.~._.~.L &XF # A uXZX>XhX,XL.=XV.u.u.#X[.aX[.^.A.|._.N.^ :.<.b X.M M <.I.U.J.C.:.k.Q 7.H.s.<.l.G.Y.I.H.d.l.I.-X=XC.r.>.w.:.r.q.E i.].V q.2Xu ; ' 0X..|.).M.O.&X XM N $X#Xd.&Xw.:.e.i.w.@.s.i.>.o.O.|.e.u.u.<.r.:.@.6.w.w.>.Q g.P.G.V -.Y.F.7.7.1.E 2.2.Q W Q j.` E ` Q q._.# % ",
"l p.hXy.>.o.9.e.4.R h e | G A B x g :.u.y.V.F F m.6 +.r.r.4.G.r.d.V.g.V.Z.s.Z.K.6.s.=.=.V i W <.1.3.X.o.o.<.3.V +.o.b ^ M C.e.+ & ) |.i.i.L.B.G.6.d.G.7.d.7.6.=Xw.[.2X^.|.^.F u...j.u.u.w.~.A.L._.C.s.C.C.3XC.>X>X2XE.N.,X2X/.w.,.:.+.^._.~.+X~.L ^./.L ~.jXL # H aXzX>X`.d.>X{.S.w.|.uXuX1Xu.C.N./.>XA.o.<.>.>.X.>.>.>.I.Y.r.C.J.S.%.l.C.x.-.x.B.H.I.U.l.w.U.L.C.C.d.g.L. .w.r./ i.W i ^ j.3 & ~ ;X'.|.+XXXb u.).).~.1X#X'.qX].i.V V q.+.>.>.O.w.+.` w.i.e.n e i r.$.O.q.r. .r.%.2.:.X.%.G.7.1.6.K.V.x.Q 1.2.` R V i.s.s. X0 # ",
":.7XFX X_.Q.w.s.C.h :.h i V G V D B Z ,.n.u.B :.^.M.:.6.4.r.G.q.r.V.q.Z.=XK.G.K.r.r.,...o.-.,.3.e 7.s.V 1.o.r.j X.( :.( ( w.i.> 6 X.>X>.i.d.B.K.e.V.K.d.B.>.B.A.r.r.N.u.u.r.:.M T $.r.,Xr.^.Z.7.r.N.N.C.C.>X|.3X=X6.i y.,X3X^.r.r./.y.~.u.~.|._.G @X|._.~.qXK % m.aXxXC.[.XX$X|.r.^.XXfXqX>XN.>XA.[.>X=Xo.<.5.C.:.2.<.M >.H.l.J.I.:XY.I.H.-XI.x.I.H.H.I.a.s.H.7.H.G.s.oX@X{.g.=X=Xr.n t t 5.1 * ^ j.g.~.@X).~._.^.~._.|.u.i. XC.w.G u :.V.X. .t i +.o.X.n [.w.E e 7.w.+.+.q.X.r.Q R V X.$.G.G.7.1.7./ ] 7./ Q ] Q -.e.e.>.Z.# $ ",
"q :.aXr.^.y.@.i.XXN.=.n L L y.w.B B :._.L F m w.^.].M.m q.r.K.:.7.G.q.a.G.A.G.P.i.G q.-.4.-.-.:.o.7.C.r.l.o.1.<.-.( f M b <.-.o & X.@X+.X.%.%.j.O.r.P.G.G.4.B.L.w.r.s.L u./.m C M Z.r.A.,.A.>XA.w.r.A.s.N.>X[.|.[.-.E }.3X;X..s.y.r.~._.L ^.^.~.~.^.|._.m.%X~.$ L aXzX1X1X/.$XtX^.&X$X_./.5X/.3X3X/.A.|.-.X.-.Z.<.s.>. .$.J.-Xs.C.U.s.H.s.p.I.x.I.H.B.I.C.G.s.I.Y.U.J.x.|.^./.` #./ E i h $.7 ; ^ 2.qXL +X~.~.].|.e.i.%X|.A.XXi E n t  .g.r.@.t t i h :.t V.C./ W #.t E @.+.O.+.1.X.b u 4.G.=X-.x.H.Q ^ 7.6.l.7.>.q.r.u.t i.> & ",
"< ) K.m.r.6.6.e.~.>.+.X.F z X.B B H |._.e.F D m w.G r. .V 4.k.5.7.d.G.r.c.r.r.L.N.A M e.r.=.V =.-.a.q.d.x.4.$.j s.o.g >.M >.M # - /  XH X.7.5.%.J.G.G.J.d.>.w.r.L w.s.:.w.~.F r.C =.r.C.y.r.A.L.v B r.N.r.r.A.A.L.=X<.y.>XV.t >. .N.N.~.~.|.~.~._.L L L ^.fX).$ L aXk.A.}.A.XX3XtX3X$X%X_.1X|.1X$Xr.>X}.{._./.3XJ.:.:.X.1.I.C.w.l.Y.I.C.Y.k.,Xx.J.Y.J.U.H.s.s.C.H.T.5.x.g.i ..W / E / W o.x.q * e ] hXH m.L ^.oX@X~.].|.|.=X1XG O.e...W @.q.>.n h h +.w.O.A :.i.:.V N M q.:.E +.t :.=.n X.o.:.^ Q l.1.) 6.o.7.G.:.X.s.:.~ 2.r > ",
"f %.F.C.O.6.y.O.r.e.L t.G w.b g A r.u.8.q.L /.F u.~.E.M b :.G.r.G.X.1.x.G.V.s.u.V.s.A >.d.d.X.=.>.1.V g.l.7.7.M o.+.M +.m >.m + , 6.*.m A G.7.$...G.G.V.7.A r.,.A y.w.G :.m.^./.A B y.y.N.r.Z.L.Z B ,.,.=.y.s.L.=Xs.w.w.L.~.q.L O.>./.y.C.].^.~.|.L L @.].`.m.% L aXeX/.>X>X^.$XuX$X^.^.~.A.^.qX_.^.XXC.V.|.{.>X|.s.q.d.G.=X-Xr.s.l.B.s.J.s.>.[ l.l.r.C.H.C.C.G.l.H.C.d.E t ^ i ^ ^  .W Q v.m * T 2XqX~.e.e.e.n |.%X~._.[.|.=X~.y.*.@...i n V.A V n r.g...>.r.r.M b m V b m q.7.3 W 7.-.X.%.:.X.2.3.7.1.1.o.7.7.>.6.d.>.>.d.0 # ",
"M c.NX ./ Z.^.i.s.y.L w.V.u.F M B A _.[.L v V.u.D G J v D V =XM C.o.:.G.,X>X^.M B +.r.G.s.7.=.1.x.s.X.,.-.w.g.1.+.b b M M <.M 5 , 2.0Xe.n ] R -.e X.4.d.d.s.L M F m.r.V m.L u.C.,.w.N.>.N.C.C.N.L y.:.u.r.:./.1X,XA.A.A.[./.u.L w.=.~.V.N.|.u.^.@X_.~.i.XXj.L % L 2XxX|.|.|._.#X&X@X@XtX@X[.@X_.[.1X>X=X^._.[.,.F u.|.A.=X=XfX_./.L.l.<.I.l.s.6.>.>.C.J.s.s.L.C.H.I.w.-.Y E i ..#.E w R $.H.M : h C.XX/.+.i e.i.>.[._.$X%.C.1X|.i.#.p.'.g.+.p.n V q.q.V.h r.r.r.b m n e.:.b m @.4.) >.j f.*.=.X.l.7.6.-.1.^ 1.7.7.J.:.b ^.&Xz 5 ",
"5 E bX/ >.|.%X|.:.s.8.8.=.:.G :.r.L ^.|.|.L u.,.w.F u.A A T l.@.r.7.B.A.2X>XC.q.( b 4.s.7.r.=.r.g.3.+.:.r.r.w.q.+.^ M r.r.6.:.O , ] qXr./ j.Q x.h =.o.7.B.w.L u.L ~.~.:.r.F :.N.^.w.s.4.r.C.,Xs.:.L F ^.|.:.r.C.A.,X|.=X;X|.V.E.~.y.L ~.u.r.~.~.~.).q.@.O.*.u.% F qXuXN.~._.~.@X@X&X%XtX#X>X%X~.XX1X[.m.m.~.=.L y.^.].=X|.[.1X|.|.@XL.>.I.H.C.f.:.s.J.s.s.o.s.p.J.-XM +.Y / T t / e 9 n 6.x.m & ^ z.#X/.].e.`.[.#.].|.2X=XL.3XB.w.w.].oXV.$.p.r.r.:.V V e.r.r. .X.V :.r.V b N m 6.2.r.-.C.~ n M ( 1.-.X.1.6.6.G.e.G.e.q.u.@Xc + ",
"m @.xX#.M _.|._.Z.A.~.8.G F M G ~.=.G ^.|.L B v =.u.G L G i >X6.Z.L.N.V.A.r.A ,.-.,.r.7.C.G.r.s.a.r.:.X.V q.r.q.V +.=.+.:.s.A # - R g.+.n 7.1.7.m X./ B. X@X:.w.L u.u.u.u.r.V.N.^.A.A.<.<.C.=XC.B B Z w.^.:.<.r.A.=X~.>XA.~./.^._.E.L u.^.r._.^.~.@Xn M.~.#XL % u.3XuXXX[.~.^.1X@X@X_._./.1X@X$X3XqXXX_.=.s.y.^.C.A.E.C.A.5X2X,X6X^.].q./ B.C./ w  .L.G.l.>.w.5.d.s.M M M w.Y r ..T :.m `.x.x & ^ -X$X^.~.u.G V.g.i.&.d.C.>XXXV w.^.~.].=X>.t h 4.V :.:.i.V.i.r.r.g.r.+.t X.g 3 3.s.r.C.B.r.r.-.,.1.6.o.1.o.6.G.V.B.r.6.n |.b # ",
"h m.eXe.W i.#XXX/._.[.^.~.L u.F L w.u.L ~.q.v B B A v r N A L.A.[.>XN.N.=XN.q.q.V q.q.3.s.d.w.X.r.7.w.j f =.w.m m w.V V V s.u.# : Q c.h 6 R 7.%.b t @.s.=X^.~.u.F ~.~.A L u.r.A.N.u.[ 9.r.r.=X/.A v ,.V./.w.u./.,X>Xr.>X^.~.E.)./.L u.G ^./.$X|._._.L ~._.gXK z ~.uXlX.X$X]./.@XZ.|.@X|.XX>X$X1XA.|.|.~.H r.V.~.r.s.[.A.A.|.=X,Xs.~.^.i.E Y ` { o.^ @.=.<.:.X.d.C.>.>.w.w.:.>.>.s.t e e.].eXv 0 b p.w.@Xi.L G q.q.q.6X-XL.s.~.+.` ..i.V.[.r.b b q.:.r.e.i.r.r.V.g.s.i.i.Z.r.j ^ 1.w.=Xp.s.-.:.-.o.-.1.1.1.X.4.7.G.s./ @...#Xa # ",
"1 r.k./.n |.~.u.~.L _.#X~.^.r.G F G i.L m W r.A L F b A ,.q ` 6.[.1X~.>XC.>.=.r.r.r.X.( :.-.=.:.r.o.:.1.b j +.x k N ,.V M s.G o & 3 2.:.h T o.E q.M.h.5.w.H G b J ~.Q.G A u.u.A.m.,.d.A.L.s.s.<.>.y.N.N.m.^.C.XX[.A.V.A.~.^.L _.V._.].u.].C.~.y.u.L ~.).L fXL $ m.jXlXr.XX_._..X^.N.)._.|._.A.XX|./.^.V.<.V.@X2X/.>XA.A.C.V.>XA./.E.@X$X,.W Q Q 2.*.E Y R M ^ ^ p.h.:.s.g.+.=.:.:.+.o.|.|.*X8 9 ^.lXgX].....@X@X_.L ~.A.}./.E.q.r.i.>.r.g.i.V q.i.q.M x q.:.w.G.Z.g.e.r.4.r.e t Y h g...o.R :.-.4.r.4.-.-.4.s.4.7.V.t Q G.#XX X ",
"3 #XAX@X^.N.G F u.r./.V.:.u.~.C.r.m.L B >.W /.|.u.>.B u ~.~./ ` +...B.C.<.s.X.q.d.V ( ,.V  .b r.r.X.-.r.:.X.O.m V V V V e.i.e > & I /.=.q.o.-.q.q.w.|.C.O.n ~.n z ^.).L ~.L w./.:.V.A.C.A.C.r.<.,.r.<.N.C.C.|.1X[.2X[.C.^.).~.~.u.u.~.^.^.C.w.F ^.~.^.~.F &XL % e.&XhXL |.#X|.|.{.A._.qXXX/.C.|./.^.~.~.r./.#X>X>X3X~.A.u.A.3X>XA.A.A.|.h.a.B.s.5.k.5.T ..s.W T w.C.s.w.b M :.>.M h M ^.qX'.9 c _.xXhX~.i ..i.@X^.~.].[.|.V.M.i.i.i.@.r.:.+.r.q.r.e.q.V q.V.4.4.i.p.r.q.E u X.e R @.h...@.Q -.4.-.:.7.,.6.4.%.x.G.:.M r.R :.+   ",
"r ^.qX^.r.w. .H ,.V.[./.V.A.u.r.,.r.^.=.u.:.w._.g w.m.+.u.|.|.s.C.<.N.r.s./.j -.w.-.m X.j j b r.-.:.+.:.7.b b b q.V A e.M.1.t X o e Z.^.X.6.o.9.e A +X1XE.J K L A u.L )._.G =.r.Z <.r.s.s.C.A.=.r.N.r./.C.u.^._.A.>X[.[.].[._./.V.L K ^./.A.A.u.u.u.w.L e.[.B % L &XlX^.[.[.|.@X>X_.m.1X@X|.A./.C.^.^.~.@X%X@X;X_.[.;X1X/.A.>X>XA.#X].].].C.J.>.#.5.1.E r.C.p.s.C.J.>.^ r g i >.:.b X.A ^.qXm x u.v.0.|.G G ^.@X|.~.@XM.}.qXV.i.C...+.q.V X.f.i.i.e.i.M.].B.e.s.V.@.+.r.r.w h h G.=X>.X.a./ V 6.:.X.6.q.1.4.1.1.-.V ^ o.Y @.# . ",
"u A @X=.=.G y.L G V.|.|.d.s.m.u.H G L u.^.E.M.u.:.y.^.i q.|.@X|.|.m.V./.).|.6.V q.-.:.X.b j ( s.4.r.r.-.w.m M A b f X.s.u.R t X & t 6.u.e.>.o.e.<.>./._.F u.L Z :.u.L ^.~.r.u.Z B r.C.N.Z.A.r.L r./.A.}././._._.C.|.=X>X~.~.{. X1X_.^._.V./._.~.~.~.~.~.X.oXm + q.qXlXV.@X].>X@X/.^.V.|.A.XX X1X|.|.&X&X^.[.qX$X;X>X3X$X[.[.|.2X>X%X).@X@XV.5.$.w.W p.s.w.E / s...w.>.e e u e e +.>.w.X.:.gXZ z G xXgX%X|.|.%X%X|._.Z.A.p.P.;X[.'.h.g.q.q.e.V.V.C.^.~.G ).M e.C.r.E i q.i.V M f s.j.4.-.V h :.3.A -.4.V 4.7.6.-.X.h 3 W E >.+ . ",
"g F 7XL :.F Z =.,.L V.^.L w M F B F u.u.V.e.^.e.O.>.~.e.w.i.^._._.C.L u.^._.q.b V b =.+.:.4.=.r.r.4.V.r.,.r.q.X.:.=.q.r.v >.~ X * ~ 2.g :.=.X.j >.=.=.N ~.^.u.v M X.G _.r.m.A r.w.s.=Xr.A.V.r.V.m.A.>X_.r.|.M._.XX=XXX6X_.|.].].].6X1X~.u.^.~.L ^._.).~.e.[.n X t $XjXV._.C.XX&X_./.XX@XXX%X[.=X#X$XtX&X_.@X&XtXXXqX/.u.[.;XXX1XA.%X_.t.e. X:Xg.|...Q s.d.s.h.s.^ =.:.:.r.M :.+.r.s.M >.s.B.m b ).xXZXXXq.E.%X..#...o.s.4.d.6.s...o.:.<.^.~.u.@X@X@X_.L ~.i.r.w.>.O.u q.r.X.m @.-.7.^ 7.-.h o.4.^ -.4.=.4.,.1.:.d.r.E ^ X.E 7 $ ",
"B u.qX:.B A :.Z.~.u.N.=.o.W M =.B w.r.^._.^.|.q.i @.i.i.|.L L u.^.M u.^.^.F V +.:.x f t :.1.:.r.r.r.g.V.s.s.r.A X.M V r.B ~.r   & / F.g A f X.X.m x j E N ~.u.A m M C G `.[.G r.V.V.A.s.A.A.A.L G C.>X_.y.].A._./.>X>X1X^.|.1X>X]._.=X/./.^.~.w.u.^.~.~.^.H.M X 2 <XZX~./.|.|.1X).~./.#XA.|.@X[.|.>XA.qX1X6XqXqX].;X/./.&X$XqXuX@X&Xe.q.e.&X%Xn ~.w.] p.C.a.d.f.C.:.n O.+.h w +.s.C.:.>.p.d.s 7 ).jX#XL F J G i O.n e.B.X.e.i. .@./ >./.@X^.~.|.^.~.$X&Xu.'.q.O.w. .r.i.e.V b X.J.4.j / X.Y n X./ 1.4.r.4.X.o.-.+.r.1.n h W 0 0 ",
"v ~.qX=.n ,.u._.^.A.[.h n u.u.:.L e.u.^.).L u.e.t.y.N r.}.H u.1X^.F L r.L r.A r.w.e m i b M M r.r.:.q.r.V.J.e.A :.g.,.q.A ].t X & X.P.u.X.v M b h m X.b M u.w.M v M u.V  .X.:.u.i.A.[.>XA.>X>X/.r.s..XA.|.y././.V._._.>X^._._.~.~.|.).~.|.^.).~.).~.^.^./.z.M o I :XiXL >X|.[.@X^.~._..X|.C.$XtX2X[.%XaX#X%X%X%X|.|._.@X&X%X@XqX%X@X%X^.u./._.i O.y.*.5.4.>.o.>.$.t i T :. .e T s.d.b g 6.H.q & r.&X#X).~.~.#.^ A M t -.B.:.X.q.r.g  .^.y.u.u.~._.~.~.u.q.e.A e.>.E g i.e.m b V.[.r.+.:.M e u @.=.=X4.=.X.=.4.[.w.r.1. .i / z $ ",
"b L #X~.F w.=.Z :.N G B F m j ~._.~.C.].E.F L X.X.i.M C.e. .w.$XN.~.).u.u.M.q.q.V.+.X.X.V M r.q.r.:.r.s.r.s.r.A =.r.r.:.M u.A o & r V.:.G A M q.q.M +.g H r.B B =.v :.G i G u./.C.C.=XoXQ.r.G M.M.M.>X/.}.u.y.].Q.G V.^.^.~.L L L ~.|.@X|.|.|.&XqX#X%X~.^.qXX.o e C.=Xu.|.@X_./.[.~.).>X$X[.fXwXqX>X1X3X6X].}.|.6X+X_._.qX#X@X%X_.@XqX~._.gX&Xw.O...#.&.*.s.s.w.O.s.W Y >.#.Q n t @.M t @.4.0 X 3 oX%XE.^.L ~. Xu.G e.e.^./.,.,.u.N.i.`.@XE.e.q.).~.B q.r.q.:.+.i.V.q.:.V x V V.u r.A V M w w -.M -.-.=.X.,.4.g.,.e o.L =.^.% # ",
"g ~.#XL F F B L u.t  .G x 6 W Z M u B A F w ^.:.y.i.w.d.^.@XC.#X>X^._.}.m.r.g.V r.e.V  .e b @.=.r.V 4.-.r.A r.V M j :.g.:.=Xe.o & j XXM A X.V e.e.x g g u.~.8.N w.=.v c :.r.~.|.s.[.&XN.V.{.i.].M.^.M.e.M.M e.s.A.u.m.u.~.u.u.u._.^._.|./.|..X@X&X%X|.~.~.fX+.X j K.d.u.|.6X[._.%XV.C.qX&X/.>X$X>XL.=X2XA.A.#X%X@X|.$X#XqX3X$X1X_.~.|.%X%X*X*.s...#./ #X;Xd.s.q.M s.h.r. .W ..X.$.#.>.^ ) X.s & , ;XfXL L F B B b w.u.V./.V.u.M N.XX^.@X~.L u.V ^.~.M G e.q.q.:.r.q.p.r.r.i.>.q. .e.n ( m ,.:.6.+.>.:.4.:.4.V.-.:.$./.i.~.|.% # ",
"v L #Xm.F F F H ~.+.q.:.Z m q J G w q B u.i ^ V =.w.6.h.@.Z.XX|.2X/.L ].i.:.C.q.:.m :.:.m X.q.X.=.@.r.q.=.q.q.e.e.q.V q.i.{.A o * t qXX.A X.x A X.M g G ~.w.y.L r.:.L e.u.^.~.^.L /.qX^.w.A M.M.e.u.e.e.G G e.e.i.~.E.r.^.^.G L =X[._.E.~.].@XC.m.^.M.^.~.gXv o ~ d.-X].;X|.#XfX&XV.].@X/.[.@X&X&XA.$X@XV./._._._.@X&X$X=X[.$X[.#X@X%X).+XV.C.4...o.E / @.w.>.^ X.w.s.^ n ..h.1.d.5.6.~ x.G.s > i #.@XL u.w.F F F u.:.}. ._./.N.u.s.G |.~.|.u.~./._.~.B i.`.e.V e.i.g.@.q.q.r.i q.i.i r.V i :.Z.>.,.6.:.-.7.G.r.>.oX[.q.^.qXa # ",
"B =.qX~.Z c b A G n N F A v =.u.O.e.F L ~.A B ^.G b M n i ~.L ,.;X~.^.i.7.:.r.d.,.m V V b f :.r.:.r.A V r.q.V q.r.q.M A u.'.G + > Y '.M V +.V i 9 A m a q.G F ~.~.~.q.X.w.r.~.m.B ~.>Xu.A X.i.M.G e.M.G e.i.G s.`.^./.C.~.u.u.L m.A._.L E.~._.A.[.~.].@X|.jXV 7 :.BXxX}._.^.|.qX|.^.V.#X@X#X|.[.@X%X%X6X{.C.@X@X|.@X_._.[.C.].%XqXqXfX|.`.C.C.Q >.>. .O.O.w.:. ...s.s.r.n Y O.w W ..>.E ` 1.c & ~ '.&X~.).~.E.~.@X|.B m.q.~.].w.6Xr.u./.K _.u.E.^.u.~.m.`.`.i.q.`.i.`.i.q.V V g V >.E E O.e :.r.q.@.:.6.X.>.-.o.L.>XC.~.>XqXa # ",
"0 B $XL B c v L O.n u.A ~.L e.r.Z +.m L /.X...^.j v :.@.G r.t.r.~.L A.V.r.1.:.q.q.=.M b b x :.W X.q.:.r.q.e.V.i.V A :.>.e.#Xe.+ , [ [.- f j 6 E e n x g L :.B ~.~.L i.i./.m.u.^.L r.A.y.q.e.M.^.G G M.u.e.u.G u.C.^.V.=.8.J ^._.u.L ^.^.~.^._.~.~.~.XX|.}.;XG z L JXDX~.|.C.@X&XXX^.^.XX_.].>X6X|.qX$X@X_._.#X|.%X%X)._./.N.].&XqX%X%Xi.C.d.` W W W Y w.r.:.M X.^ s.:.:.:...W W ` W  .-.n 4.q & I c.'.L H R.u.E.)._.~.L _.~.XX_. X^.|._.e.H ~.~.#X#X_.m.^.G i.e.r.'.^ M.#.E :.r.>.W #.^ o.Y :.q.r.,.>.4.:.V ,.r.C.|.A.@X+.`.0 # ",
"z =.qXu.c b c ~.@X/.^.F ~.F n u.g G ~.^.~.w.E 9.i q.M w.L u.V.^.B :.~.V.V.i.r.r.r.V O.u.m.A u.<.N b A =.q.i.C.`.r.A B.i.,.#XG X 6 :.J.6 M n s f n q.A N G ~.u.{._._.u./.+X~.u.~.F ,.^./.e.i.i.e.L F ^.M.i.i.u.u.{._.>Xr.y.F B [./.~.^.m.^.u.^.].~.u.]._.L fX8.z L ;XgX&XqX{.>X&X@X}._._.^._.2X1X_.1X%X_.|.|.|.@X|.+X@X|.V.C.@X&X&X@X].>.C.C.s.o.4.f.4.>.s.w.s.@.o.+.n i V ....s.J.$.s...@.k.- & +.*.;X_.u.L u. X^._.q.V |.|._.;X XXXe.^.].~._._.~.~.u.:.~.G =.r.r.w.b i.:.i ,.:.M :.i i M ,.:.r.g.e.:.-.-.V s.V.V.m.|.^.H /.0 # ",
"v V.3XF s v v L t.b v m t F G r.G u.O.e.8.w.u.V :.F r i n w.q.|.L ^.u.L.V.r.V.r.n X.:.C.>X~.=.M :.G O.,.:.V i.`.r.:.:.e.H O.u X & 1.J.b X.M q.r.V V A q.B _.~.H F _.^.|.u.u.u.u.w.u.s.]._.^.{./._.).E.u.^.M.e.G {.}.].A.u.w.~.[.A.V._.~.~.N.V./.{.m./.^.u.qXG 0 ^.dXtX^.qXi.|.3X_.@X|.|.^.A.|._.)._.%X_.^.@X|.@X_._._.^.@X@X|.qX{._.[.*.<.s.g.w.:.s.7./ C.X.w.q. .M >.<.C.s...*.W Q >.E @.l.> o ~.h.jX|._.^.y.^.~.u.L ~.~.~.^.^.|.|.u.@X%X|.).u.^.|.|.|.^.L u.i.e.V e.q.:.V.r.@.V G./ u w V.e.e.r.r.r.6.,.=.u.1X1X>Xr.C M /.a $ ",
"Z V.3X:.q.m e.~.8.i v u.E x M e.u.V.$.^.q.=.A 0 m ~.M.E E e._.~.^.].:.u.V.V.g.e.M =.,.e.u.~.=.=.B m ]. X,.m V m X.A b M B n f o * <.C.s e Y g.i.:.:.V :.V e.+.N B L u.u.:.:.A u.e.e.s.^.].6X>X@X/.@X~.L M.M.G u././.[./.s.8./.r.u.L L ~.~.u.~././.~.^.^.~.fXL % ~.gXjX|.3X~.~.@X_.{. X^.L ~.~.).~.|.@X|._.|.@X&X%X).L ~._.~.).+X_.t.C.p.>.:.w.:.O.o.^ %.w.M V q. .X.w.w.:.V s.s.W / >.A w Q 9 % ~.fXgX~.^.@Xu.^.^.E.~.@X).E.E.^.^._._.|.+X~.~.G @X&X+X_.m.m.u.G e.q.e.e.r.V.:.@.>.` *.E Y E o.r.Z.C.r.,.+.h G 3X/.r.y.:.B _.0 $ ",
"Z M.oX+.w.j X.m V l F B u A i M r.w.=.b n G u.v u.u.~.].|.~.@X[.>X_.s.m.M e.r.=.M C A L L =.=.=.=.A ~.+X/.u.B X.q.X.m m , i f   > C.G.V M u X. .V q.q.A V  .s Z v u.^.w.w.L B m m G w.e.e.^.|.[.qXXX^.^.].].m.m.^.^./.V./.w.u.L u.K L J m.~.~.u.^.^.^.~.E.qXG 0 ~.qXuX=X1X/.|.@X~.r.^.m.H L _._._.%X/.@X@X).|.%X@X_.L ).%X~.^.~.^.@Xs.w.@.X.r.,.M e >.w.i :.V :.O.>.:.w.w.:.r. .g.r.V e e ] v % E.|.#XJ u.^.~.}._.^.).%X@XJ )._.u.~.).~.~.L M +.|.~.~.|._._.^.<.V.[.r.6.i.i.V o.d.g.V.E ..r.V.r.+.[.1.q.r.q.r./.r.r./.:.H 1Xa % ",
"B w.qXq.g M e.X.=.L i q :.X.8.@.X.X.w.B G R.J m y.G u._.|.M.:.V.i.e./.>Xi.m V.r.:.,.u.u.C.r.m.~.F b :.u.e.u.g.,.:.X.x f 7 e.f . o Y x.M ..M f s b g u 9 g s v Z v L ^.,.A u.G m x 9.q.i.M.u._.1X&X_.XX%X|.]._.|.}._.[.]._.;Xu.L :.~.~.B L ^._.|.=X].^.~.u.%X8.0 u.uXtXC.qXV._.|.L Z G ~.L L ~.E./.i.V _._.^.|.@X|.@Xe._._.~._.).^.|.r.+.d.$.w.C.r.h w.w.f.>.O.^ M n +.g.^ M  .W *.E n +.+.c.s z ^.%X_.y.y.Q.e.s.|.6X^.|.@X~.E.~.^.)._.~.=.H Z w.G L ^.u._._._.e.i.'.c.6.q.:.w.@.:.W A @.o.V q.g.V.d.i.e.,.^ u.V.V.m.V.=.>XtXs $ ",
"L r.d.e.X.q.u.r.m c , u =.f q.9.G V w.8.G K B q X.^.m.u._.i b F G F G `.V.:.X.@.>.=.<.M.C.L.>.s.s.q.i.g.m q.i.V :.:.b m v u.,   g ) 9Xs ) V :.X.h g 6 q s b A V B 8.A u.=.A B u i G G e.u.^.A.^.^.XX7X_.>X|._.~.;X>X;X>X;X[.G L /._._.y.u./.#X@X|.XX^.^.V.qXJ % u.aXgXV.uXu./.A.L u.G m.r.x  .{.^.~.).~.^.^.w.|.$X1XM./.[.|.^.|.%X%XoXr.r.s.n >.@.o.s.C.h.w.r.+.V m q w.<.,.s.>.M +.V :. .{.z z ).`.#Xs.W | l V.u.D _.^.|.).L ^.@X~._.L u.u.u.^.E.L _._.|.^.^.:.:.V.`.V.i.q.q.....E ^ :./ M g.s.'.1.X.V X.M r.|.#XV.A.m.,.XXv s ",
"m.^.1Xs.~.B B Z c 0 , u n G u.M =.u.V i b b S z v G m q b G i.e.:.:.V c.C.i.V X.s f =.:.X.X.^ X.q.q.i.q.V {.H x V.i.A m G i.:   g l.0Xm ^ w u b , 6 u b m q.i.A m N X.e.q.X.N m B G G A q.A.C._.^.^.|.|.@X|.^.^.^.C.[.].=X_.^.^.|.~.K ~.V.|.[.XX|./.^.~.V.uXJ % L dXsXXXtXs.V.|.g.^.~.>.m.V -._.|.^.^./.~.^.m.^.[.=X].%X^._.+X@X|.^.~.@X].r.+.n M >.s.C.s.s.s.M m M b V :.s.>.:.M V M M g '.a 0 G ^.y.8.W o.E O.O.i l ~.~._.^.|.~.L ^.L =.^.L u.~.E.].&X_.L e.q.i.i.V.i.w.w.1.l.o.@.^ / $.:.r.x.4.4.@.r.A :.u.|.C.r.C.m./.3XZ z ",
"m._.&Xu.~.B ^.e.m F F G n 9 6 t 4 n u F L ^.n F v z v c x q w r.V.V.g.[.Z.q.A f b m m V ,.A m :.V m V q.q._.~.X.V V A m A ~.8   > ~.U.V @.E m b r s q A B B A M m m g A X.V e.q.V V G :.i. X_.XX>X#X>X>X1X|.=X=X[.>X^.C.|.@XC./.~.J F ~.)._._.|.|.u.K m.~.qXF % L %XhX#X|.^.^.[.A.L ^.V.m.V.[.].A.^.q./.|.|.i.:.u._.r.|.i.^._.@X~.~.~.].&X|. Xy.w.s.r.s.s.w.w.+.V r.w.+.X.r.:.M f w.f.X.+.G.z > T ].@.N.B.1.W W q._./.e.L u.@.w.^./.C.Z V u.G v ).].B ~.%X].C.e.A f.i.i.7.@.o.1.O.o.-.6.M.q.M G.1.) 1.:.=.:.N.A.>.m r.r.r.$Xm a ",
"C =XjXF u.m.V./.A ,.u.F B 6 u A :.u.=.F F u.u b B z F ~.x q q.V q.i.r.C.r.V V N V b j V q.j A V.A m V r.q.u.H B b A <.M g e.t X & V.J.X.=. .r b f r m A N N m m A V m +.-.X.m A B m B e.e.Z.XX)./.>X|._.%X|._.|.>X_.~.^.^.|.^.).^.L E.~.R.K K ~.^.~.u.~.J @Xv % L fXjX/.|.^.Z.A.A.u.^./.u./.i._.u.u.i .X|._.XX].^._._.~.y.)._.|.~.~.^.~.].r.~.%XL.g.r.s.r.:.+.h r :.>.=.+.r.+.+.+.h g M >.x.0 o * %.`.O.N.o.#.f.e._.].#. .g.O...q.L ~.L [.u.A E.|.u.t.D ~.r.E +.V h.V.>.6.1.[ o.3.1.1.3./ e I S.1.) ) X.-.-./ q.:.o./.C.=.A.z 7 ",
"=.[.qX:.F A ^.B L F :.D A F L u.|.^.|.u.B L F v F F B ~.B @.r.:.X.:.:.V.r.q.i.r.V m V A r.V :.i.m b ,.e.u.L L F e.i.e.B v G g o : $XZ.( M o.m X.s , s x V V m m A B N B H V m m 0 u V A e.^.A.~.~.XXXX|._._.^.^.[.^.N./.|.^.XX$X^.t.^._.~.F u.|.u.).^.G F #Xv z L.zXgX^.).~.~.V.].>.u.~.m.i.s.~.V ^.@..X~.^.|.|.^.^.~._.w._.@X+X_.|._.~._.|.6X|.@X}.].6Xu.i.s.+.@.>.w.+.>.f.r.>. .M M g X.7.8 o < 5.`.E o.o.>.e.e.q.i...w.e. .w.V M _.^.~.u.:.~.u.u.L 8.u.^.:.q.4.a.r.r.p.G.=.G.4.1.1.[ R R / k.4.[ ) ( j r.^ M N =.s.=.=.[.v s ",
"=.$XaXr.B L ~.n B F v F /.@X|.qX .i &Xp.t V B z B u.L u.w.A V r.V M n r.r.:.r.i.r.:.,.-.:.q.4.:.N V G m.r.,.~.u.^.<.A q.B u.q > : s.9Xj  .O.V m 0 w z x A B x x h X.M B A G A G M e.M.G e.e.u.r.s.[._.u.u.XX>X|.^.y.,.u.~.~.=X|.L E.@X).^.^._.^.r.~.^.K F @Xv x A.gXfX_.&X|._.3XqX~.m.~.V.A.A._.u.A.A.^.~.|._.^.XX$X].^.^.XX|.).|._.^.+.^.w.=Xe.~.~.^./._.%X=Xs.>.r.w.M M X.s.=.-.e.M +.+.d.9 o 2 C. X..4.w./.s.~.,.j n e.w u |.+.G |.^.~.r./.~.w.:.~.L _.i.@.4.' l.7.r.7.$.>.#.6.o.6./ R 1.4.7.3.1.o.^ b X.) f i t >.,.=.].g % ",
"s C.uXy.=.N.:.B  .M e.:.n A i @.g.n #XtX .i h V B B F L m.=.M r.:.b m q.r.V r.i.>.:.A :.A q.r ,.:.q.~.i u.V ^.u.r.B M r.e.C.( , 2 M oXb ( ^ ,.q.V m x V q.e.q.f g C m.g.L w.A A m B i.M.M.i._.A.^.~.^._._._.A.|.~.u.V.~.L L L u.~.@X%X|.L u.G ~.V.R.~.^.~.6Xc z ~.&XhX|.|._.|.@X|._.F ^ ~.^.u.^.XX=X[.r./.[.@X/.}.XXA.~.|.XX^.~._.).|.|.q.C.^._.K u.^.^.@X%X#X:.>.r.<.:.X.<.<.e.).~.G X.X.-.o o 2 k.gXf.6.-.e.r.X.r.n N G w n ]...B _._.u.^.~.L 8.V.].F ^.^.w.6./ G.%.o.7.E +.>.l.-.6.1.+.[ 2.l.7.1.( A A ( V X.A M ,.,.,.1Xs # ",
"z N.AXu.,.N.e.,./ / :.V m M t  .w.{.a.5.V X.:.q.G L K G u._.^.e.i.:.4.q.i.i.i.q.w.w.,.V V q.X.q.e.G O.t  .V C.~.^./.M.i.^.gX>., P A r.r ( ^ w.s.V b g m O.A w.:.r.u.C.).~.F M m m m e.M.i.~.@X|.^._.^._.~.u.m.^.^.V.u._.E.K F L ^./.^.u.^._.m.|._._._.[.}.qXc 0 r.gXlX~.^.~.L u.~.|.^.G /.~.e.|.@X/.=X^.[.>X^.G _.i.^.N.|._.^.L V.XX@X|._.%X].^.L G /._.|.@X|.V >.w.w.:.<.C.+.L _.~.J b M @.7 > 2 2. Xw.6.@.o.6.E N A.~.u e m.q.E q L ).L u.~.^._.6X[.%Xu.h 3.1.B.D.7.1.l.l._ q.r.1.4.3.1.[ _ F.7.o.( ,.-.i V X.,.N.r.M >.A.0 # ",
"v r.hXF =.N./ / H X.m X.V 4.i E >.].V.V.q.X.i.i.u.~.A m _.XXC.^.G :.r.:.:.r.r.:.w t m u M O.+.q.V.i.q.m.+.y.m.~.~._.e.r.i.oXq.> : M -.g ^ O.A A z u b x b X.v Z =.L L L L H B m q.u.C.{./.m._.|.^.V.~._./.^.N.y.C.~.L ^.L K L ^.V.u.A u./.~.u._.|.^.].1X_.qXc 7 ~.lXjX~.~.L u.~.^.V.%X~.[._.[.*Xd.W N m.>X|.~.V ~.|.u.M.^.u.K L ^._.|.^._.@X1X/.u.:.^.].[._.|.,.o.+.>.>.<.g.}.E.^.K S N >.s.k o * >.*.O.-.o.O._ w.G e.~.H V e.F u.G ~.~.L J r.~.L L ].Z.L  .s.1.W Y.7.7.l.D.k.r.r.1.3.k._ _ 1.H.3.q.A r.=.r m V A.A.V.A r.V.b 0 ",
"v <.kXu.r.|.>.G M V X.i E r./ W +.e.r.`.B.:.L ~.^.u.A F m.|.|.~.~.r.:.E W w.V.i.h r N b A ^ E N :.V G q.r.w.m.H :.u.A r.4.9X,.o = ) d.b M V m A ,.M X.b X.V.=.M u.G K y.L e.G M {.^._.^.^.~.~._._.A._.u.~.r.N.E.~.w.L u.L ~.)./.|.^._._.L ~.~.^.|._._.%X/ 0Xv # q.6XfXL ~.~.).^._.~.^.fXuX$X%X$X^.+. .D F _.~.G L  .$.Z.V.[.q.u.@X`.@X_.%X@X1X>X~.V._.XXA.^.6Xs.<.w.w.:.i./.).~.G L ^.:.s.d.7 + 2 2XoX:.q.X.q.1.^ i @.~.~.G L u.u.u.~.L ~.D F E.L ~.|.,.L o.s.g.6.G.G.1.l.Q R 3.S.3.3.[ k.1.6.S.7.4.r.g.6.X.o.o.=.:.6.:.r.oX0 # ",
"m N.uXG r.V.L :.X.V.i.+.e  .=X..@.XX[.2XK.O.~.K ^.e.V u.^.)._.^.#X|.i...%.g.s.>.i.r.q.:.:.r.A q.q.m =.,.,.M =.,.L =.>.r.r.qX~ > & o.[.f ^ j i V X.b s b =.[.^.y./.E.B B F B H :.].^.|.|._._.|.|.~.r.r.~.L w.r.~.~.u.E.~.L u.~._._.~.~.~.~.~.m.m..X/._.|.[.qXb % u.*XqX).E.~.}.).).~.^.1XxX|.@X%X].i ~.E.m.@X^.G K y.B.C.~.|.d.i.q.g.r.^.@X|.|.@X|.%X|.}.|.^.6X].f.d.s.q.w.u./.8.s.e.s.s.>.s.# o I [.yX>.A -.:.E $.R Q ~.|.u.~.L N u.^.^.L G K u.E.g./.w.:.r.s.V.>X,XG.1.[ R / k.S.5.k.%.7.3.1.l.7.,.-.1.r.X.r X.X.h :.m X.=X7 # ",
"g Z.tXu.u.,.C =.>.q.Z.r.e n r.{.|.qX3Xd.p.i s.H u.V.G e.u.:.L ,.|.%X~./.i.e.5.i  .r.+.t r.i.e.r.s.:.=.r A r.H m L u.q.,.V 9Xe.o < *.[.u ^ ( m f x m A b Z V./.V.u.L V G F v F g.^.V._.|._.^._.A.r.u.[.A.,.u.m.u._._.u.~./.Z.^.r._.^.^.E.L ~.^.~.|._.~.^.[.gXv 7 ^.lXgXG i.i M _._.^.|.qXqX=X|.^.^.>.L u.s.[.~.~._.^.^.^.~./.r.^ r.r.:.e.~.~.|.|.).@X>X|._.$X@X6X].[.M.u.=.M m.w.7.^ :.:.M d.# o e [.qX( o.X.f ..-.N.^ ~.M.e.^.:.V H t.F G L L u.E.E.^.e.X.4.C.A.B.H.7.k.k.k.z.F.l.7.3.b.3.2.3.3.1.@.j ( s.b , t X.( M h T 3X% + ",
"g C.$X:.e.=.m x s.=.V.r.b 6.].$X|.1XqX-. .[ ].~.N.s.G r.y.F r.u._.|.^.*.i i y.M.+.e.q.w M 3.q.V r.g.r.g j L m.G ,.e.X.:.A yX^.> 2 <.K.p ^ X.V X.b b f b V M.C.y.v F L L F 8.G r.^.~.[.^.^.^.~.V.u.r.^.m.w.u.m.:.m r.^.u.~.|.V.u.V.^.~.u.~.~.u.~.|.E.u.~.V.hXB % /.fX*.n E.G ^./.A.^.&XkXXXQ.A.^.r.u.u.V e./.^.^.G w.E %.n n t  .s.>.w.L u.)._.[.~._.@X[.@X1X%X#X^.^.u.H u.:.~.~.5.n V :.=.c.5 7 2 '.gXq.,.r.r.1.-.s.s.^./.,.^.^.F v D B ^.L u.~.g.q.r.,.X.V e.y.=.D.2.S.D.I.{ } S.B.G.S.B.N.N.3.h E X.V :.O.h w j b ( -.X.=X7 # ",
"M A.1Xb M =.:.b M =.i.r.e._.@X|.i.i.` i W ..[.Z.V.u.L u.=.M u./.E.E.e. .n O.^.~.~.].g.q.q.M ,.w.4.r.r.-.f h Z m Z M M M b ].e.> : ,.[.j M V i b b b b m m +.j f Z =.r.~.m u.u.w.|.).C./._.].^./.~.L ,.w.L ~.C.V.K q.^.L L V.V.:.L ).~.L L ~.m.,.u.L y.F L wXc % _.dXp.E.~.V.~.H u.@X$XlX~.e.N.V.m.~.L G V q.w.A M >.e Y b M h >.+.M G J :.L F E._.).%X&X%X|.1X@XV./.:.=.r.V.u.e.M g +.b ..d.0 # T 7.qXV.r.r.i.A k.y.s.~.w.~.~._.q.b F B F V.r.G +.q.m o.+.:.:.2._ D.S.7.S.I.{ } I.Z.H.L.L.N.6.3.Q / :.=.M O.V x b V g g X.#X7 # ",
"C 1X2XM q t e +.s.V 8.V.~.A u.^.^.<.|./ n 8.u.u.~.A.m.:.L ^._.~.L E.G G ^._.XX^.~.C.i.r.g n o.1.:.:.s.-.M s f M G q b V V [.e.o 1 ^. Xx b f b q.A 0 u V m f x x =.u.u.:.v A u.u.^.XX_._._.~.F ~.L /.L L ^.M V.^.q.L ~.u.y.L A.^.^.^.r.u.u.L b i.~.F u.8.:.fX9 o @.*XqXL G B E.#X&XC./.qX@X^.e.q.q.g.:.B m i.+.q w.w. .t M M b i w ,.L ~.L ~.L ~.|.|.|.@X>X|./.L.B.Z.].N.V.L ~.`.M j M b +.C.7 o I K.gXi.V.A M r.3.n r.r.8.F y.8.K :.D v c G =.<.@.h r ( o.1.o.7.S.F.3.Z.T.{ ` F.L.' S.*X7.6._ 4.o.r.6.:.( b :.C.:.f h (  .oXv s ",
"v C.qXB x h -X` ].G.b H ^.F V./.e.~.r.E i.L L m.L :.m.~._.).~.^.|.^.~.^.|.XX^.e.C.s.V.,.j 4.4.g.g.q.w.=.:.g s.C.r.r.q X.X.B.u.& q u.[.x q , ;X'.V.e.7 b A x s x q.^.m.,.u.L ~.L u././.|.L u.L L ^.^.L L L M Z :.B G m B :.].V.u.V.s.8.s.m.=.*.qXxX&XF A L #Xc # e.kXZXXX~.|.FX7XAXDX>X3X/.w.V.u.,.V F 8.V :.+.X.w.w.n e m M =.:.+.M.L L J ~.^.^.@X|.u.m.V.r.r.s.M :.C.|./.~.xX0X,X>.s :.:.x.u + 2 H.yXg.i.r.2XBXeXG.=.4.+.A f.w.L L N B u./.q.u.=.M  .o.X.+.1.l.7.F.7.B.o.l.-.T.L.S.T.] ' 6.6.3.r.6.>.+.( M 4X=X2X<.s :.>.qXa $ ",
"B [.gXx :.|.FX0 6 J.:.X.s.C.V.F n 1.w b B.q.i.u.y.,.u.u._.m.~.~.~.L ^.^.m.~.u.r.6.:.r.s.+.V.r.7.C.r.r.r.,.X.A.# 7 =Xs b >.C.X.& < i.%X6 1 i 4.7 x i.s g V m x m e.^.~.r._._.u.m =.w.=.u.J L L u.u.L :.J D v A G L L :.Z A V.:.^./.u.g.q.y./.gXz F DXD L ~.J.0 % ~.qXgXqX#XIXjXZ ~.IX^.A.|.M F L w.h N h o.+.M w.g.G.:.M M =.r.s.r.E.L J ^._.L ~.~._._./.w.w.s.>.:.:.u./.V.gX&X% :.-Xq :.q.[.r > I v.#X-.6.2XP.^ q.MX1.4.m.u.r.~.].|.u.~.6X%X/.M G X.X.3  .o.o.S._ k.7.4.3.;XC.S.L.Z.L.-.N.C./.<.V O.j g b ,.r.7 =.J.q +.u.$Xz 5 ",
"M m.fX/.m.:.xX:.A x.m s X.( F e.`. .M.u.e.:.G e.G G B u.;X|.K ~.r.L ^.^.[./.$X|.r.r.,.r.:.~./.u.V.:XC.:.X.:.=Xs +.4Xg j -.C.^ & < ..'.u n i &.q M [.0 x N x m A F G L ,.u.u.G V ( X.u.|.u.~.^.^.^.=.B L L u.:.J K ~.~.y.m.u.L w.r.u.^.+.u.*.h.c L xXv L L =Xz % r.gXyX{.>XzXgXb e.xXK |.1XG L B A w.g b :.n =.w.s.s.w.w.w.` s.V.|.^.~./.V.L ~.@X~.~.).|.i.=.r.s.:.+.].).u.qX&XB %XyXz m.V.uXv 7 h wXgX6.c.1X'.0 -.MX-.C.u.F y.y.u.).~...` *.@.i n =.=.V X.X.o.S.*.` 5.1.[ L.B.' ` L.C.1XV.y.s.r.( X.X.m s r.r.s -X2XM q.~.3Xc % ",
"m ^.&X,.|.m e.eX-X@.5 ^ r x j m.V M V.^.<.e.=.G V A q.^.V./.u./.u.X.m.L u./.#X|.q.>.s.V.V.|.s.A.M.i.M.V.X.X.V.5XBXs.9 r.M.6.A o ; o.c.G e.e W 9X1Xq.0 x m m Z :.G B O.:.L B =.j g b H ).~.~.~._./.u.K K L L m.Z K L :.L u.G r.u.r.u.G M 8.:.lXjXgXu.c L V g.u o n MX{ e.i.u.lXAX*Xu.w.|.L v B m =.b b :.+.e >.:.O.t V :.:.e M._.W.|.^.~.G F ~.^.|.^.^.^.u.u.=.+.+.:.i.L F L jXxXIXF B A.N.tXv a m.lXgX`.G.i.wX9XwXT.3.6.w.w.=.+.8.E.G  .~.i i / i i i q.M t -.l.7.%.a.^ E 2.Q H.b.C.S.C.N.r.r.y.8.:.q.( m s >.d.3XV b s.Z.>Xv % ",
"f 6.aXV.b ..u h 6 9 n h T h b :.g t X.M V X.e.G m =.H w.u.G ^.|.u.M G :.~.|.m.~.u.V.Z.V.r.u./.{.e.e.M.B.e.q.X.V s 7 X.s.|.B.G X 1 z.*X,.u.x > z O 7 V m =.L F =.:.F A w.F v m u g m ^.^.L u.A.[.V./.:.u.J F v :.m.u.G u.m.M e.u.w.L >.r.u.~.F K c c L ~.q.*., o ; k.{ f e.+.H L m G ^.~.m.z 0 m :.M b M V M X.:.V +.V V :.w G ^.+.V.q.u.L )._.~.~.~.N.y.F K q.X.X.) +.q.e.G X.u.v F r.N.~.fXb % m.ZXqX4.l.7.1.B O.) P.3.,.y.u.,.J ^./.i u.M =.q.i b L m.X.^ 1.7.$.Q r.r.w.C./ k.S.%.4.s.f.9.X.w.8.F M b ( b s s s X.e.u.~. X6 > ",
"< R 4Xr.:.>.A.s.( 1.o.^ t g G ^.A u t V V :.>.>.X.M M.L u u _.|.L ~.~.L L ^.^./.^.].[.`.G <.=X[.[.].M.V.r.w.r.M M M O.^ <.`.M   2 j.[.X.,.Z M x 7 V q.M w.e.F v B B F L F L e.f g v A ~.L L s.^.L Z.y.u.u.J Z A L ~.V.u.:.q.B ,.w.~.u.~.E.L V B b L F L L &Xq X ; 2.:XE  ./ ].^.i.|.).@X~.v =.6.X.g q 7 g M +.V u h M V e q.~.+.E ~.~.~.^.^./.~.E._.~.w.:.u.s.X.n X.n  .n M ^ M ,.A.V._.6XfXc % r.aXL.b.k.l.5.3.H 6.Z.B.-.w.y.6.X.u.~.n w.t B 8.u.L ~.9.X.6.6.$.R 7.q.i.o.N./ ' Z./ ] V.u.=. .3.=.h m V M s M :.,.M.|.r.b [ & o ",
"* R } ~ A o.:.b r / f r h M :.=.e.e.q./ X.X.X.X.X.-.q.H V ] e.).F F ~.m.F G u./.|.%XV.^.|.q.M.oX{.A ^.^.u.u.G X.X.E E i A '.m = I %.#.b G G =.F u.F =.F F F J D F G m.G F :.G x G F B L ~.u.u.u.~.Z.w.u.A.~.~.~.u.^.A.m.:.L F 8.M ~.E.u.~.u.q.N E.E.K ^.^.&X,   ; { %.T ] `.i._.@X@Xy.@XV.e.4.>.g q b b V G @.( e r V q.e.~.u./ G u.~.^.|.|./.u.L ).u.V./.V.u.M X.X.<.X.M o.( =.N.y._.r.[.qXz z M >X>XN.T.S.N.B.S.B.G.G.~ <.<.8.M =.r./ i E A B L :.~.u.O.X.1.%.2.S.s.N.s.y.$.#.%.C.L.L.V.w.F ) =.>.r.A s s @.G ^.{.A.w.o.' * X ",
"2 U ! I U U { / <.x.V.l.2.=X9XuXqX X1XC.k.5.2.1.-.7.G.yXqX*X&XfX_.~.@X@X_.qX$X&X&XqXtXaXuXoX9XwX1Xs.5.C.;X=X[.=X=Xl.4.V.].j.G z B 2X=Xf.p.@XoX>X#X_.@X[.@X&X&X%X$XqXqX>X@X%X>XXX_.%X&XqX0X].wXgXwX3XtXaX3X7X3X;X6X>XqXqX%X|._.^.^.%X|./.|.Q.+._.^.|.@X|...j., X 2 ! U { z.3XwXgXjX Xh.-X5X2X0.1X,X3X9XwX0X[.g.i.d.V.w...f.*.0.tX@XoXgXlXqX&XtX%X&XtXuXZXZXqX[.s.d.x.K.d.i. X4X0XqX;XqX>XwX[.a % M uX3X<XMX5XA.5XrXY.nXY.5X>XL.C.A.L.,X|.^.W A.>X#XA.}.1X|.,XT.MXbXnXl.4X7.P.rXU.%.rXMXMX<X6X>XL.C.{.oXyX{./.B.$.1X>X|.5.2.} &   ",
"I U 2 & : : 1 < 6 r s r m L u.u.:.B e u f j h n h f G ^.m u.^.~.Z F K K L ^.u.u.L L L ~.~.q.:.+.o.h n t T t ^ T r.q.e.q.h h L b N q.z v z 0 0 z 0 z v z 0 v m 0 z k z z c B B B c B v B F ,.G M Z y.L :.F A 8.=.L 8.:.J F :.B B L G 8.L A G x K F B m A 6 u 6   ; P * e M 1 m G M 2 3 r e 1 w 9 v s q s , u q 6 b q f q q q L F B w L ~.L F G G :.G |.V.^.:.G +.M V.r.V m h :.e.H L ).V.,.=.v % X.:.f M w.Z G ^.L F H F F G 9 6 N O.u.M B L u.L F b B B b v B b r F f = 6 5 a m v B ;.j m M M b b u > 6 w 0 5 6 M g > & & 3 < & ",
"2 * & & * & * X > , 7 0 0 z z b z 0 o   X o & & 7 z z z z a s a % % # $ z z a b z z z z 9 * X & * & * & * & & < < & & X & > q x c # $ $ $ $ % $ $ $ % 0 % $ % $ % $ $ $ % % % $ % # # % z s a % a s % 0 z 0 0 0 a $ % % 0 # $ $ 0 5 % z % $ % % # X X X X   & & * &   = - & > , & & & & X   X X > X &         X .     X # # 5 # $ # a % % % % 7 > o g g s 5 # # # s o   o % 0 % 5 $ 0 a # # b s r # + 5 a % 0 z z a 0 0 % % a % % a z b % % z $ # % # # % % % % o # s 7 5 o o % % % # % 0 $ 0 # 7 + X X X X X o o o   .   & * ; ",
"I ` T ' ^ @.>.:.~.V.N.u.r.L L e.A b m j X.G X.e.N.V.N.Z.1XL.C.L z =.A F b m :.e.M B =.<.r 2 1 R U I I U ! I 2 ` ' t I R ~ < B G ;.~.z g :.q.e.G F F F K V./.u.L L L A.s.w.r.<.M r.,.=.V.~.V.L L m.^.u.r.A./.A./.>XC.C.N.C.s.r.N.s.r.r.Z.A.A.C.>X' ~ ) I I U U P P I I I ! ! U U U U Q ! U t 2 ~ U ~ R U ; ; * P P P * j ..6 M <.r.>XC.N.q.F j n r.V.L ,.B g < : < I ` U 4.s.w.>.w.r.A.A b A F A u.C.u.N.N.s.H :.N.A.L.V.F m.L :.u.A.L.L.A.V.G g y.w.L F :.A M B X.+.^.w.X.w 6 E o.>.>.s.s.s.A.V.N.U U U ! U ' R U I U U I U U < ",
"=.L.GXBX<XU.MX<XHXCX2X5XHXKXVX3XL.T.VXVXVXVXBX5XwXrXiXAXGXBXrXVXVXBXBXVXP.CXNXU.K.>XqXiX4X[.i.=X4X5XP.NXiX=XbXmXZXrX,X2XP.' M.v ;.IXBXvXY.k.iXBXv.NXVXBXHXaXBXjXnXZXAXGXAXBXSXiXMXrXBXKXHXJXBXGXBXSXAXaXaXaXAXlXAXAXSXAXBXSXJXiXJXAXJXAXJXJXFXiXI.l.H.-XT.mXvXP U vXvXvXcXmXcX} cX! F.LXmXmXnXnXNXBXBXNXbX! z.bXvXmXHXY.z.rXrXKXKXKXKXKX4XMXMXk.:XxXeX4XY.{ k.z.] z.z.bX4XaXBX<X5XwXAX2X<X5X^.% :.AXaXaXaXSXDXAXAXVXAXSXNXBXFXSXGXUXGXHXSXeX2XVXiXwXZXMX>Xl.bXCXnXz.c.VXnXz.] j.BXVXMXVXVXVXiXeXH.z.bX} vXbX} ! vXvXvXvXcXvXU + ",
"g L qXaX>XXX@X[.%X@X&XuXAXAXuX1X>X>X@XqXdXuXgXaXlXaXBX5XlXBX&X#XqXwXqXqX-XY.J.J.L.qXwXlXwX4XH.v.U.:X5XZXZXgX:XlXaXiXqXaX5X#Xi.0 M hXFXd.z.z.yXgX0XaXgXfXhXzXlXZXlXjXZXBX:XqXAXhXwXaX X[.uXAXxXzXlXFXJXlXaXaXgXgXFXaXJXuXK.BXBXqXBXAXZXZXFXDXlXiXz.k.k.v.4XAX7.I U ! bXvXcXvXk.z.bXnXbXNXaXz.{ v.I.K.5XkX4Xv.j.c.c.nX:XgXwXqXqXFXZXaXxXkXH.{ j.U.J.0XMXH.=XC.9X0X].VXF.} F.aXaX^.fXBXtX&X#X$Xg % ~.hX1X#.4X-XuXZXAXBX0XC.'.;X8X*XhXJXbXBXZXjXlXuXgXqX@X[.#.5.1X:XuXMXqX6.C.p.'.'.ZXeXaXaXBX:X:XBX,XMXF.} nXF.z.bXvX} } vXvXvX2 o ",
"X s wXm.r.u.N.u.n.~.A.;X>X>X^.w.M s.=.=.r.>XZ.:.L A.=XN.A.2Xu.G u.L v ~.,.N.,.A =Xu.:.V.|.M.<.) q.A.m.L.=Xu.`.r.V.V.4.=.@.~.M z M *XlX6X`.V./.XX=X/.E.~.L E._.|._.u.>XC.V.^.,X/.C.C.L V.y.=XxXu.~.@X5XqXqXfX1Xu.2X1X3Xs.N.>XA.:.A.3X,XA.,XA.N.r.2.h 1 ' 5.Y.6.T P ! z.{ } { T { z.j.{ I.L.B.@.s.k.E ^.[.V.W R t i ` q.@.^.N u.x.2X1Xg.x.>. .o.>.@.+.<.q.G e.G M.V B.L.6.1.B.8.b e./.m.:.~.fXz # L uXr.E N.=.6.<X5X[.s.>.A e.G G #X2Xk.G.u.^._.g.V.:.w.B i X./ ` e.x.A.n B ..i e B.B.$.1.-.A.N.L.s.S.2.l.k.3.5.' ' ' ' ' { z.I   ",
"X r wXr.H C.A.u.N.XX=X|.>X|.#XV.F L.r.r.m.u.F G ~.A.A.1X[.2X^.~.~.^.u.~.e.r.M./.[.^.~.r.^.@Xi.s.|.V.,.A.C.e.V =.=.w.r.=.j w.F z m '.gX].C./.L r.^.~.L R.~.L ~.~.^.L >.{.n.u.>X[.3X|.m.m.V.qX3X^./.XX>X^._.@XlX~.A.~.2XA.3.L.N.+.N.1X1X=X=XV.C.L X.e e ] $.F.R T P ! Y.Q z.' / ' k.4.l.} A.,Xi.M.G.o.>.I.x.s.-...Q @.G +./ i %.j.3X>X#X2.X.B.<.<.s.r.:.w.q.q.:.s.q.G.L.Z.s.C.:.:.,.u.C.F L qXv # m 5XwXW 6.w.X.C.>XA.,./ i L F n ..N.s.,XE M u.u.V |.^.F h n j Q e.` W @.L o.M i x.6.d.1.o.A.y.` R l.$.k.%.3.-./ 1.[ o.3.7.I.< X ",
"* h oX=.r.N.u._.AX3X|.>X1X[.1X|.<.1.6.C.L L A u.^.[.1X^./.s.e.V./.~.q.~.u.L n.{.Z.#Xu.V.V./.q.^.^.e.^.>Xd.=.A s.s.:.:.+.:.d.q.0 C %XgXu.^.~.L &X&XL L ~.:.w.^.^.r.:.y.A.q.n.|..X$.V b r.C.A.A.^./.@X>Xr.^.~.[.&X1X_.qX~.N.C.r.w.A.A.>XA.C.r.V.%Xq.e t ) ~ k.~ 6 U { nXk.nX7.2.I.3X>.7.l.k.G.M.M.C.R Q #.k.r.s.@.C.5.i +.O.e.~./.,X1XJ.Q h s.s.1.s.w.s.g.w.r.r.q.q.G.7.6.d.w.<.~.u.<.:.F Z A.% % G C.` X.s.M N.JXuXN.r.y.,.^.|.[ $.O.X.5.W 6 r.u.r.V.,.e.:. .E ..6.q.W  .F :., O.N.N.3XZ.4.B.-.V.2.%.s.6.2.` 1.G.A.) ) ' 2.<X2 X ",
"& h $Xv :.A &XjXtXxX^.A C.L.N.N.7.7.X.C.V.Z H u.m.C.1XC.=XC.r.|.XXV.u.J L ~.>Xm.u.^.u.N.=XG.N.G.^.V.|.<.h s C.BX5XwX+.=.:.>.M z ,.qXjX~.L V.JXxXzXjXF u.J ^.].1X^.!.6._.C.{.A.G %. .M X.C.XX3X/.^.[.qX|.~.~.;XtXAXuX3X^.;XC.A./.A.=X2X1X1X2XUXxXl.` ~ $.h 7./ & P z.v.] z.%.BX2X=Xd.) / l.3.`.J.z.p./ / Q W ^ / x.6.u @.^ n 8.1X2X,XJ.I.w.M w.w.g.w.g.g.w.r.r.V :.V.q.:.V b 1X$XjXXXv :.m ].a # m >XqXV.w.W BXZXxXqXM ,.~.E W / ../ / C.C.u.q.q.5.M.M ..i.e.3...o.r.e.u.E h b u O.s.>Xd.1.s.W 1X,X,Xr.+.6.3.4XaXBXL./ ' B.4Xt X ",
"& m.wX:.:.H zXc Z fXqX,.A.L.r.V.s.S.( s./.:.~.u.H y.A.[.5XV.L ~.,.w.V.m.L u.^.w.m ,.u.H M >.d.N.4.M.r.-.o.s wXm s 4Xr.f M >.f z <.uXlX~.F %XDXc F xXF L _._.+X].^.e.=Xx.|.}.;X/.-Xq.m. X/.@X3X_._.qXuX&X_.@XqX&XiXBXiX_.|.6X=X=XC.=X3XaXJXJXzXm 7.NXj ' R z./ = P ! eXk.{ 3X5X^ ..=X4.$.P.%.+.7.C.M.>...W  .e.4.7.=Xu.M.@.q.^.P.c.A.XXK.C.w.g.r.C.r.g.r.M q.:.N +.U.x.o.3.r.[.$ v jXv M A qXc # =.uXjXC.r.xX5X1.C.zX8.,./. .t E / ` o.B.,Xy.V.^.5.e.O.i T X.s.A.@XV.V m.A.y.A B y.s.<.C.u.B.1X[.:XJ...w 7 5Xd.> ' JXr.{ L.3Xf X ",
"& =.uXw.A L jX~.m.zX^.F >XC.<.V.L 1.p j N.|.^.:.u.u.:.L C.A.r.s.M L ,.r.m.q.A ,.e.+.q.:.b b s.4.>.4.M V s q 5XM =.5X+.g h >.X.a r.lXlX_.^.%XPXL L xXc N u.~.~.y.u.Q.A.#.[.].C.1X3X8.qXhX^.~.[._.^.L.G.`._._.1XwX|.[.iX^.6X>X|.V./.2X=XaXaX].xXF l.JXo.z.k.k.h 1 I z.NX%.#.V.AX4.C.kX-.l.j.] e M B.V.:.e.r.+.:.=.5.B.G ~.^.^.~.%.%.2.1.5.q.b :.w.M h s.:.b M N V +.H.V.6.7.s.=X0 u.fXl F L fXF z ~.ZXSX$Xr.%XgX[ V.xXw.+.w.C =.i / W C.,X,X1.r.V.}._. . . ./.C.i.s.r.x r.].C.^.A G s.<.6.+.G.V.W k.U.E T B _.$Xg  XwXz r.G.1X( > ",
"5 :.3XC L r.^.fXgX%XB L .X>XN.V.:.y.Z <.-.r.6.q.=.m.r.A.=X#X).XXm.B r.=.e.i.m b :.M A A M A N.6.s.=.f j V b Z.2X5X-Xq b M 6.) a D 0XDX@XfX_.zXxXxX_.z ~.~.~.s.L }.~.].A.|.^.V.,.>X|.#X/.~.i.V.q.w.s.:.>.:.e.m.[.2X>XAX@X>X,X1X}.[.2X>XAX2XM gXxXMXX.t { nXl.h T U z.NX@.^ =.3XaX9Xr.X.L.3.q.b V r.r.( :.r.q.M ( :.s.V W.i.M.:.%.G.G.o.k.:.G q.5.M V :.V V M n >.w.s.:.=.X.a r.1XhXL z Z =.qXv c q.gXaX%X-.M $XBX8X5.n @.q.q.q.r.L o.V ` / =.r.s.o. .O.].i.~.>X{.A.C.G L.A.A.i.i.~.A.A.B.X.4.i.d.G.B.f X.M.F 9X2X=XX.v |.A.<X( = ",
"0 :.wX=.M =.M B Z B y.G A.3Xr.m.C.L.V.C.r.M.r.-.=.r.<.>X=XN.w.,.|.~.V.V.m.u.x j b b :.r.r.V =.V r.1.n =.w.r.M :.:.g M M b >.M 7 F fXlXqXjX$X_.L z c ~.:.m.e./.~.u.L /.2X_.r.N.[.uX~.M.M.r.:.q.+.=.:.:.M +.:.M.|.1X>XwXaX>X_.XX6X].AXiX5XL./.C.m ^ 8 j 2.o.{ O.t U { nXo.M.r.B.i.=.=.L.Z.B.e.+.b V ,.M =.3.M M ,.+.5. .V ~.^.w.M.J.d.~.>XW G +.8 b +.M V :.^ t r.:.q.:.:.:.b 7 m z v m.M m.uXv 7 ^ zXa.N.=.=.+.1./ i n / <./ t q / 3Xi Y 1.s.t @.6.E +.n j s.=XW 1.6.>.>X$Xr.G L w.>X3XG.g -.d.>.3 6.M w.X.B v F B :.m.[.1XBXM % ",
"b u.uXw.=.,.V./.A.V.u.L r.XX2X3XXXA.A.C.A.A.d.q.r.q.,.L.A.=.u.^.~.~.V.C.|.b m m :.m A s.C.r.r.=.V C.d.w.,.s.V =.:.>.+.V A ,X6.7 B fXlX|.hXqXXX~.K ~.L G r.m./.A F ~.u.=X|.|.1XxX`.:.M.V.V.w.r.r.r.w.<.+.M +.o.,.`.,X>X3XaX@X@X#XuXU.$.k.k.$.>.u [ -.X.2.) k.%.R U j.kXw.{. X-XoXU.P.=XP.G.>.i u V r.+.i 2.E X.@.+.g.%.u.^.].~.V.5.1XN.s. .>.1.w  .+.=.V b X.w.V.q.+.:.r.,.,.1.:.u.V.L w.].gXz #  .ZXwXu.,.<.r.5.%.i E 1.$.E e w x ,.E / / $.a.t 1.A.e.E F C.L.e E / ~.>X>Xu.[./.[.>X[.C.G 4.B.-.h >.V =.6.B.s.r.s.u.u.B.2XBXm % ",
"b m.uX~.u.:.V.A.A.A.|./.|.}.|._.V.>X=XH ~.|./.e.r.b :.A.1Xm.G G F L u.Z.G z m x A X.M @.B.7.G.C.7.s.7.4.4.=.( V ,.>.:.=.:.3XA.% f 1XgX_.aX2X/.^._.~.L L |.^.y.u.u._.|.[.XX;XhX0X<.A V.'.Z.r.C.C.s.d.<.s.>.p.s.$.>.2.H.L.wX1X|.wXs.7.6.l.k.X.n  .2.-.>.6.>.K.r.B.! F.kXM.e.J.P.r.H.=XC.P.G.g 9 M M w.W T ] $.t t +.s.s.w.^.V.C.d.J.[./.>Xs.-.o.b  .=.:.:.V V r.r.q.^.e.:.,.q.r.i.u.~.N.=._.j.6 5 [.xXlX~.V.L >.l.] o. .J.1.E i T G >X1.w.7.$.C.M / s.6.q. .$.2.Y -.`.6X[.#X1XwXuX|.m.s.2XX.R s.s.o.=.X.6.7.B.s.Z.s.=.=.L.3XBXC a ",
"b e.uX:.:.~.^.V.A.|.A.|.^.XX1X|.V.[.].C./.V.].~.~.^./.3XuX_.L u.~.u.^.H v G :.M j =.V >.G.4.`.s.,XC.V.r.>.3.r.1.:.>.:.H :.$XL 5 r ' gX%XfX$X@X/.~.^.E.E.^._.).@X@X|.qX3X1X=X^.3X].V.'.V.V.s.C.r.s.C.<.s.w.>.s.p.<.2.2.>.B.5X1Xq.5.G.3.l.k.X.X.$.k.l.k.6.>.G.X.R ! v.z...d.] j.V.P.G.G.K.G.m A :.i M T  .2.O.t X.w.o...w.d.~.;X=X3XV.u.3X;Xr.:.=.:.@.M :.V M b b e.>X|.L u.e.e.~._.@Xm.G ~.*.k z V.BXlXi.qX^.^.j.' ^ -.7.$.E o. .i.4Xc.d.2.6.s.<.] 4.X.t w >.C.s.s.e.V./.[.@XqX$XF /.XXN.e / @.r.C.N.~ 7.G.B.6.B.N.w.,.A.uXBXM 0 ",
"s V.yX=.L ^.~._.3X>XXX3X[.~.=XV.d.6./.C./.A.u.~.^.XX_.[.=X~.y.G u.^.y.[.^.|.V.m x :.X.-.w.:.C.|.[.u.A.d.6.V.-.o.,.4.w.m.s.[.u.% G 2XzX@X_.tX|.[.~.~.E._.@X|.|.qX&X_.6X3X$X/.~.wX;Xq.V.Z.s.x.J.s.s.s.:.s.s.r.s.d.d.6.>.>.k.I.2.2.v.l.k.d.3.@.X.>.l.6.6.l.k.I.r 3 U 7.:X:.J.>XP.i.P.d.7.T.3.g t e.:.:.u n 7.i M V q.w.+.,.7.q.L.3XwX+.| L.2Xr.:. .M V r.>.V O.=.( >X$XtX[.u.u.~.~.).~.~.J J ^.z z ,XDX:X4.N V.C.L.6.e X.7.Y i @.O. .j.Y u %.j.7.K.K.2Xs.o.N.C.s.w.B.>XC.[.1XXX}.&X^.A.r.V.N.N.r.L.L.=.^ 4.B.J.B.B.L.6.s.L.3XiXb % ",
"s m.uXr._.~.V.@X1Xu.C.,XB.V s.A r.7.G ,.V./.,.u.L L |.V.V.A F :.M.{.u.|.~./.^.X.( ,.:.:.r.N.V.[./.Z M.s.6.r.q.+.s.e.y.~.s.=X/.0 v qXzX|.|.@X#X|.^.~.~.~._._._.C.~.~.@X6X|.].$X1XMXs.g.C.V.h.C.g.w.w.:.>.s.s.>.>.-.>.<.2.7.I.$.7.Y.F.2.>.>.6.o.X.7.d.6.6.1.d.h X.U U.iX+.w.G.K.V.G.d.4.K.:X:.w V V N u n >.t X.b M  .^ b n M r.3X>XC.i.4X5X=.V +.b n w.X.b -.w.b M.$X[.V.m.E.u.).@X+X|.u.G _.k 0 >XDXxX|.s...i.=X3X<.^ B./ / h ^ h / / h T %.] ` J.1X/.M.u.C.r.+.s.>XC.C.s./.~.^.@XA.<.<.{.C.s.3X3X<.N.X.4.G.6.7.L.=.>.L.,XiXg % ",
"b u.iXV._.^.~.^.C.=.V.G.s.,.r.m V 7.A =.s./.~.L u.L u.=.M F /.q.V.q.L /./.|.^.V.Z.q.:.r.7.7.B.r.N.X.:.r.B.u.u.w.~.:.w.:.^.wX|.7 F qXlX|.^.~.XXM.^.^._.).^.L u._.~.~.|.%X%X@X@XoX2X=XC.C.x.C.C.,.+.s.:.+.w.>.>.s.l.:.>.-.I.G.6.2.d.l.<.<.<.6.@.2.G.$.-.d.o.6.M ^ U nXBXr.,.G.P.[.G.7.7.G.U.r.=.:.=.s M +.3.:.^ u  .O. .n +.+.1.3X2X}.u.d.G.M +.r.V =.X.X.l M b b b e.,.V ~.L ~.^.).@X~.^.L _.0 # =XSXxX>X=Xy.e.[.1X`.g.P.}.e.t i t ..2.i ^ d.s./ B.>.:.G e ~ >.A G.B.s.N./.i.V G G u.i.e.M.s.s.>X2XN.N.-.Y / +.6.V.A -.6.-XAXm 7 ",
"f s.uXw.N._.|.r.s.^.r.4.=.X.r.A A r.A A C.r.^.L L N.r.<.r./.~.A V.r.`.@X/.u.L e.s.q.r.q.-.q.B.s.=.r.e.r.s.L /.[.~.^.u.u.V.qXr.a ,.dXlX_.r./.>X1X|./.E.L L L u.~.~.Q.XX&X/.|.+X%X^.=X,Xs.x.s.g.w.,.+.:.:.>.>.>.<.s.:.:.l.K.l.6.l.d.>.) 6.>.6.d.l.k.R o.>.1.d.V 3 U Y.MXr.G.[.P.G.d.d.7.5.MXB.+.V b q q V C.w.i t w.r.*.W @.w.s.L./.@. .7.[ e @.w.>.=.M =.M s 0 M =.,.w.q.~.~.u.^.u.~.G ~.<.>Xv k w.iXaXi.C.;X<.h.x.^ @.5. .n E t :.6.]  .,.1.i.'.G.<.i.i.t @.`.q.P.7.6.X.G e.V.N m q.`.e.6.4.e.>X,Xs.<.-.-.-.A :.B.6.:.3.B.wXr = ",
"< M.ZX|.u.,.|.r.>X[.V.6.q.e.q.q.q.q.q.q.:.r.~.J w.,.u.V.V.~.B B r.r.q.u.~.u.r.[.r.r.q.,.r.:.r.V.:.,.s.r.r.^.XXXX|.|./.L m.&X~.z G hXlX|.L ~.6XXX|.~.u.L v ~._.^.m.|.Z._./._.|.1XE.u.'.q.i.,.s.J.r.:.,.:.M X.>.:.>.X.>.I.P.6.0.s.s.>.>.>.2.>.2.-.s.>.@.>.k.:X..h U ' aX4.P.K.7.-.=.r.x.x.G.C.e u M m u s.+.+.:...V.w.6.d.r.:.6.:.V 1.-.l.E <.l.s.3.n  .M N :. .s =.=.b M :.s.e.).&Xi.e./.>.&Xc # ,.hX3Xo.A.1XV.L.2./ n / ~  .i T <.` ] o.M %.2.J.5.[.`.r.w.`.d.t r.d.7.6.o.w.r.A b x A -.A <.d.P.B.<.-.>.7.-.X.-.>.@.:.7.G.5Xq - ",
"< r.eXN.A L u.=.A.q.>.r.q.A ,.i.i.:.q.:.+./.V.N.V.r.^.[.C.~.A r.q.r.:.M F A.|.|.r.^.X.,.q.,.s.B.r.r.V q.r.u.~.r.~.~.~.:.G _.~.z F qXxX@Xm.&X~.^.~.R.L F G ~.E.|.XXV.V.|._.^.^.A.u.s.1X|._./.Z.w.:.+.+.X.+.>.:.M h X.s.Y.P.d.>.>.>.>.o.$.) ) X.M 2.-.1.2.l.Y.X.X.! s.4XX.G.s.>.:.) h G.=Xs.d.Z.+. .i <.4.N.J.C.L.C.<.] j.s.+.1.:.s.x.M ..M V w.7.-.M M V +.M g g ( +.( X.>.t M {.@Xi.i.^ O.#Xz %  .wX5Xd.>X5.g.C.P.@.n / ` i i i O.R ` / r.x.q.r.t n q.i.V.r.:.t ` ^ ` d.6. .u A N b m 6.-.q.4.X.4.6.Y s.@.( 4.7.>.q.>.7.T.5X7 & ",
"1 / <XL :.|._./.B.:.X.A q.u.r.V 4.j m X.r.Z.=XA./.[./.C.A.X.q.A A q.r.=.A m.r.r.,./.e.r.r.:.,.r.r.s.:.q.d.e.V./.,.L u.:.G |.u.a b qXlX^._.@XK u._.^.y.J H ~.~._._.r.V.|._._.6X@Xi.;XqX6Xu.[.r.o.s.<.:.+.+.>.+.:.s.B.G.k.l.7.>.>.X.>.>.o.^  .^ >.l.l.6.$.-.K.^ ^ U B.5Xo.G.w.+.:.o.w.r.2.g.C.t w e 6 :.q.s.2X:.h d.s. .o.5.X.%.#.Z.r.^ 3.:.b h M V +.+.V M b x M O.G.( M 4.M +.r.~.@.A n h `.# + ^ 5XZXqXC.o.:.2.2.@.@.Y W u i i e Q Q 5.V R A V.R e u i.+.B.6.^ d.6.) q.V e.X.X.b b :.r.6.M.6.^ 6.A Y s.6.>.4.6.6.6.s.7.4XuX# X ",
": R wXr.|./.^.|.L.6.r.>.M.V.6.V X.m :.q.A u.u.L /.}.~.C.C.r.r.:.q.q.r.-.:.H L =.M C M 4.G.w.r.7.V q.>.r.g.N.M.|.^.L ^.u.~.N.V # * s.yX).XXV.u.u.^.L L u.~.+X_.].C._.].[.%X|._.}.$XtX7X~.C.i.5.>.w.:.7.C.>.s.:.:.s.l.d.l.1.$.3.x.:.X.>.$.^ ^ n X.3.6.3.X.o.d.h ^ ~ 9X0Xr.G.q.:.q.r.r.s.Q 7.g.M u w q s.r.s.=Xs.r.7.s.f.q.s.o.E ^ n o.( s.o.f ( ( :.V :.V b 0 b :.=.s.b :.w.M V q.q.V M M :.@.=   < v.gX].n `.5.*.$. . .W W u  .Y o.B.$.4.q.T r.'.r.h ^ V i.i.4.X.6.6.:.N *.V G :.=.A w.6.>.( -.d.o.q.e.B.q.A 6.-.-.=.6.G.1XI.& X ",
"2 6.lXm._._.~..XL.N.6.r.r.i.7.-.X.X.V A q.~.~.G u.r.q.7.G.V.g.q.:.q.q.X.X.G :.,.M M A w.r.r.r.G.A r.r.q.q.r.q.q.u.:.^.~.m.M.K + < g. Xs.|.m.u.L ^.u.~.^._._.OX%XV.|.[.%X'.;XV.C.%X@X$X|.B.+.>.w.b +.d.d.K.s.b M r.B.I.Y.l.3.$.<.I.6.>.X.M M X.M X.>.s.2.o.d.,.t T 1X3X:.5.:.:.+.n o.>.G.r.o.:.O.b b +.=.X.V b w.s.w.:.M X.V n +.M $.:.Y O.7.s.o.b T M b b s M =.1.V b >.V M V =.:.:.o.M q.f.> X < j.7XO.e >.#.*.@.*. .( R t  . .>.7.w.>.i.>.-.e.q.r.M E W +.7.=.6.m @.e.:.r m m u o.r.:.A h >.i.r.i.<.n V.V.X.-.>.>.6.6.=X:X6 > ",
": ,.hX|.^.~._. XG.r.r.>.N A r.q.X.B m j X.L u.~.~.:.r.V.r.V X.A m A A q.q.V g M m.u.-.A ,.r.,.4.=.r.r.:.m q.q.X.G L /.u.M s.H $ < d.1X:.oXu.F K L ~.m.u.u._.).@X_._.$XqX]./._.A./.~.V.P.=X,XU.4XL.s.:.M X.:.M s.J.d.B.P.7.>.1.d.I.s.6.s.C.:.M b ^ +.X.M J.P.M s 3 3XMXr.$.o.r.1.-.o.M G.G.-.s @.r.M m ( 4.+.n +.s.s.w.C.w.M :.+.w./ o.t :.+.6.+.r b j +.V s b :.s.:.+.s.r.b g M =.=.M M +.s.0 o t @X9Xi.n E R 0.*. .+...R R e.e.4.7.V.A  .-.-.@.+.n i.p.2.G.4.@.4.@.o.n T t m r.i.<.i.6.V X.e.M.i.e.q.:.B.7.>.6.-.A -.-.d.wX5 & ",
"< ~ wXu._.F u.e.V.r.e.A A q.q.A V X.m :.=.F m.V.G u.r.:.X.f :.V b f m r.q.G A C y.M j -.r.:.q.r.q.r.s.w.:.A A q.V q.i.V V r.:.% < =X9Xq.G.G L ~.y.:.u.M M r._.(._._.|.@X|.e.e.r.r.r.q.r.s.C.B.J.4Xs.<.-XJ.V C.L.-Xr.s.s.5.s.>.l.d.6.<.s.J.s.>.:.>.>.<.B.B.G.n 5 2 aX-X,.d.r.q.h.V.r.X.s.Z.7.b b s.s.w.b h :.o.n &.:.q. .-.+.o.V  .e / :.o.( o.V M M ^ b b M M :.r.C.r.g.s.w.M =.V V b M +.-.# o T &X;Xe.r.-.` p.C.i.+.O.X.-.q.C.K.%.6.X.^ X.o.Y R +.e.i.B.B.6.:.@.X.o.O.4.X.A -.X.i.,.6.>.:.=.q.:.e.V.7.6.T >.@.:.>.q.6.G.>X7 & ",
"1 ].gXr.C.u.u.q.V V q.q.e.A A V >.q.:.e.L r.r.J F K b m m X.:.B b m m x b L m.,.V.=.>.A r.q.,.w.:.,.r.:.w.N V A m :.r.V V g.+.0 * :XyXU.3.s.r.~.u.w.u.:.+.:.~.E.^.].[.|._./.r.C.s.q.r.g.,.r.C.MXMXr.s.L.U.s.>.=.r.:.:.+.<.<.p.>.l.:XY.L.<.X.B.d.C.C.d.>.>.d.A : 2 C.[.:.<.w.w.r.1.=.o.$.s.G.-.=.s.V.*.b n +.g ( r.w.s.i :.Y Y h :.M X.>.1.o./ ,.j b g q M :.X.6.r.w.=.:.r.s.V M +.+.M n X.6.7 + T h.9Xe.M.E [ g.'.g.V.M.-.d.Z.%.` [ [ o.X.+.1.R E M | :.<.:.+.q.X.+.V.r.<.m -.t +.<.e.M A >.-.:.q.i.B.o.o.-.6.i.q.>.g X.L.wX> X ",
"> ^.gX:.,./.i.i.G V q.i.V.:.M :.A N x M K L u.~.G B 0 M X.V X.m B m b b G F 8.f ~./.V.r.w.4.V.r.V A N q.4.V A A :.A q.q.V ,.M 0 < :XJXg.s.s.s.r.^.^.~.G :.w.q.J /._./.^.~.~.r.C.g.s.:.g.r.=X4X5X-XU.J.r.>.o.:.w.w.>.:.w.>.<.6.r.C.U.U.J.C.<.7.I.-XJ.H.>.s.J.V = 2 G.=X:.h.s.-.-.r.O.g <.V.G.C.q.=.M u  .+.s.r.+.b ( ..r Y Y E +.s.w.V.r.1.=.5.) X.j m b V V =.r.M m q.q.M M V V M M M b M v.x & ~ 1.qXL e.O.E >.E R E e.6.i V.-.-.7.o.E o.6.o.I Y +.1.q.q.>.:.q.V >.B.q.h n t Y e +.q. .X.X.r.e.r.J.`.t Y @./ w.].s.>.>.B.qX* o ",
"& G fXG ^.u.q.i.r.r.q.A h n A ,.X.m p M H u.m.u.F g x x @.r.:.X.m m m G L :.n ,.u.<.,.4.V.r.r.q.r.-.V A q.A A A A V V A A :.M % < 4XwXr.r.s.r.r.C.~.E.u.e.s.:.G u.u.u.~.u.~.r.g.g.C.g.s.,X,XC.C.C.,XU.s.B.<.s.d.s.s.s.s.,.>.6.>.C.C.J.,XJ.s.s.<.-XJ.>.$.d.C.m o 2 ,X[.r.V.V.r.X.=.:.M r.d.7.i.8.q.+.e q 3 ^ q.=.b M +.$.r.>.a.^ s.d.=Xs.w.s.s.n M M j V V q.r.:.V +.+.:.:.+.+.+.+.M =.X.+.9X7 - ~ l.9X~.E E ].s./ T i <.i.E G.<.J.P.:.o.:.G.o.W 6.@.1.e.e.`.].g.r.>.o.@.h V t n e / q.M M A A X.i.J.s./ w.i.e +.A._.C.u.<.|.> O ",
"> u.MX^.^.:.r.i.4.:.m b A A q.A X.X.b b G u.=.F q.q.e.V ( A M b s b f B A m./.V.r.M u.r.4.A q.r.6.q.X.m :.A :.A m x m V m V M 7 : ].0Xi.r.r.r.M.y.i.^.~.~.q.q.e.:.+.q.e.E.~.i.s.s.C.C.=X5X=X=X2XV.J.C.=XC.w.:.>.s.w.C.x.+.M s.7.s.B.J.x.G.I.s.>.>.+.+.+.w.C.G + I eXyX:.1.r.i V -.r.:.:.1.7.V.,.`.r.q.( =.t w.w.r.p.g.6.E :.o.X.r.d.Z.f. .C.r.+.:.w.+.,.N M r.q.:.s.q.V :.:.M q.C.:.>.+.w.9X= & ~ =Xk._.i Y / / E W X.^ @.<.].V.J.i.<.i.i.[.h.i.`.].-.<.`.1X[.r.[.d.X.q.q.e $.e.e Y o.M >.i.X.o.i.M.-.i.i.r.<.C.1X^.H u A.>X# o ",
"c m.$XL ^.u.>.V.V.A m A A A q.V M :.o.:.>.,.B M q.q.:.V m b f s p A r.+.~.u./.C./.=.:.r.:.V V A V >.q.b w.r.X.N V m x m x =.M $ 1 =XwXi.r.,.g.{.F u.L u.L e.:.r.:.=.,.q.~.+X|.r.C.C.J.=X,X5X=X2X4Xr.C.L.s.:.o.+.>.r.C.J.s.<.7.s.C.U.,XI.-XI.s.s.<.o.:.>.M Z.M X 2 [.yX:.M.^.e.{.,.7.w.:.4.-.+.i i V t e 6.V =.q.C.C.V.a.w.w.r.r.g.Z.V.-.^ :.:.=. .M n M +.V V ,.:.r.q.M O.M M w.r.:.w.>.M.5.: & t ^ <.T e t 3.E R o.>.$.i.e.s.`.1X X`.'.`.d.V.o.`.`.`.1XM.'.`.M.[.7./ e.X.6 X.q./ n -.i ) d.V.4.6.i.-.A u.s.N.,.C.s.X.^ C.=X5 # ",
"0 :.#XL L N.^.e.V.B.q.b u A :.r.:.b A X.b ( b m V V A M V V g m M b A V A =.s.s.i.:.A >.:.q.r.q.A :.6.:.A q.r.r.q.V V Z F e.m # * C.0Xg.r.:.,.=X|.u.G L u.y.>.X.+.M +.u.E.~._.@X=X=XC.r.C.-XC.,X4Xs.g.s.s.<.>.+.X.:.s.h.>.+.:.X.C.-XU.L.I.G.<.s.s.s.a.s.:.C.q.& 2 V.yX`.#X[.L m.6.+.:.q.$.:.A A b i b h :.M b V w.r.s.V.V.r.r.Z.V.r.d.r.=...w.=.g +.n b M M +.:.M M +.M :.w.M =.g.:.V :.u.' < & < 7.s.t =.m l.w./ +.6.o.:.M.].'.1X1XQ.V.V.y.7.'. Xr.C.1XV.[.1Xf.Q 6.-.g.o.X.A X.o.:.M w @.>.@.s.-.6.r.e.u.r.G ,.B.6.=.L A.=X% O ",
"g F %XL b Z :.u.].r.V j ^ V r.r.6.m X.X.x x m b V q.A r.b m X.m :.b s m B m X.s.r.X.4.=.X.r.r.B.V.:.V :.X.A u.u.B B F A M m.s O & / 1X`.r.:.,.>X@X~.~.u.u.Q.u.y.H w.L E.R.R.^.XX#XZ.s.w.s.g.C.eX=Xg.s.C.w.+.X.X.,.>.M :.+.M M O.s.s.C.C.d.x.s.<.C.d.>.o.6.G.q.= I Z.@X].|.V.y.X.f T n A R r.=.V :.m +.:.:.:.b  .+.:.w.C.r.r.q.g.Z.l.r.r.r.:.o.M ^ M M M -.=.e  .V N r.r.w.:.=.M :.V M :.^.G.> & ; x.6.t ,.w 3.@.X.@.e.w.-.M.C. X*XV.M.`.[.V.>.'.1X'.6.r. X`.`...^ M / 1.M g M M w M e.M 6./ R s.q.@.-.M G V.u.J.MXx F Z |.].0 % ",
"s F qX=.m ~.K L u.=.M m -.:.r.-.r.:.e.>.m m A V A A q.r.B j A A V V j b M b A r.r.:.V.-.M q.M.^.L L V.].h.r.~.V.v v F Z m u.x + - ] 3X`.r.:.q./._.~.^.L L ).|.^.E.u.y.y.E.~._.#X$XoXC.r.s.g.=X5XC.r.g.=Xs.o.>.:.r.:.o.r.o.+.M :.>.s.d.H.3.$.d.7.J.B.<.<.<.x.A & 2 V.XXu.1Xu.m V e e i V q.w.V M =.m V :.=.w.:.q.,.q.q.r.d.q.+.w.r.q.:.:.r.=.V b M b X.j :.q.h :.r.E V +.b b M =.:.V A e.e.' 8 X 3 C.5.t W T 1.i.M.$.( e.i.i.M.`.M.M.M.M.'.Z.'.1X9X Xh.6.M.`.[.h.$.5.%.5.i.X.h / 6 :.>.i.J.E h 6.o.6.@.X.G ~.^.C.u.G F u C._.g % ",
"s e.qXv m ^.)._.~.L L :.q.V M 4.:.X.A -.q.e.r.A r.A B q.B m e.e.e.V b j V X.V :.r.:.V q.r.i.m.^.L u.^.>X/.y.~.~.=.u.F m Z ^.m # - 2.2Xu.A V q.M._.L L L E.R./.+XE.y.y.y.u.^.(.|.&X|.1XC.C.V.J.5XC.r.s.C.C.s.X.<.r.:.f.7.^ +.:.>.s.V.wXL.1.<.<.s.s.<.s.1.$.k.V > < '.wXu._.~.B O.t M q.+.h q.:.,.+.j b V =.w.q.M ( O.r.r.r.w.+.V q.q.q.w.1.m +. .n :.b b m M =.:.+.M b u b b m :.q.:.r.u.:.2.=   3 6.6.y.w.+.( ~ >.[ X.e.B. XJ.s.C.s.i.e.].`.M.i.i.M.h. XC.1Xp.9X,XJ.B.a./ w i h 6 >.>.G q.h L.[.j.G.q.q.A e.u.].].:.n i 6.C.z o ",
"x E.&XL B =.~.s.r.,.u.A Z X.b -.X.m f :.q.r.d.i.^.u.u.~.J u._.^.^.u.8.F l v m :.r.r.X.X.q.M.,.L B r.m.L :.s.m.~.~.:.v =.Z e.s o & $.x.i.e.V @.>.].~.L ~.).).|.+X~.~.~.u.~.(.).).~.~._.'.g.g.s.eXMXC.<.C.,Xs.1.s.s.s.<.4.+.+.X.>.V.$XqXtX#Xs.s.C.s.>.s.-.6.d.G = 2 [.$X~.).L m b i i q.n M u m V :.:.:.O.:.s.q.j :.=.+.:.$.r.:...V n :.=.:.O.M V :.:.b =.=.M M V M m b x g s s N =.:.:.G >.2.& X 1 7.$.( =.X.M t X.-.6.M.].1X1X1.o.s.`.V.].i.i.X.o.J.1X X@.Q.M.1X4.*Xr.1.<.i e t h  .i h :.6.=Xr.V.6.e.6.A q.>.V.1X:.h E p.*.v $ ",
"G _.c.].~.u.L r.m.~.=.=.X.A V V A +.b o.:.q.e.V./.V.^.C.Z :.L A ~.L F v v F B L q.q.q.q.A ~.u.:.u.^./.,.r.y.w.~.^.m.y.=.c M b # g qX3X].M.q.M o.V.].L K _.@X+X~._.@X^.u.u.~._._.r.~.^./.r.r.s.2XeXC.d.-XJ.f.r.C.l.>.>.<.r.s.-.`.#X$X$X#X|.M.d.d.d.w.>.>.l.8Xq.: R 4XhX_.u.V  ...V M @.O.-.V V V V w.r.:.:.V.q. .C.2.E :.r.:.:.2.@.+.q.V  .O.-.,.:.X.h M M o.b M M V V V M q s b :.A :.A G 2.6 o ~ x.` @.M Z @.:.=.-.X.C.V.oX X@.q.M.s.x.V.<.1.O.@.C.M.V. XV.i.E &.M.o.>.V M t i Y  .R @.7.1.d.q.d.d.6.r.q.6.>.i.i.V e.r.f.j.7 $ ",
"h g.c.~.u.u.u.V.XXV.=.C N m :.X.q.q.X.f b A H u.:.F G s.K K F F L u.v D K L L u.L L u.e.L ~.u.u.u.C.~.K y.A v G u.V.~.=.N :.G % F $XxX@Xe.:.g.=Xr.:.{.~.~.~._._.|.|.^.y.u.).~.^.r.~.).].V.r.>.L.5XL.C.-XK.>.w.Y >.:.M.u.u.].#X@X/.%X$X[.|.r.:.s.h.s.>.M B.hXu.z '.ZXlXe.e.A m V X.V M M w.q.n q.r.s.:.:.w.V.:.h >.a.:.*.g.*.*.:.^ Y o.:.V -.r.=.b j M ^  .s.1.+.N +.m :.M b b w.:.N m @.q.5.= & I 1.1.F F u.e.@.X.=.A e.s.`.<.>.<.X.X.@.4.6.) Y p.6.s.i. XoX Xw.o.-Xt t m M 3 t i 6.-.i. .o.A :.A 7.6.A <.q.V i.X.O.G N #.d.z # ",
"V n 0.n F w.G r.N._.^.w.n M 4.=.A q.f s j m :./.L F y.L G L H m.~.~.A L u.L ~.:.~.~.u.u.m.u.q.q.,.q.G y.G e.v B H N.u.w.A q.F % B 1XxX%X~.:.r.Z.r.V r._._.|.@X@X@X#X).~.R.~.^.u.^.Q.~.^.9Xg.>.r.,Xr.J.=Xh.@.>.e s.s.|.^.u.r.A._.&X@X|.C._.r.A M h.h.>.M 6XaXu.z m.uXqXq.V :.V V M M b V r.w.:.V w.g.q.g.w.q.m V q.s.M V r.V.s.g.w.^ ^ o.:.o.:.2. .s M $.j :.r.^ q b s b M M b +.s.M +.:.~.C.o & I 6.$.u.L i. .+.@.@.G G e.e.G =.q.X.( X.q.i.-.@.q.e. X X X`.g.o.j q.m u g e e i  .q.E %.h :.n M i.V.6.=.A e.>.V i q.q.O.r.'.7 # ",
"v t.&.N L :.u.^.V.^.r.=.m A r.:.:.X.s h X.=.J L ~.,.L 8.b F L L u./.~.u.L :.u.~.~.~.^.u.u.A q.r.r.A F u.:.w.u.A L ,.:.:.=.|.A z D _.hX&X|.i.w.Z.s.,.V A u.^.~.^. X].|.+Xw.8.).^.Q._.^.Q.1Xg.g.s.L.r.:.s.>.,.,.r.'.~.^.^.^.r.r.C.qX_.A.6.|.%Xs.^ s.s.+.X.y.hXu.z L $XqXq.A :.:.w.b M  .+.4.=.,.-.@.r.:.@.+.V V q.q.q.:.M q.r.i Y X.7.>.[ n +.>.3.g q m M r ^ :.6 = q q 5 b q q M +.q M f b ].= & 2 d.R V u.e.e.r.q.q.X.X.X.B M X.q.M X.X.A @.X.1.q.`.#X XoXf.W o.M e q.b q u t e o.q.e X.w.^ 6 B B.L.>.X.X.A X.M B G i.w.2X1X> $ ",
"B ~.].:.:.O.B =.m.V.L A b j q.r.s.w.b ( M L L L N.s.L L ,.F ^.V.u.~.~.G V L r.^.u.u./.~.^.q.M q.A N =.r.y.r.K u.r.s.V.r.:.}.F % Z [.fX|.V.~.:.,.r.r.:.+.r.w.r.w.s.s.~.|.).~.r._.Q.~.}.'.J.d.s.C.s.J.h.>.s.s.w.i.|.~._.$Xm.m.C.^.[.M.A.V.r.|.|.V b X.+.G u.lXG % K #XoXA =.b :.r.M b V q.7.+.:.w.s.N.r.r.>.r.q.w.g.r.:.g j E E u w h W t X. .:.+.( X.=.( g ..+.q g u q g V s ( M M M ^ q g i.7 X 3 =XC.A ~.V.e.s.G G A :.X.M =.>.q.j +.i X.[ f @.q.i.M.X.r.g.@.u.e.O.q.G O.+.t w f +.h V :.A m A =.^ A m X.X.X.q B M q.i d.&.& X ",
"8 q.wX=.+.Z m m e.^.M :.m u q.-.X.X.j A L L u.~.r.m.~.u.e.,.^.r.u.~.~.L ,.u.u.L ^.^.^.^.e.r.m M V B r.r.y.V.u.V.^.r.^.C.u./.:.# v >XgX|.~.m.u.q.>.M +.:.+.:.w.w.w.=.9.u.~.w.3.|.}.6.4.a.C.C.r.V.C.L.C.s.7.:.~._.tX&X$XtX@X/.u.V.B.#.A.C.^.r.~.~.w.V V u.~.jXL z V.gX$XV V V :.V M m b :.:.O.V V :.q.w.r.r.s.w.:.r.q.M b o./ X.E 3 e e e u E X.M M o.1.( M ^ M M -.( q g o.n X.r h ^ n M h -.7 = 2 V.%Xu.r.m.e.<.=.e.G G j X.<.M.>.e.>.t n >.^ @.q.q.u.e.M E 6.e.q.n e X.O.n i b +...n X.u b A A X.X.X.u M x C t G >.h n @X*.X . ",
": E %X=.X.B :.L e.^.~.L b b X.X.o.X.m r.u.:.B :.u.u.~.r.H <.s.^.r.^./.L L u.L K F :.F L e.A V :.:.F L r.V.m.F u.~.^.]./.E.~.=.% c fXZX|.^.~.^.~.q.V V >.:.+.:.:.w.:.q.<.>.w.s.^.5.7.l.c.g.s.>.s.V.C.s.r.r.u.~._.#X#Xu.K _.^.L ).>.M..X/.m.^.~.^._.~.e.L L tXF 0 ~.iX#X=.M M =.+.=.+.b =.s.:.V o.-.X.+.+.w.s.r.:.r.V b  .=.1.t e 3 E e 3 i ^ ^ u b s n j b b b X.M t s b g f b ^ u q u ^ M 6.# $ : ) s.G e.q.~.`.>.e.X.=.X.=.V.M.B.@.@.+.V.q.+.9.e.t.w.q.i.:.G e w 6 h o.t X.u q g O.e.x b +.>.M O.-.B.w.j b :.s.H u.G q.#Xp.X . ",
"* t 5.m.B N V A A e.~.|.V s h X.o.m Z =.H L F L :.L m.N.,.:.G m.r.u.y.u.~.E.~.w.:.G w.,.u.:.m V A H =.m.~.=.H :.K [./.~.L _.G $ r 1XyXu.L G ~.~.u.G >.w.:.V :.V s.>.+.e.w.:.1.>.1.*.l.l.H.6.>.7.C.C.r.:.N.H G G ^.@X_.L u.%X^.^._.^.|.[.e.^.L )._.~.~.~.L #XZ $ X.1XoX:.=.M V -.@.M X.:.V.:.:.r.:.N.s.d.#. .r.s.q.u M g b r.=.M M M w j :.+.M o.1.:.w.M h q g s b q s b M M  .f g f i f h 6.# # : [  XB ^ e.i.q.=.X.n G X.u.].r.V.w.m M >.@.A @.+.@.q.q.+.w e i u e b ^ e X.^ X.A 6.q.M :.>.M.O.N -.r.o.t ( A u.u.G L e.$XC.& . ",
"- j 6.H B x i V A V H s.m j V M =.,.F B L u.u.~.~.m.^.C.N.u.u.u.N.u.N.w.~.~.~.E.u.u.^.H =.s V x V m X.e.m.r.N.w.L [.#X^.u.].b X & x.eXG m u.^.u.~.~.:.:.+.X.M +.,.M :.:.:.+.) 1.4.>.l.c.s.r.N.=XJ.`.M.L ).~.K L ~._.|._.^.).n e.~.|.$X^._.~.L u.~.^.~.~.e.G.Z 5 2 -X XV =.^ X.o.=.:.+.=.:.M ,.,.M M :.:.+.>.r.r.:.g M V ..M h X.e n j M -.>.n 4.o.:.r.r.M s g g f h q g g h b M n h g g 8 o.# o ~ I.qXb ^ ,.u.=.G G G A X.i.e.e.a.u.A X.@.@.V.<.q.A M o.e.@.R o.E M X.X.X.n E +.4.7.1.:.X.h <.r.r.i.r.^ m j u M ^ u b :. XV.X . ",
": ( s.g F N | q.A X.=.q.X.@.L =.H e.,.:.u.u.u._.A.|._./.~.r.y.r.y.r.C.:.w.u.u._.|./.~.m.t u :.:.q.M V :.<.r.q.H u.V.@XV.m.s.h X & c.:Xi.B ^.^._._.e.M b +.:.r.M M =.:.:.>.s.w.o.1.7.l.$.w.s.C.0X3X/.,.e.~._.u.q.e.u.).|.#X@Xi G ~._.%X).).^.u.M ^.|.u.L :.J.A > I C.{.=.:.M ( o.:.,.s.r.M r.r.w.X.:.=.:.:.:.w.n n M h w.n e e  .t e ( r e Y Y 6 +.1.-.M ( f f j s b b b h u g b b h u t u X.# & 2 2. Xi M X.G :.A ^.^.~.r.B f s.-.q.G A X.@.6.q.@.q.V Y -.`.;Xw.Q i X.X.j 9 i i [ 4.Z.d.M >.r.M.V.$.h :.m q.n 6 i B u b u./.X . ",
"v y.H.e.m.m m A G A A m b ,.,.r.L :.N.N.u.L H L V._./.y.N.u.r.<.=.r.m.u.w.u.y.:.^ i.^.i.W :.:.r.r.e.A :.q.q.m q. X[./.~.B C.X.+ * l.:Xe.A e.XXe.E M M V >.w.V M @.q.>.:.r.r.V.s.3.5.l.S.2.s.C.,XtX|.y.u.~.u.u.r._.L _.u.^.$XXX^.^.).|.).L A u.u.@X_.V.s.:.C.V & I q.`.=.M V :.r.r.>.G.L.N.V g M =.^ n =.V u n n e :.E :.^ w w h w w M u h @.$.s.w.:.+.=.:.M g M X.n s h X.f w M f g r q 1 / # o I ~ s.:.m.B M e.m M u.^.u.M m M.4.>.A X.O.@.E @.A g R t t d.oXJ.s.../ w e g m 6.w.M A B.q.r.r.e.i.e.A 3.x b X.w V V V A q.m.o @ ",
"v /.0Xu.M m G V m M X.b j B F B Z L r.m._.].~.G L ~.i.L r.u.u.,.=.C u.u.w.L u.u.i.|.Z.C. XV.-.r.M.r.r.A >.r.e.M.].$XK q.b -.X.o - 6.Y.`.q.:.q. Xw.b M w.>.s.M M +.V +.@.+.O.+.>.7.1.l.D.D.H.J.0XuX;X^._.@X_.u.r.).~.~.~.qX>Xm.u._.^.~.m.m.~.u.).@X~.V.s.+.C.A > 2 A V.^ ^ :.,.r.s.s.C.V.V.=.=.:.q.u X.M V g u M =.n 5 M @.i b M e e n i i i }.g.r.r.^ n :.g b w.+.X.( h g h ^ n ^ r o e ~ o.+ # < ' s.u.:.F /.@Xi.:.~.~.^.y.X.=.X.e.s.+.X.-.E q.m +.b i i./ i.V.M.Q h n V s h ~ r.A e.B.s.<.w.i.i.i.e.V :.M n +.M :.:.:.M.^.7 # ",
"b s.qXJ B b V B V X.-.X.V G F b Z u.=.=.,.u.u.].^.~.~.F u.u.u.^.:.=.e.~.,.:.u.XX|.~.[.V.u.X.A e.r.i.q.A w.M M.M. X%Xi.V M ( / + * ' I.s.e.:.r.C.w.+.+.w.s.w.+.w.w.@.+.V M  .O.,.6.6.l.F.nXl.C.2XwX>X^.^.qX_.J u.^./._._.@X#Xu.|._.^.#X_.w.V.G ~.|.^.@Xi.+.J.G > * R Z.V V ,.w.r.s.w.=.:.:.w.C.N.r.V  .i >.M M :.r.w.O.A r.M.-. .^ i A ^ ^ $.~.w.V +.X.+.~  .:.>.g O.$.X.n h M g b , - 8 8 o.7 o 3 ' C.e.F u.^. X XXXu.K ^.u.q.e.>.q.@.B.i.X.X.q.O.=.G B X.t X.i.<.6 e b A e.i.e.i.M.r.L.G.r.O.6.M.V.V.i.i.s.:.+.b m j b g.%X0 # ",
": M @Xj D M A V b x j X. .u.=.M v G =.,.u.L :.u.V./.^.^.V.r.r.~.~.u.L ~.~.m.^._.u.u.r.m.G =.E :.X.n i.:.>.M.].L.2XoXe.r.q.` j > < { Y.d.e.G C.W >.+.X.+.r.C.r.O.:.O...:.V  .q.q.1.4.H.nXY.l.H.,X9X3XQ._.|.u.~.|.|.XX@X#X~.u.~.^.|.@XgX@XL y.F ~._.~.|.^.s.G.:.5 ; Q *.M M r.+.:.3.:.m V r.w.s.r.s.r.w.r.s.s.>.r.:.w.|.~.XX{.q.i o. . .o./.@Xw.T b M h ^ u 0 w g M m n M / ` >.e , w ~ , - t # + I { =XL L m. XoXA./.L L ).u.s.V.B.<.q.>. .O.X.X.@.X.M q.:.R X.A G B :.+.[.O.N q.B.J.o.s.L.P.r.i.[.d. .r.M.w.r.r.r.,.V =.[.XX# . ",
"< ~ ].A G m m X.x x :.X.F A 8.Z =.G =.y.F A u.F B M =.~.<.r.u.V N.m.V.V.u.V.~._.e.:.u.L A q. .@.s./ ..M.M.i.M.`.A.H e.s.^ $.^ > * z.F.1.i.e.g. .w.V M :.w.w.C.M :.+.N ,.:.V q.r.r.a.Y.nXF.l.I.U.0X@X_.^.@X^.u.^.g.~.XXXXK B ).@X_.~.%X#X_.~.F G u.).E./.r.s.f % ; j...:.T w.+.:.w.3.=...:.w.q.r.s.V V s.+.s.r.r.+.q.~.:. .V.A i O.w.O...m./.s.X.:.>.e = r r w b M M X...$.2.>.1. .X.X.r > ' # > I R V.M :.~.#X X^.L ,.H ~.M.M.<.M.<.e.[ X.@.X.X.G B B G q.u e.G M q.]. X`.w.e.<.i.6.6.$.e.*Xr.X.X.w t A r.i.r.e.x.:.M M g.oX7 . ",
":  .7.V F u x s z  .X.G :.v F F F A L ~.B v A B A F ,.n m <.M b =.V.m.m.A F :.@X~.H L :.M M R W t >.] i e.e.+.u.m.G q.M , ^ R o < { z.5.:.M r.V.:.+.+.:.g.+.g.w.q.w.r.s.q.o.( q.q.r.r.S.H.7.s.U.[.C.^.).|.).~.^.^.F ^.^.F L L @X_.~.@X|._.K F F L ~.E.E.u.qXG o ; Q i g w.:.:.r.:.-.,.=.:.w.r.s.r.b x :.>.1.s.s.X.q.8.G F ^.L +.9.@.n O.G f M +.M b q , , 8 E g X.X.g b M -./ O.6.X.6 r h 6.5 # I Q V.e.m.^.XX X~.~.^.:.u.X.+.G 9.A X.O.X.@.X.X.@.N G ^.X.B O.B A q.u.4.g.s.V.i.e.>.r.B.6.B.h.7.r.,.:.q.A q.O.V :.X.^ q.Z.u.o . ",
"& M -XV b u f x u j B =.=.D E.L F J F H G v B A Z F 8.m m =.L L M G M L e.u.F i ~.v L ~.t q.=.n w $.r.R Y q.q.^.m.:.A j 3 ^ t X < { } [ X.e.M.r.:.M +.+.,.w.w.:.w.r.w.w.M ) b :.+. .6.H.l.r.g.Z.7.s.y.u._.u.~.@X^.F B F F L L +X).u.@Xm.~.J v c u.~.E.G F qXu o 1 ..g.g w.w.:.w.r.<.$.V s.w.w.o.e r V =.V :.s.C.[.0.|.O.l ~.u.M @X+.| q.~.^ 6 w t M u - 6 9 u u n ^ n M g g 3 3 3 r , ^ o.' . X I ! 6.o./.|.|.^.L u.^.L e.:.f b O.w X. .X.X.G q.A X.B m M A m N q.q.A g e.e.i.s.V.J.B.G.d.+.6.C.x.r.3.4.V b ,.s ^ q.b A s.u.7 X ",
"1 h 7.j c 0 g X.j m :.F ,.u.u.L ~.~.L u.H m F A N A ,.F Z =.=.O.h M F m m._.V i v L ^.~.6 9 u.x b i q.Y A n b u.e.X.^ t e Y : o - ` { -.r.:.V.q.+.V :.^ g :.s.w.w.+.,.b b M M V M V w.7.4.r.a.r.-.h.L y.r.L ~.).u.F F L F u.u.~.~.H ~.K ~.L F F ~.E.r.:.L &XF @ F @.j.:.:.+.i ^ =.+.X.r.6.+.@.,.t t +.:.:.M M r.yXa.].6Xi V ).i n ].E  .>.V u i 3 f q 5 g g g q h n g M n 6 u i w ^ , - : ) = o T { v.`.^.^.~.e.F L ~.x f e.e i E 3 ( h  .+.+.X.B e.B b j x G G A q.q.V q.e.e.e.i.G.M.B.G.-.:.r.q.M M V j b p b q.g.x V '.^.7 X ",
"3 ' k.F =.0 u q.C.:.D w.w.^.w.r.^.^./.~.m Z n c Z :.w.F 8.3.:.8.X.q.G e M e.+.u n  .K :.6 t.L x s q.A 6 q.i w ^.V.s p m g ) , o - [ { o.+.q G 2X,XM M b M s.r.s.:.b b 9 M M b N V :.r.>.O.w.o.,.<.7.u.u.m.w.^.q.x x B L L L u.~.q.M G L E.G F &X%XF =.:.K @XF $ G g.#.A M 8 w 2XC.s b s.M g , n n f X.:.r.V b ]. XuXW.).`.i )._.G n >.t e w i X.M g 6 6 8 - = 8 M ^ g X.X.g h 1.i r u j t ^ # o 3 ! G.].r.^.gXlX@XM e.m j  .M e h t M i M X.j n m v 8.F B B X.G m x m A +.i.V.r.>.$.s.:.V.q.q.q.:.M V +.s s X.q.:.j V q.|./ & X ",
"* t k.:.X.b [.q.`.qXv w.~._.:.C.V.u.r.:.=.B +.F m.F ( 8.L y.u.~.L :. .t A u.~.M i u M u B K D G :.A q t >.M 0X&XZ.'.0 t h ) , X & X.z.$.~ X.ZXwX-X-X8 g ^ M ^ M b :.g g V V M V V :.:.o.,.-.+.r.q.o.F G :.M n b g s b :._.E.L +.+.^ m F F J %X_.%XfX0 m K %XF # x ^.0XV M s.aXs.[.Z.V s.b b q 6 M i M V ,.:.M N i.qXO._._.i l ~.V e :.E Y t t e t M w w 6 , 6 6 t ^ ) X.b >.:X6.G.-.w u f ` = o ~ } X.M H IXIX@XjX@XG e.M M M 5 t Y i.G X. . .h M v F w.B m X.x m v a X.-.:.+.C.C.V.<.V.r.q.r.[.[.=.f b s r.=XC.aXG M ~.e.j X . ",
": ^ 1X:.v M 1X7 Z jXG b L ^.K V._.V.L :.Z B A u.r.O.3.>.=.m.u.).E.r.u.n H ^.u.L F B e 9 V B l G r.A z x =.M.tX7 g L.g 6 g ( 1 X & k.4X' h i.BXV V BXW q b ,.[.Z.V b V :.M b O.V q.:.@.$.r.+.=.s.s.o.m V :.:.^ b b b +.:.V u.~.X.+.g +.e.c L |.p M zXv F E.%XF O x +XqXg , 5XC.7 ( eXq.r.s.M w h i i :.=.V =.N e.^.@XV.^. X~.e  .:.i w h e E ..E t b e t u e , 6 8 M 6.t g B.6.7 ^ K.5 w e t + # R k.2.X.>XIX_.z =.gXB e.M G >.G e o.M.B q q f n L B u.u.8.F +.X.b x m =.A w.+.[.i.X.m V.A d.G.d.s.d. .j ,.wXq.s `. Xg ,.>.X.o   ",
": :.'.A B A 0XB L jXz b e.r.:.u.^.[.u.F v Z A =.Z 8.N.>.B u.s.y.V O.N | :.G q F L F 6 9 b G u.^.b m b x A {.yXx g G.7 6 f / r X < U %.e.X.M eXn X.SXr.V b V ,X2Xq.b q.q.N V :.q.r.r.r.a.V :.r.Z.=X^.e.V ,.q.+.+.+.+.a.^ b q.L G n :.+.M b x #Xv E.fX$ F t.#XF @ z _.@Xr.A e.2X=.C.2Xb N.C.i w n w h o.+.V +.u.w.~.y.n w.|.].w.e e n b +.M e w e u O.t e t 6 6 w :.G.K.-.O.d.J.h K.G.# X.4.5.# = I } { ) s.tXjX^.9XoXc e.N <.i.G :.G H V M B O.M m u.%X|.F L F G +.X.s.`.e.M.i.M.M.C.M.e.].V.V.6.B.r.V -.M V.e.v 0XM.B q.l.o.X . ",
"2 e M.( =.F F @X#XL s u.Z.r.w.V._.u.w.L L m =.w.F w.3.-.<.r.s.<.X.O.F  .y i u n n u.D w B u.~.L q m g V e.m ).0XH.X.> ^ 1 / 1 . * ' 2XM.A M s.5X-X>.g s.u n ,.r.r.b w.r.e.q.A q.r.:.V V V V r.[.>XA.u.X.:.b M +.x s M ( g b 7 u n +.^ n b 0 +.g.;XD % V w.@XF # v >X1Xe.V s q.=XZ.b s =.s.V g g , 6 M M j b u 6 w.^.|.G q.n G E e h M M M T n , = X.i , , & e h 6.H.$.>.6.j G.P.K.g 7 X.G.U.+ & I { x.A e.B %XfX|.:.v =.B A M.A s.^.=.M =.:.A n v L L L u.G B c v e.w.G u.<.<.i.q.].#X^.M.q.A q.r.-.q.r.m b [.0XqXB X.^ :.-.X . ",
"2 ` 0XF v B b B % b y.=.N.].r.m.^.u.:.w.:.M 9.K ~.~.s.s.s.r.N.>.h =.V ,.i R y b M ^.G b :.t.F N H e.u +.G z v B 7 5 =.e.3 I 2 X r #XgXE.:.A M b b b r.r.w.:.A ,.q.V A A q.G G :.e.e.r.m q.G G |.|.~.y.x b b X.:.b b b h f b g u b <.>.M s q 7 7 6 0 v b L ].8.5 :.2X|.v c N 7 # # 0 M V r.:.s b m M q u n g g M n XX..e 6 6 i n w 7 8 6 u n ^ 8 X.X.^ 1 f h X.>.d.X.^ M X.X.f g 7 q g M :.1X7 & U vX~ h u.G g 7 6 v B =.,.e.:.X.H V.u.m.c b M v F F J F b w.u.B :.B G G e.V.i.e.u.|.^.m.u.A M :.:.r.V.V.r.m q a z x e.:.A R X . ",
"2 [ =XF c q 5 L F F u.,.u.V.A y.w.L Z C B X.:.L ~.).}.Q.s.s.s.y./.|.e.u.8.T t q G u.W.~.L J u  .L G h q q 9 x b M G X.b m I : + v |.lXq.G e.i.q.:.:.7.r.P.7.:.r.q.X.A X.F F L B +.f.u.e.a.e.u.|._.E.L x M X.:.V X.b g g ^ M b b >.+.+.+.>.j 0 q N m v z F %X=.5 F >X@Xv v 8.c m M V M =.w.M b M :.M q i n b X.M  .:.+.q.O.B B E j 7 7 7 g h ^ n n ^ M ^ M X.+.<.Y  .o.X.h X.X.X.j / f m G Z.9 : } } ~ ^ o.n F V M F q.M.u.].u.F B v e.~.=.:.G B B B B F u B b J ~.L F u.M.`.e.H u.V.m.:.u.^.s.r.=.r.Z.:.:.7.m v F =.L F e.~ X X ",
"< R  Xb B :.H :.v B r.m.B B v b M y.=.C =.s.s.E.^.^.}.Z.N.B.Q.~.).|.|.~.y.3.j +.K w.y.R.l l n L G V b 7 b m v D G F F g v w.s # b ^.lXXX~.^.].M.e.i.M.L.2X[.'.M.q.+.=.K J E.B v F ~.u.L |.|.|.$X+X).g.-.A ) X.q.N b N N 1.1.+.s.+.s.C.O.m M.r.M ^.u.l M ~.qXB $ F %X%XF c =.v L q.w.:.V :.b s.C./  .>.s.X.e +.g M w T '.V.V.:.^ u q h h h g M g n E W E +.>.6.+.e 1.X.X.o.6.>.X.^ +.b 9 q.{ 5 - U } 5.4./.~.8.A e.y.N e.C.}.^.:.L w.~.V.m.H B b v ~.u.L e.F L m.~.^.e.~.XX|./.V./.V./.m E H /.V.4.V b M V.7.u.r.:.>.f f 6.u.X   ",
"& @.3X^._.@X6X|.;X|.|.|.@XOX@XA.[.#X_._.,X5X$X0XeXdXZXBX5XiXaXdXdXsXdX3XwX5X3X>Xh.Q.0X}.}.f.+._.W.&XG q.i E.~.L L ^.^.^.m. XK # v $XaX$X#X).|.].1XwX0XwX0XaX#X].`.V.#X#X@X%X@X_.6X^._.0XfX%X&XgXfX%X_.>.C.K.d.r.] 3.G.5.nXK.0XwXC.x.=X*X^ >.qX&X@X@X)./.^.%XB $ F qX_.@X|.@X|.%X X`.].[.=XC.U.B.d./ $.-.@.W W i p.j.a.l.&.c.qX@XM.X.o.~ R 2.>.E P.5.x.c.x.x.F.` %.z.l.5.7.J.g.7.C.oX-.o.2.U & - U ! U ' j. XQ.^.;X;X].|.#X$XgXXXV.A.].%X%XV.C.G u.|.fX@X_.@X%XV.s.d.d.[ 6.M.>XgXjX|.#XJ.5.7.qX0XU.x.O.r.r.].fXB.' } ' { U >.  . ",
"B e.g b z z b z q k z 0 z z c k s c z % % s b v c v v F B v b c z z v z c v z z x c c c z 0 c z z v c z # v c a % z z 0 $ % Z # B %XB z a % % 0 b f q g Z H L F x z % 0 0 z z % 5 # 0 c k 5 z B c 0 % # # + o # @ O . . . o m 8 7 0 f # = 0 0 Z s 0 z z z $ 0 # b z 8 % z % % z z a 8 s g 0 , , # = = # o o o o , > o = X X # % 0 z o o $ 6 7 = k 9 7 , b b s q b b = w 7 q > 7 5 > = & * * * * I & & * : > 0 b % 0 % % % z b $ % % 0 z 0 0 % # % 0 z k % % , , X : : > , = o r r 6 5 7 9 x s s 0 s x z 7 9 = , > g v u = < > o ",
"c b s b % z v z % # $ % % 5 z z 7 m g g s s b m m z z c z z g b 0 % 0 % z 0 % k k % % # k z 0 0 z m v q z % % $ $ $ % % $ % 0 z n q s 7 % % % z k > o 9 c b F v % % % # $ % $ $ 5 $ % $ $ $ $ % % % $ . . X &       . . . X ; & * * & * # b z b 0 a A G H % . X   # % $ $ $ s b 7 X X X X   . X         X .         . .   X . % $ % # + # . X X & & & & o > : & & > o > > = o X   X     X X < ~ + X = X & , 7 % 5 % # # @ $ % $ % % 5 0 0 7 5 5 % 0 0 # # + X X X X & o X X X & X & X X # z 0 % z % # 0 # o 5 o X 5 # % % # z z ",
"u.AXwX=Xs.[.wX>X~.^.~.~.>X|.XX2XA.A.~.A.>X{.C.L.C._.@X~.~.A.3X2X>X>XA.C.A.u.B.$.K.uX>XZ.A.wXI.$.3X2X>XBX-XA.Z.y.F s.A.>X6./ eX1Xi.>XV.~.u.s.u.V.e.2 I o.V.~.L L u.G ^.u.u._.L F m B G A n ~.F K F F G g 6 , 2 9 n X.r t g s / g o.U [ s.L /.[.V.s.A.-Xs.3XP.I < P ' >XL B y.V.Z.-.2 h ( ^ e b b f M j 3 e < 2 2 ; ; ; * ; ; 2 *X|.B b u.V.h +.T P ; P U ! ! } } U ` I I 6.>.M.o.2 2 ; 2 R 1.A.;.n.,.<.i.C.N.1.A.N.C.A.N.N.C.A.A.A.s.B.N.C.s.r.N.N.N.A.C.C.' I U U R ' ! ' { { ! U 3 2 / :.q.V G u.>.t %. ./.@X^.=.:.m C.C.=XV.M ",
"v 3XUXKXKXKXSXHXHXIXIXZXKXSXFXSXZXiXBXCXlXgXAXHXHXHXKXGXHXKXKXKXKXKXHXCXmXAXKXKXCXZXiXHXBXMXVXJXJXSXv.JXVX:XhXwX6XwXiXiXeXAXUXX.W xXjX%XfXqX$XaXL.yXBXxXwXqXsX0X0X@XqXaXzXfX&Xp.g.eX&X'.oX*X*X6X;X%X0X:XK.,X4X-X8XBXgXeX-XoXBX4X4XVX2XVXVX7XVXiXHXHXVX0XaXVXI & I BXKXAX<XeXwXBXCXMX:Xj.%.MXMXCXMXMXVXGXCXNXMXj.bX} bX} ] j.NXmXCXbXk.ZXBXv.:XSXv.%.d.nXBXCXCXKXLXCXHXGXJXmXcXnXMXCXT.NXSXAXs.g >XAXuXz.j.CXCXGXVXKXLXKXHXJXKXKXAXBXaXuXwX5XiXiXHXAXKXBX5XiX3XGXU.{ vXnXnXz.k.CXCXCXCXCXnXVXKXGXVXnXNXJXSXBXzXBXAXBXiXHXVXKX,.M ",
"g  .MXiXgX$XBXaX%X&XfX_.qXkXxXBX7XqXqXfXtXqX7XuX&XaXZXwXeXBXBXBXBX4XZXj.k.lXxXiXiXAXhXaXAX4XeXhXaX9X4XAXkXMXuX@X|.wXkXiX3XuXyXM ^ wXxX%XfXgXqXgXtXlX2XgX%XgXqXsX%X+XXX#XfX+X|.@.w.@X%X`.O.@.+X@X_.|.%X/.r.r.V.N.V >.r.q.r.C.MXP.K.G.s.V.=X_.C.C.>X-X5XA.].wX# o ^ zXlX%X%XqX9X;X-XK.s.C.d.C.w.p.s...s.s.C.=X>.s.5.:X[.` *.j.{ Q a.2.$.+.*.5X*...'.9X5.Z.G.BX4XBXNXwX4Xx.1XU.U { K.2.B.C.:XDX=.s y.AXlX=Xj.4XAX3XwXwXuXiXaXiXAXZXZXAXaXiXBXiXBXBXiXBXBXBXU.P.>XBXtX`.{ %.z.[ <.2X2Xd.-XeXBXuX|.Z.%X2X2XiXwX'.s._.r._.^.u.>XJ.M s ",
"w.i z.3X~.|.,XH ^.K F m._.|.>XV.L.r.F L _.].L ~.m.=X5X=XP.L.=X3X5X,X,X,XSXtX7X,X=XiXuX%X,X#.`  .N.6.G.C.^.3XZ.=.m F Z.=X<.h.J.Z m lXaXv A u.u./.i.C.w.e.J ~.G L D F K G +.J L V F u.r.b m L 8.c v L L A N z s s r  .A V n -.G.@.:.>.,.,.C.C.Q O.A.J.V.>.9.3X0 0 r.dXwXL F O.o.o.:.n b g b m b M :.w s +./ X.b 6 w.A X.s. .3 e 3 u m x b e r.E i n @.o.t :.>X) ) 1.<...Y X.M T ~ X.~ A =.6.kXB g <.aX XC.1.B.L.V.C.B.C.Z.C.s.C.C.=X>XA.>XL.N.A.>X>X,XA.A.4.j A K.q.q.^.e.<.B m e.r.m.=XV.e.u.e.r.G W A.1X>Xu.,.L e.^.L J =.] , $ ",
"A.~.wXN.<.2Xd.u.L L _.#X_.^.u.s.Q.g.G L _.~.u.~.~.L.iX,X<XU.G.x.,X,XG.x.aX` #.2X>X>XL.1X3Xh.h.B.3XuX,X@.1XL.O.m c b r.C.C.,XL.% =.uXuXu.V.{.A.6.q.s.r.~.u.u.G b L e.L G V J L G F  . .N b D F b x F F G m m b b A V M ,.@.-.1.V -.<.V.m.N.C.C.<.N./ ..s.w.1Xg 5 ~.&XBXe.N >.5.5.X.f M M b s s g R 1 M ^ o.:.+.r.6.n ,.1 T t w W t n G B q +.E  .t w.].M +.L.>.m :.r.r :.:.A q.( r $.( w.N.:Xg s V.AX#X^.>X=XA.N.N.A.C.Z.N.1.s.A.C.C.A.L.A.V.L.>X,X>X,XC.<.@.b X.X.H w.e.u.F E.m.~.~.2XV.:.G r./.~.G A.>X{.F F ,.>.^.L b h  .7 s ",
"%.v.ZXqXL.<.N.uXjX_.F ~.^.|.^.~.~.^.V.s.~.:.M N.C.L.5X>X,X,XS.7.U.G.#.U.aX[ >X2XqXC.7.>X,XC.C.=X>X%.k.n &.XXL E.@XZ A 1X1XuX2Xz <.3XG.u.C.e.G.aX[.V r.^.L v F F u.L t.^.).~.G ~.:.m i >.u x F B i 9 F G b :.:.V A r.j t n @.1.X.o.e.V._.A.s.>XlX|.=.g <.r.2Xn $ u.1XgXe.:.V C.5Xs.7 n o.:.M s M >.:.>.>.:.M w.+., / R 1 e 3 e i t X.A V M +.T e 9 G n ^ -.C.Z.A :.B.8 s V h 9Xd...m X.X.@.v., 7 >XtXV./.1XA.wXtXs.<.B.s.w.7.N.A.Z.V.G.B.C.N.L.>X>X5X1X=XN.o.j j B u e.7 B F ^.r.L /.=XL u.}.qXwX1XV.C.>Xr.<.0XxX].:.^.~.q./.5 u ",
"=.h.VXh.A.L aXzX_.M.m c m.~.u.(.u.V.w.s.^.s.K./.N.=XVXMX4X,XC.4XMX:X4XuXqX:.>X1X>Xi.A.3X-XA.B.C.s.o.3X#X$.@.zXgX/.fXm r.3XaXqXz =.,XyXA.s.i.AX1X0X1XV ^.L F A F G :.H ~.u.q.e.^... .b M t x F N b 6 B B k N q.V  .X.V b E 1.6.h n s.{.r.N.V.xX@X@X$XM B.B.:Xs > t k.3XV m r.iXC.C.:.q w.s.s.+.r.s.b M o.M M / O.n 5.` w I w ]  .q.g.+.n :.:.^ ( g h e t :.s.V.r.1.3.^ r g w.=Xr.-Xs.9 q 1.k., & I U.C.|.r.fXIXtXzXB.<.L.3.<.s.Z.N.>XA.H.G.C.C.A.L.L.5.A.%.T h X.9 b r.,.m b F B H ~.C._.u.V.A.r.C.u.A.>X,.1X`...7Xg.M q.^ m.g s ",
"F [.kX@X>XB xXV.Z tX_.Z ~.(.~.L y.C.s.s.}.L.<X}.C.>XBXrXMX,XH.5X4X5X<XwXwXe.,X>X2X@X>XwXP.5.C.*.d.^.}.1X;X4.xX% 5 gXK M }.3XC.# =.<XjXr.@.K.wXf m aXi.~.:.G F A :.M L w.u.+.O.-.y.L :.L i B ~.+.e.n (.e.x x V X.m A q.A @.1.$.Y 6 7.L.C.N.qXtXa ,.kXb 6.1.G.z > < k.2XB b 2X=X^ g =X0 w.r.w.+.s.r.V +.Y e w.t h r.W h i q X.7.+.r.p.W ^ g.r.j M 6 u h Y 3 o.a.1.$.3.^ b f C.q.0 w.c.> M Y.5X5   ^ BX$X^.^.IXuX=.C.lXr.L.N.N.s.N.N.N.A.N.N.A.A.6.] ] ] %.7.B.@.( q A n +.u.n.=.M r.u.A.|.i.5.A.V.C.m.A.A.r.tXL 5 E *XB y.C.|.m 7 ",
"F 1XAXqX,Xm zXaXA.xXL =._.~.u.u.N.S.r.V.L.C.s.].}.,XBXhXwX<XC.,X:XA.>XaX5X..$.A.2X#X>XJ.%.W [ ` ^.~.i J.aX|.lXS K zXv b A.>X|.# :.5X2X+.=.:.wXA :.aXV ^.F G =.e.:.q.m B y.u.u.n +.B u ^.u.~.M x O.n u.i.x x m z b A :. .1.6.7.5.M 1.-.e.s.A.yX:.=X1Xq 1.h a.q + * 5.U.G N g.5X( X.g.0 w.>.m V V.C.,X:.X.s.:.h X.+.o.^ >.m o.^ M >.E W e r.+.M M M i g ) ^ M l.w.>. .e g ,  .C.g d.w.q s.d.wXq & +.uX~.u.C.&XwXu.3XuX<.>XC.>XN.s.A.N.L.A.V.N.Z.A.B.J.7.G.%.7.X.M x c B ^ e.u.:.=.^.L C.u.^.C.s.>XA.~.6.Z.s.0Xp.b c.w.=.e.Q.#.M 7 ",
"=.1XxX1XL.B ^.-XhX#Xv ~.XXq.i n 6.C.L.B.B._.;XC.,XL.MX|.XX3XC.3X5X}.3XuX3Xo.%.A.1X@X$X3X%.E E W w.~.@.-XqXuX@XfXfX~.7 :.A.1X@.v s.3X0XM j b V.4.;X:.v L D m :.e.s.@.E ^.F B L u.W ..M.C.=.V.V b +.l n u.m v i z F +.O. .7.1.G.r.q.G.-.q.-.-.G.2X=XV j o.o.6.7 @ * C.J.V G b =X2Xg.M B ~.e.+.:.C.-Xr.n h >.M s.s.>.-.t / ^ / R  .q w `  .w.w.>.M  .g f ( ^ +.X.E V.d.i m q 6 ,.C.>.s M g b 0Xw < M.gX/.u.{.y.qXzXjXN.s.A.N.A.L.N.A.A.Z.s.C.x.C.1X,XA.Z.C.r.$.M m b B D i M =.F L u.L V.A ^.|.A.=Xs.H 7.B.N.=.'.9X@XL M t M O.m 7 ",
"A >XxXqXA.B B ,.=.:.|.@X>X|.q.q.E L.L.s./.|.L.~.|.=XiX XQ.>XqX2X<XV.3X5X5X>.A.>XL.V.>X>XL.N. .u 9.u.i 3XZXuXH X.c 0 A N.V.XX-.=.<.|.9XX.M V s q z v F v B 8.u.L w.w.>.L L J  .u.O.i o.o.T /.V 6 b h O.~.L B b v F G 8.u.J.q.J.i.r.G.r.B.G.3.( j g X.7.l.l.I.0 o - d.8Xx m V o...0 m ^./._.~.V :.>.:.+.+.^ g M :.r.~  .g 6 W $.O.M M r.s. .+.X.V h O.g  .i X.o.W s.4X>.=.=X>.8 7 7 w t r u [.6 6 m.>X%X^.C.=.-.y.<.<.s.N.6.N.3XN.N.Z.C.<.N.C.=X=Xk.6.A.>Xe.4.A m u m E.b 8.,.G K J ~.|.:.C.C.C.s.N.:.C./ ] 1.g g c u.G G C.>XM s ",
"Z 1XJX1XA.e.G [.=XA.>X^.M ^./.XXo.A.o.C.1XV.L./.|.[.iX3X3X>XXX3X-X>XuXuXeXw.V.L.N.V.N.6.k.N.s.^.~.m g.fXO.u.~.E.b b F s.r.~.~.=.=.~.qXA A e.e.L F L F D V x e.~.F b b =.V.V.E E i n m.^ W e.B D B J _.L ~.G v L L :.L A.A.{.B.V.B.G.-.r.G.7.6.G.-.-.d.K.G.I.m = * d.,XB V V O.+.M A _.^.^.u.w.:.C.:.:.>.X.M O.^ i X.( :.g X.<.7.r.T M M n  .3 r u M M T e e ..o.6.&.h M 6.X.f u b h h 3 t { s 9 6X9Xr./.|.C.p.<.V.s.6.N.D.P.L.Z.A.r.N.N.C.=X,XA.N.o.C.^.( 6.M b 6 b q 6 M G u.~.~.L s.=.i.^.A.r.<.=.s.7.7.Z.X.h u w.i =.N.A.M p ",
"N.5XFXqXZ.,.A.3X2X X|.i i i i e.Q.2.2.3X7XL.<XA.*X3XBX5X<XqXXXaXuX}.uXlXH.M.2X>Xr._. .6.%.o.m.u.{.e.qXXX*.q.L ~.m r.F r.C.).^.=.M s.a.w.G :.G :.G B F F r.N m L n u ^ r.N.^...n t i b u b X.w.E.K v (.~.~.J F y.C.u.~.|.XX1X^.r.B.7.-.T.T.K.G.G.r.r.d.G.l.d.B > < =X4X=.V q.J.a.+.b ~./.A.|.|.s.x.w.M <.4.X.n w M M h 5.r.V.s.:.$.u x q +.o.t i  .b M o.T t T / X.B.:.( M M g b g b M 3 n G.6 6 ~.qXs.i.,.X.w.N.A.s.s.C.N.>.>.B.=XG N.6.=X=X,X=X2X2X7.6.X.6.V A u b N.A.e.N b V.}.A N.e.u.N.1XZ.<.=.r.A.Z.V.N.r.e G :.M r.G.b p ",
"<.,XZXA.s.,.C.2X2XXX_.~.V.~.e. .7XK.,X>XL.,X5XL.L.,XBX5XwX0X$.5.qX@XuXJXBX[.C.C.A.^.<.A.6.i o.e ..-X+X/.>XO.i w.u.4.l >.A._.|.g q 1.g.L =.w w <.=.s.>Xs.,.~.y.v F N.i u y.q.` n u b M M G j A y.r.F F L m.L J v ~.~./.1X>XV.V.>.@.B.7.d.K.G.7.B.C.L.d.>XL.s.m * : `.P.m b >.U.7.V M e.A.|.=X@Xr.:.<.d.%.o.^ 3 e o.t u s.o.1.>.q.r.w.s u W e 3 w M ^ T Y Y ~ [ $.+.x.s.o.:.X.M ,.h  .V :.B.x.9 + 8 C./.~.=.=.,.r.[.s.6.L.L.B.Y.A.L.6.5XA.L.=X2X,XwX3X] ` M >.B <.b V L.A.N.w.=.=X>Xn r.e.s.C.2XA.w.,.s.<.>.C.C.,.^ r.,. .X.=Xs q ",
"m N.uX|.^.w.>X#X|.1XC.V |.L >.|.P.<X<Xx.<X,X<XL.L.L.c.2X5X7Xn d.G.].uXaXAXuX2X2X=X{.V.[.uX>Xy.^.XX=X@X1X,Xi.n +.B B.G r.s._.[.g b 6X3X=.i w e o.A A.2X_.8.L u.L B L e.i G L /. .u i n b 6 6 q =.u.J L G v K u.~.L u.Z.].d.r.~./.u.s.d.r.B.7.6.B.r.s.s.L.s.B.q > , i.C.V b X.H.s.M b  .>X|._.#X=Xs.s.s.X.^ X.X.o.<.@.>.r.X.+.f w.s.g.:.M w.+.n t w 3 3 Y T o.3.$.R ^ C.s.s.+.M r.,.e b +.>.%., X i e.N.=.,.,.F A A.>X>X>X,XuXuXP.,Xr.>XA.L.2XN.N.>XwX>X-.V A.L M 7 b q.<.A y.G y.].u.M M V.>XC.A.N.,.,.Z.s.N.,.M r.:.=.r.r.=Xp 5 ",
"C C.wXC.N.u.V.u.~.^.^.G u.E.^.^.5.k.L.L.,X,X=XJ.=XL.c.*.2X7XaXwXqX&XhX1XBXtX>XiX>X~.aXAXaXuX|.^.~.|.|.x.U.|.m.~.R.1.i o./ @XA.g =.%.0XF M F u.V :.y.r.~.:.y./.r.,.b L |.~.=.i b i b b 6 u w w.s.r.G E.K F ~.V.>X~.^.].^.C.V.[./.u.r.B.G.B.7.B.N.N.q.,.N.C.qXz 7 +.9X0Xr.o.+.7.s.V h n r.=X].A +.w.r.o.X.s.s.R T / / g / W w.M 5.+.b :.W 3.w.-.^ , e ^ :.+.w.[ W T R 7.C.<.:.M >.w.8 q M C.C.* X c u.u.G A M F ,.C.Z.>X1XL.2X3XA.,X:.2.L.1.L.>.C.C.=X5X*.^.[.M x B b B N q M B r. .,.^.V./.N.>X3XB.-.i =X2XN.,.C u.u.r.,.<.1Xs 5 ",
"<.C.4X6.,.,.r.r.6.i M B m u.r.C.L.` C.=X,X=X=Xh.d.=X3X&.L.qXtXqXwX&XhXtXiX2Xi.>XC.^.tXuX1XtXC.r q n ^.1Xx./.i.B.H ^.q.o.$.XX|.s n ] 1Xw.u.L +.D 8.:.D G F :.~.u.G 6 G ^.V.n u b r u m b n G ,./.V.A F J L ).~.V._.).|.d.[./.Z.e.A A.=X6.h.s.C.L.A.V.s.N.s.qXu 7 y.0X|.e.7.M O.M M M M w.r.-.M M M M ^ ( l.s.^ r./ Y e ^ i M +.d.s.>.>.o./ o.o.( 3 3 e R t ` I R s.6.4.U.,.>.:.:.r.s.X.n V.C.7 & b Z.r.A m.w.D N.B.C.,X5X=Xs.Z.L.5XV.C.` j.1X=XB.J.C.d.|.u.s.E q b c b y.q , M r.M H m./.V.L.G.3XC.X.] x.L.N.=.=.:.=.=.,.Z.uXg 7 ",
"V.L.BXXX<.6.,.u.6.T u.x B A i N.C.[.=X;X2XA.}.C.p.XX[.` d.p.e.>X3X@XwX1XuX>Xh.Z.C.^.}.g.Z._.q.M E >. .`.#.].o.W B ^.[./.>X$X|.q 1 +. XV L u W V K V.F :.:.J L L s.N.~.~.V.W M M u N D B L Z V.^.A G G F ~._.C.~.~.^.e.].Q.r.s.r.y.A.>XN.s.C.=XL.C.[.A.=XV.>Xz 5 B >X@XL 6.f ^ j s M +.>.+.q q f ^ X.<.w.s.>.:.s.s.j g t i +.w.:.E o.s./ T o.s.:.t i e o./ T Y R / <.R L.g.X.o.+.o.+.1.>.B.1Xq   , ~.q.m w.=.M N.=XA.L.>X,XC.<. .B.L.L.B.L.L.B.s.6.` 2.X.u.A.E 6 w m B u.:.B M u.u.>.i.2XV.A.G.d.s.L ` N.V.s.=.M ,.H =.=.^.3XZ d ",
"C.aXDX[.>./ M Z r.o.h Z ,.B t  .s.=X%XA.$X6Xi...]._._.^.{.#X_. XZ._.=XqXiX5.V.C.V.r.s.B.i.>. .O.~.m.n V...C.w.| _.6.J.>XV.|.~.q , +.f.s.V i r.G +.Q.M :.u.L w.u.9.V.~.~.O.i h f G B b T K v w.u.v c G u._.|.|./.~.e.e.[.e.i G ,.u.A.,XL.A.=X,XA.N./.C.,XZ.#XB # b uX%XA ^ $.o.M ..b b +.M s n +.w.:.:.b :.-.M r.>.^ M M O.1.h b u Y *.#.%.>.1.>.T E >.$.M X.Q R Y  ./ s.x.M n g ^ :.+.:.C. Xq X T gXs.m :.x +.u.2Xk.,X3XB.s.^ ` B.u.>X=X>XC.p.r.o.R ` E t L.M u u r +.].~.M h  .#X_.@X$Xr.Z.o.R $.G x s.>Xr.u.=.u.m.=.r.6X>XA g ",
",.,XZX^.X.-.=.X.e./.M m F V X.>.1.s.3XlX&X..W *.9X@X|.$X$X{.~._.e.N.A._.2X=X~.y.^.~./.C.~.s. .#.O. .V.[.../.@X0.2XG.L.#X^.@X^.> 6 p.f.o.i m n E e./.[.N.u.E.L :.L E.L u.m H u n n N :.^.u.J S B F B u.^._.|.^.@X_.L L 1Xy.@.b :.,.V.5XL.A.L.>X=Xr.A.N.>X>X3XB % B >X[.b s ^ o.X. .E q +.A m +.A A ^.m b s.C.g.r.>.>.:.s  .n O.M O.s.7.d.J.w.+.-.j T <./ / =.2.) i ) o.<.x.r.M b g O.M i r.'.7 o i -XqX~.v q :.8.A.B.C.w.s.s.6.d.C.{.=X=X@X[.A.s.r.h 6.T u C.f m N x G u.F u.u E /.^.p.../.d.W W ..e.n O.>X>XN.u.r.,.=.u.^.qXM 7 ",
"^ 2.4Xu. .<.:  .6.V.G A G X.,.,.9.r.s.u.L.w. .O. .V.]./.|.m._._.u.V.i.}.5.|.V V.~.).y.O.r.<.n $.O.i i /.5.*.^.~.5.%.C.^.~.&X].8 X.h.h.L <.M i i.u.C.A.L F v J R.L u.J F F ~.^.s.l B F m.L u.G Z F F ^./._.L ^.|.+X|.r.>X9.8.8.:.<.,.iX,XB.G.A.s.e.C.y.C.>XqXv % v N.].x g q o.:.M M ^ n G F F G e.l.;X>.>.x.s.>.r.+.X.V b M V.>.u h r.H.>.i :.-.>.7.<.R h -.1.` I ^ :./ ` ..b b b q e T $.1X0 0 V qX;Xe.6 i w.w.A.1XL.s.s.s.r.A.>XV.,.N.C._.[.V.r.<.L.]._.J f b B A ,.m M ,.>.w =.:.O.*.3XuXd.$.6.d.w.O. .2X/.=.:.=.C :.u.uXi > ",
"=.s.iX|.u.~ O.r.A e.A G F G r.r. .u.C.q.w.u.~.y.$.*... .^._.|.|.^.q.V ^.j._.e.G  .O.@. .n M n q.q.6.t  .5.g.M C.}. .6.:.J qXC.0 f ].jXL  .+.8.u.V.C.u.F S D F R.~.,.L G b L G L F F L =.F u.<.F F u.[.C.~.u.^._.~._.^.C.^.e.,.=.y.+.,X>X[ %.2XV.N.N.N.A.5XhXM $ B a.`.M M b X.X.X.M g b B F L L ^.g.^.t e o.s.6.+.h g +.M q.L O.X.^ X. .X.h >.5.^ l.1.[ ^ ` [ 1.Y ^ n X.e C.g b M b b M 4.kXH ,.L  X^.E.|.| i /.A.3X>XA.A.s.C.3X[.w.=.~.w.r.e.r.r.>.s.u.~.B f u Z L ,.M B M ,.=.=.L  .r.XXuX=X,XL.e.r.F G A.V.r.B w.~.u.r.3Xr 7 ",
"B s.DX2X].:.q.i.q.>.V G u.~.^./.G L ~.O.+. .n `.~.+.@.^.~.@XL ~.u.n i i.0.]._.r.r.^.e. .O.l i +.V 6.w.o.|.f.` ` q.u.d.=.J ^.e.7 g |.#XN q n N u.y.y.G L J v v ~.~.J F ~.~.G J G :.,.<.r.V.u.r.F F ^.V.r.u.|.|.^.~.~.^.%X|.~.~.:.F =.<.r.s.L.N.r.,.C.N.6.s.uXZ # 3 `.d.M n n ) M ..n g M :.B v L M i Z X.:.M M >.M M M >.:.s.^...1.>.+.7.o.4.>.<.o.1.[ $.R / z.M X.:.T ^ r.s.t t r.L.s.>.g.bX+.z L 0X%XG +.G w.[.>X>.C.A.^.|.=XN. .A N.s.w.N.V.g.|./.$.N u.J O.n M H =.G L v M M =.u.r.|./.C.>XL.>X6.g./.C.V.A./.q m.1Xr.<.2X, # ",
"=.@.AXwX/.E q.q.r.6.r. .u.~.~.A./.r.^.n  . .@.i.*.M ^.^._.#X).^._.u.m.qX'.&X&Xm.e.|.].V e.V O.d.o.n #.` |.'.....i +.q.6 L |.u.u m _.'.q.E T w.u.M G u.F B F u.~.~.E.K ~._.~.L u.~.r.y.|._.~.V.L K V.w.8.u.^.L ^.~.E.+X@X^.~.~.L ].C.:.L.Z.C.V.N.:.,.M N.C.qXm o < s.d.h g ..>.`.i.q.m A L B L u.n E u b X.M +.<.o.f j X.4.@X_.` >.d.1XC.3.s.5.w.h X.7.[ R  .Y / X.X.e  .s.M u w V q.=.r.tXZXx z ~.hX@Xu.8.u.u.A.A.s.Q.~.r./.;Xf.i.r.r.,.s...s.A.N.=X>X_.L ,.V.#Xq.:.u.,.=.=.B m F Z M :.[.N.A.3X1X3Xd.m.s.~.C.H e V O.=.,.$Xg 7 ",
"M @.eX X/.V.q.q.w./ :.:.:.r.r.M.s.s._.^./.i.@X'.#.^.E.^.^.q.~._.@Xs.].uX#X].C.q.i.+X^. ./ r.e.V i ..^.A.XXg.n i @.8.b M ^.&X~.% 6 ].f.G t =.r.u.L L F B F c L ^.^.^.L u.m.A =.L V.=.m.%X|.^.^.e.s.M.w.L L ^.~.^.^._._.|.|.^.8.=._.>XN.Z.C.N.A.C.,.B B Z.#X:Xs o ; <.1.t q o.r.=X=Xr.L :.~.~.A.e.L ).N B V M 5.M o.^ g t e.H u.L  .[.&XB.d.6.3.o.e ^ o.1.) ) $.6. .Q Y i r.M i w r M M A V.gXF z ^.gX}.:.L |.u.t.V.e.y.C.w.V.>X].C.>XC.A.N.+.6.Z.$.A.>XN.A ^.|.|.^.u.>.=.=.w.F G A m A L ^.V.r.A.[.2X,.A V.1XC.~.M.~.e.j W L.s > ",
",.Z.eXd.L C.V.r.+.W w.:.M m.C.i.u.w.d.i.@.e.`.y.u.~.^.|.^.i.Z.$X_.{.@X*XK.`.].g.^._.XX~.`  .i L n ].^.|.`.G m.=Xr.b q V r.qXe.0 c |.uX:.<.=.y.u.~.=.m F F v F K J ~.~.>XV.=.u._.^.G u.`.]./.e.q.r.i.H u.C.~.u.u._.6Xu.;X_._.G y.u.}.L.V.A.r.r.N.C.A ,.s.V.1X8 o - s.5.u T v G >Xs.s.A./.V.m.[.>.D ^.u.G y.w.:.b M >.>.G s.A u.u.J y.a.|.O.o.:.G./ / h <.^ o.2.-.o.0./  .:.n i :.Z.s.:.e.C.fXm z u.6XqXD :.~.u.:.=XV.M s.=.<.A.A.@X%X].=XC.V.` g.A._.1XZ.M u.[._.m.m.r.u.A F A ~.u.=.=.,./.[.Z.r.d.J.y.G 6.5.s.A.|.G M.C.i @.5 # ",
"j ^.kX>X~.M.r.+.A r.~.m.B y.A. Xy.r.C.e.1. .$.` m.u.~._.|.@X@X&XqX6X|.&XqX].^.@. .].].^.i.^.u b (._.t.q...e.n 1.u.D G l e.qXr.0 q g.-Xe ,.L u.G B L u.u.E.~.B G G u.J e.~.L _.}.u.e.e.e.u.~.M.e.i.e.~.^.^.~.^.V.r.A._.[.~.).u.r.A.r.A.r.Z.s.r.<.s.C <.:.A.aXt > < @.v.t / +.u.|.[.r.m.i.M.L V.L s.s.^.L G e.i e  .r.^.N ~.^.~.L E._.M.V.s.s.5.s.7.+.1.( f [ k.Q / 4.>.4.<.r.n s.V.p.q.~./.qXv b ^.0X;XG q.B e.s.s.I.B.m.=.r.$X|.|.-X1X[.A.C.A.;Xy.^.|.L |.|.|.~.r...n >.=.H ,.L L :.=.=.[.>XZ.V.] @.,.N.N.r.r.e.u.:.m.A.r./.g 0 ",
"f s.aX3X{.C.{.q.e.L e.u.s./.[.}.A.>X=XN.=X>.q.>Xi.~.~._.u.f.].|.W.'.]. X,Xp.w.r.o.@.>.i.~.q.o.i (.(. .....u.b G q.N E.l q.0._.z v /.&XL /.~.^.L F ~.~.u.~.M.m x z G B v M n /.^.G m A e.^.q.e.e.6.^.^.u.|.|.|.1X[.}.^.,.^._.w./.}.~.N.s.N.w.s.s.r.L e.<.V lXA : * p.v...X.,.L _.^.=.@.M :.6.L B L {.[.^.u.F 0.^ V i.^.i y r.^.L {.r.o.7.s.#.E / :.:.C.o.Q ] z.T R ` 1.+.>.,.:.^ X.M e.^.>XqXs , ! kX=X:.w.m b +.h ..X.:.y.r. X@X%X7XC.^.6./ d.}./.V.<.X.O.~.~.u.-.+. .:.^.r.w.,.t.w.=.r.C.C.V.A.<.o.@.^.s.h +.E N.H r.e.=._.z % ",
"Z C.4X Xw._.`.i.G F G r.o.}.#XV./.[.1XC.>. .E =X/.~.^.^._.'.p... .C.g.=XG.C.w.:.X.V w.s._.^./._.6X^.D L m.~.b N N N u.i /.*.e.z v e.sXL E.^.~.~.v J u.~.r.G b B v N q A [ =.~.r.A i t E i.i.e.q.u./.V.r.$X[.#X=XM._._.^.m.r.r./.Z.|.[./.r.C.N.s.r.G u.V g 3XA o - / H...+.w.w.~.^.>.) <.1.s.m.G r.N./.|.[.L G +.G H w.^ m.u.^.q.X.>.s.W 2...>.o.w.s.w.` ` *.G.1./ / %.r.q.e.:.i i q.b e.=Xx.8 & / BXC.:.=.=.,.6.-.X.V.i.s.u.^.|.3X|.r./.A.s.s./.Z.V.$Xq.m F e.A G L u.o.d.~.=.=.w.~.,.s.@.o.| <.<.w.C.w.N._.@.n r.m.+.n =._.z % ",
"=.C.gXC.L ~.~.u.G u.[.V.^ {.|.^.C.~.^.B.i.`.@.=.V V e.a.r.r.r.r.+.g.g.C.$.$.g.h ^ M M :.g.=X/.~.^.J D E.u.^.u B F m b ^ 9.p.e.% g  XjXG D G L F v F F V G ^.e.A V m B V G s.N.>.V q.E ^ e.u.e.<.^._.u.|._./.|.].e./.].^.=././.^.N.Z._.V.$X2Xm.r.w.e.e.b =.|.m o & I } -. .r.~.~.[.r.4.$.+.3.e.E.u.i.[.1XV.L +.i -.{.J.oX`.E $.:.s.>.6.4.*.T ..s.>.'.>X$X>XC.L.c.j.L. .$.f. .M u.^.^.m.~.1.k.9 X f '.d.:.V :.:.7.V.6.i.4.r. X[.^.%X[.>X>X{.C.^.X. . .>X .:.H L e.V N r.@.a.|.u.y.^.|.y.e.:.A.s.o.o.N.A.s.1.C.~.-.=.H e.u.L %XB z ",
"M :.5X|.L m.m.^.u.|.`.m.L m.1X|.M E i.e.e.r./ u +.n j 6.p.w.r.g.,.>.w.Z.d.s.w.:.:.:.:.,.:.r.e.V._.E.u.G e.E.u B B b M b n gX~.# 6  XzXe.G K :.G K K v A F G m x x x u.L c w.r.O.@.A q.e.e.].N.r.~.^... X_._.|.|.^.r.e.>.r.=X .r.^.A.N.r.r.V.u.A A G ,.w.:.^.= o ; ~ z.4./ f._.|./.,.b o.$.>.e.|.L L |.#XF K u.i i.;X9X-.W X.w.@.p.G.o.$.>.W *.V...a.2XqX1X{...*XqXm.Q ` $X~.r.u.C.r.+.,.-.1.6 & ^ 1X<. .b :.:.r.g.r.A q.B.L.[.A.>X/./.y.r.|.A.,.E W C.%X_.)._.s.n N F M ../.e.~.V.~.y.,.<.A.r.^.N.6.6.r./.|.u.e.n m.~.L :.O.6 s ",
"; I 3Xe.F J m.~.|..X4.o.V /.#X~.b j C.i.w.o.e ^ :.w g i X.w.w.s.r.r.w.=Xr.:.>.>.w.:.s.>.,.+.^ >.^.).~.~.).L k F K F w 5 u %XL @ c %XzX|.O.N L 8.G B D u.~.L 8.v A u.^.u.F +.i.q.X.q.i.u.e.i.M.A.r.=.G ^.i./.M.,.u.L L i <.E W ^.A.^.w.A =.r.m.L G e.8.:.,.n ; = 2 `.4X$.o.E.A.A.C./.e.M X.M 6.u.L L L L Q.^.qXw.L @Xg...^ s.V.` s.s.W #.p.W l.J./ :. XaXlXhX3XeXV./.s.C.L.q.M n u.>.b A r.5.9 & ^ 2X<.s x V q.A -.A +.r.L.V.s.>X2X.XA O.s.=Xd.W r.s.C.A.`.~./.&...p.~.<.E q.L u.u.s.u.<.,.w.r.N.r.e.m.G m.V.r.u.i +.e.u.n @Xq > ",
"* o.0Xe.l K G w.u.V.^ q.i +.].).F M n / 6.+.u u e , +.j  .q.+.>.:.g.r.C.s.X.w.r.:.M n :.o.:.+.+.>.~.OXR.~.L F B L D 9 b L %Xu.% z %XzXV +.V L F u.J ~.|.~.~.B D u._.~.V.m.G A >.:.<.V e.i.q.e.m.u.B b ~.~.:.M M L E.F 6 6 =.V.~.u.u.s.w.B C m B X.B B :.e.i.> & 2 f.Y.$.>.|.>X<.^.V.C.r.`.m./.^.u.B L G m.~.$X%X^.g.s.r.W Q g.C.V.=.` x.W o.p.#.%.C.5X5XgXlXP.g.r.E q.L...%.E  .|./.A =.i.d.9 & ^ 2Xd.b :.=.m m :.X.>.G.r.X.^.A.].N.,.<.r.>.s.` C.V.V.V.$X~.u.M *.3X|./.+.^.~.L u.u.w.q.X./ C.N.A.H V.^.~.C.V.M.>.X.V w.i  X4   ",
", @.c._.m F =.:.b 8.u.L ` i  .~.i w e e ..X.o.u T e i u +.V  .:.O.1.>.C.s.s.s.>.+.n X.:.X.M n M :.r.^.L ^.H F F q b b G G /.L 5 k @XgXi n +.L L F :.^.~._.E.b B A.m.u.e.v F m M q.d.<.A q.:.u._.).G x F |.u.L V.^.u.B u q y.u.y.L y.=.=.L ,.=.m B e.F m 8.oXr & < ^ z.6.<._.A.w.Z.s.N.^.XX~.F F ^.L u.F /.C.u.^._.#X` w...W / L.1.,.J.s.#.4.>.' 5.U.J.$.o.s.G.g.s...%.$./ w.*.s.i.:.M X.i.d.5 & ^ '.C.r.,.M b N A A w.q.-.s._.V.u.V.<.<.A...d.C.C.G w.G /.u./.r.i.|.[.XXr.~.q.G L r.u.^.m._.V.r./.N.|.~.|.^.~.|.r.e.M b n ^.7 o ",
"B V.jX|.~.8.G w.B F O. .+.l i A u w w Y M Y b h M h u +.M M s.w.o.>.o.>.:.s.$.-. .n X.+.+.s.n M t X.W ~.e.B S u.m k z K F #XK % v @XfXL e. .V J G u.:.L m.@X_.:.s.,.m.Z F ~.G G M.M.M.H ~._.1X/._.F F u.L i ~.[.].u.B L r.L v e.~.C.H f =.G +.B B m v v B _.M o < i.5X<.9.s.Z.C.V.w.r._.V.H u.L /.r.r.u.C./.u.r.~.V.E o.>.s.V.=Xj.W k.$.d.d.` ` G.C.K.7.x.C.P.=X=Xw.%.%.X.M Y a.A.X.A V e.d.6 X ~ #Xs.b b m b x q.q.V X.X.{.C.V.y.,.i @.1X/ E ..].r.u.G u.r./.C.C.^.~.N.m.=.O.m.u.>.~.e.+.u.:.u.=Xu.q.u.u.w.,.e.r.^.V t t i.0 # ",
"6 y.qX}.E  .n e.G }.u.=.~.B ).L b t t :.w.t u u w 6 h X.i h +.s.>.:.X.+.>.s.@.X.E e e t  .r.+.n n / i.L ~.F v G F G F F ~.hXu.% b c.gX~.|.u.B F B L B G L u.u.u.L b L ~.~.~.G t ~.~.s.u.L u.~./.%XF L :.K @X>X/.^.L F L ~.^.A i.^.:.A =.e.A B B B B c g B ~.z 5 B V.iXb.~.r.V.u.r.s.=.^.L F L G w.L u.B.^.r.,.r.A N w.%.r.>.O.*./ Q Q Q [ s.7.L.7.H.7.l.J.s.C.=XV.:.E Q 1.:. .-.A.s.X.q.e.6.> X e a.C.M M x b x V.r.h m e._.~.L r.^.+.` =X .e i./.:.:.V G =Xe.C.u.:.e.A B n M ~.V.V G *.l ~.w.~.^.r.y.r.u.=.=.N i :.F m M |.q 5 ",
"n `.*X5.~.+.6.=Xw.|.,.M w n ~.V t e 1 M =. .T e t t e h i e i s.@.) w.<.3.a.<.$.E Y Y W <.+.M i i  .X.G ~.u.u.J K E.u.:._.gXu.% b i.lX_.XXH B F F L u._.^.~.J H N.N.u.u.~.u.G 9 v G u.m b =.:.u.V./.6X8.O.~.G L u.t.e.E.~.^.u.F G :.H :.H e.V m v x c u m ).z % r.%XrX3.C.s.r.s.r.s.,.w.L F G u.n L =X*.h n W n u.L |.i.XX6.^ ..Q j.2.$.@.w.s.G.a.G.x.s.G.L.-X,XC.$.Q Q q.X.+.:.T 1 [ q.i.6., X 6 <Xd.b M g x q.V.q.m X.i.].~.L m.^.A N.1X/.m m.L :.[.1X].|.^.~.:.A L F M =.F F H b K E.u.^.F m.C.>X^.u.L :.G b u  .F b ~.&Xq o ",
"u.&XgX..i V /.6X_.~.@.:.t V f t Y w r M 6 @...t e e i T i h  .w.w.@.p.C.w.r.a...^ s.w.s.+.n n X.+.X.b +.^.~.L B K L L G :.@Xu.0 C 1XZX#X^.u._.~.F ~.^.E._.~.K u.L H u.~.L B F L F G r.q.m.r.N.,.C.6X].e.e.G G K F K G L ~._.^.G u.E.F :.m M M B q.B B m B _.l % ,.qXiXs.1.B.'./.y.N.y.B r.u.G e.M ^.u.r.:.G F s.C.r.r.../ e.w.C.j.j.] ] Y t C.L.G.C.-XT.J.-X,X4X0X&.w.[.].h h V.t 3 s m X.7.5 & q 2Xd.m j m A A r.r.A V q.V.w.i q.X.9 M u.r.B m m ,.|.[.g.M.+.u.L u.G F 6 r G e.G V A u.e.+.A ,.u./.u.:.n u n L L i i V e.*.0 0 ",
"=.#XZXA.H w.V.~.F >.6.t g V h M Y j n M , n b w e i X.t 6 w i s.>.>.+.s.s.:.>.:.:.a.+.M +.M ^ X.b  .+.:.r.r.L u.L F v F B ).L z v |.gX_.^.u.|.u.F w.m.u.~.|.^.F ~.N.r./.V.u.u.~.u.+./.XX~.^.~.~.m.L q./.~.u.J G L L L L L u.~.L J L D G G B :.A q.<.e.+.B _.l 5 B hXlXp.Q.'.Q._./.qX>.L w.J N u V /.[.C.Q.u.w.r.H [.s.` C.'.$.2.4.%.` Q Y ] C.x.5.6.J.U.C.,Xx.2.qX`.|.u.|. Xr.=. .,.V j i.7.6 & h 2Xd.m m b A :.e.A r :.`.@.%.*.e.b n j w.N.L m ~.u.m v e.C./.u.^.L m E.M u i >.e.u i V H H :.L ^.u.r.,.b e i  .G w i ^.w.a.s 0 ",
",.J.0XV.L u.m.L L e.Q.u.+.@.q.n :.M M M f , u w w M h u 8 1 u :.+.>.<.s.s.:.<.c.>.:.w.:.:.M n b s E ^ j >.M.e.^.m.v c v F qX>.z Z 0X$Xw.XXL L ~.L L ~.^.L /.~.v L >X/._.[./._.^.L N V u.w.u.y.s.y.G N L B V K F F L L F b D L v v u.L v B x G G m B G z O.|.b a M ^.5Xy.Q.6.V.r.r.w.M u.i 6 F D b o.u.,.r.r.x n L u.C.|.u r.p.] o.r.Q Y +.o.p.k.B.l.C.C.C.L.d.c.=X@X3X|.^.k.r.w.W M O.:.q.5.8 & ^ 1XC.M V m A m b g 6 t r.r.M./ r.i n q.M.Z.^.g w.L M m.m.^.].^./.L L _.E.J G M t  .G O.M q.G G X.r.Z A :.i.u.u.w.m.=.~.^.qXv z ",
"C ^.lXu.:.L L m.u.u.s.@X|.t.L q V -.+.=.M X. .e h w e w g , g +.M M +.w.w.+.d.s.<.g M X.:.:.b g s j t w t t u.G B v v B i :X .o 3 #X@XG |.|.~.~.L K u.~.G y.L m.~.@X/.i.|._.~.~.~.u.m :.w.H u.u.F F n b q.L F v G F F F F u.u.F F v B g V x X.q.M q.t T O.).v + b ^.}. .].N.s.E n u.:.M t q v F i X./.>.y.A.N u G C.r.>.E O.Q Q r.s.g.$.>.i H.>.1.$.7.C.x.J.6.0X2XXX/.3X9X#.:.w.G.>.X.:.<.G.> X b ;Xd.M X.X.j s q s M X.A >.i.$.r.q.n :.V.V.=.M v =.u._.,.L N.^.r.,._.u.i.e.~.e.u.~.=.G  .t G ~.e./.,.u.:.^.e.i ..w.:.M.=XqXv s ",
"<.1XzX^.u.~._./.~.L A.#X+XL i. .L M s.u.u.V V r 1 , u g ^ 6 g i M +.:.+.-.+.>.s.>.s X.>.+.M g q o.+.X.i Y w x c v B F D q g.w o ; =XqXK u.6X|.^.L F ^.u.B y.Q.~.~.~._.#X^.^.y.~.^.L u.u.<.~.F v v B G G N e.G c J B B F ~.^.u.F F B e.q.G G u.e.e.M.d.+.X.^.v o 6 d.qXe.}.'.C.s.G q.V.r.^.A x e.9 m r.h.d.M ,.m.M /.r.V.C.V.i.@.V.s.r.X. .w.L.>.s.s.d.C.s.J.J.2XhX%X/.XX0XC.M +.g.w.$.+.e.0X5 X g '.C.M A A $. .j X.V b X.q.6.e.i.>.n +.V.e.=.V B u.^.m.n m.H :.u.y./.G ~.E.^.N.@XG 6 b F V i w.).~.m.C =.m.+./  .=.u.w. X$Xv s ",
"r.tXxX&X>X_.OX/./.~.C.~.^.e.f.^.~.M =.M G u F :.w g t h g f ^ M n b M +.w.f ..>.:.+.M >.>.:.M s :.^ T O.e 5 b x B v v B m E w X 6 |.0X~.G u.E.e.u.L E.u.u.G u.L ~.B _.~.~.6X].:.=.=.u.e.n G 9 c Z v Z F e.M.A B m m B G B =.A x x v Z G x m G e. X].=X>.G C.F % n eX0X/.C.f.i.q.i A u.s.Z.~ n o.7 q r.L ^.r.C.B H /.u.V.u.p.A.|./.s.i.q.>.1.N.-XC.s.C.g.s.C.g.L.'.@X_.wX:Xs.o.:.r.+.M ( :.].5 X q  XC.n V :.n O.X.X.V M A :.1X .+.i e t h b X.h m 8.m.F G u.=.L u.u.r.:.L ,.u.Z.i.K w.i N L G u.u.u.:.A L u.r.<.,.:.:.V.#X3Xb z ",
"V.aXFXXX^.~._._.s.V.s.~.+Xu.B L L =.=.=.r.N F u :.X.n M j 9 f M g 0 s g :.o.+.>.+.:.X.n +.b n h E Y T >.^ , n u i x j M M  .G # 6 E  X^.n +.L e.E.u.u._.^.t M.>.M.L /.M G ^.G u.r.x ,.:.c ~.E y m ^.q.q =.i.e.A B B B e.z B A m z N B A x m M M M.r.,.X.A A.r.% Z %XgX~.Q.$.R X.j X.X.h 6.^ h >.n b `.Z._.[.A.G u.^.V.#XA.M.u./._.~.|.=XV.>.C.,XC.x.r.>.r.s.s.s.=.s.[.5Xd.>.+.>.r.=.n :.:.V.> X g XXC.:.V.r.A q.A X.>.i.C.7.1.] t t w A u X.N m v :.u.L B ~.L ~.L u.L y.G ,.=.~.q.n :.D n q.~.u.Z :.Z =.L V.u.r.r.y.M H Z.qXF v ",
"<.lXDXu.u.w./.J :.~.r.L +X_.~._.L v F ~.~.e.j n i b u M n f  .+.q 7 r g g g X.:.+.:.u 6 >.b M s./ e 6 u u , b N M >.6.s.j ].:.# +  .&XZ D  .~.|./.L m./.^.^ r.w.V i.|.O.6 5 x +.i.v z z F /.~.G u.qXE.m F H i.e.A q.G b 0 q M e.G e.G X.0 q.q.e.^.r.X.e.:.A.m.5 z 6XxXV.y.1.) &.M X.^ M $.>.X.N L ]._.m._.m.F E.u.^.2XtX>X@X#X2X|._.`.2X^.s.C.s.x.s.:.s.r.+.s.<.X.,XU.,.s.r.r.s.r.M g :.,.5.0 X T gX`.h e.:.V q.q.V A e.1.^ [.r.f u 6 w  .n m x X.e.+...n b h ^./.~.F m.~.^.N +. .n L J /.^.L B F K :.Z u.^.r.y.h u.j m.|.fXF b ",
"6.%XqXu.u.H V F A J ~.F B _.&X~.z c m G q.M M >.X.g ^ :.>.+.:.+.= 7 q g q f X.n +.M V b :.g E n g M i , 6 6 w n q.=.o.^ M =XH # b {.#Xw.F O.~.~.q.i r._.]...*.G G e.e.).L z q O.r.A F G |.@X_.F u.~.F F B F G V B V A x N x z Z A G m m q q.q.u.M.u.,.G :.=XA > :.[.lXm.-.E / X.h g q j r.:.s.~.L ~.c F ;X^.M.u.L L _.A.[.%X@XqX_.@X-X9X=Xi.#.C.$.C.,XU.=.+.>.h.x.P.6.+.r.:.+.r.>.g  .b -.d.8 X T 0XL.A M M -.>.e.e.r.V.V.>.J.t , w A b X.:.A x m A Z :.M n :.r.|._.m.|.|.^.#.w.#.A.L b G ~.m.y.~._.u.=.M ,.<.<.$.C.n w.~.qXq 7 ",
"f =XgXV.~.F A ^.L B L ^._._.~.L s M ^ M s g b n X.M M >.:.^ n X.b q ^ b b b h  .M b X.h M M M n  ./ u q 6 8 i i V E.e.w w gX~.o c #XqXG D ~.e.y q.^.:._.].`. Xu.u.M.e.G V V q c c F V.~.^.^.~.B u.u.y.F N F Z M m x x z x k x z m B B V x x q.q.w.e.G G F =XV o 2 L.wXr.4./ ..M ^ n M X.>.n V ~.F L u.u.@XZ.~.:.Z F ).qX%X%XqXaXwX&XgX0X1X~.a.G.Q >.r.C.s.s.w.G.s.X.6.>.s.>.X.:.+.u u r M C.7 X o.qX7.A :.V A e.q.q.r.i.i.V.6.^ X.A i.b 1 h X.b V e.G :.q.~.L F )./._.&X|.C.].$.@.w.g c F L A =.+.A.^.H F :.u.<.+.@.@X|.#XwX7 7 ",
"g w.aXV.~.u.u.@X|.G J _.|.E.~.(.A :.M M g V n b M b h w.X.q u ^ b +.+.+.s.w.w.M n 6 = 6 e b b b o./ h b , M G n M e.N N ~.gXe.# w }.DXV.G G +.u.u.y.u. X~.^.u.e.q.^._.L w.V c L F c B M.u.x b S u.].^.b i x v B m m z 0 x v v m B A x B G M B e.m.G =.u.n.tXM X * V.BXXXw.O.Y ) X.>. .h X.+.<.^.~.u.m.~.%X|.H L F u.i.%X@X#X]._.@XqXqXg.^.>X1X=X=XC.s.:.C.s.r.>.C.s.s.r.s.C.>.-.6.>.g b X.L.q X M.1XV.A A q.q.A X.V q.g 6.:.-.V M =.e.B w q g A A M.M h q._.u.M ^.F |.1X[.%.@.s.~.u.m F B c c u.L u._.L Z v ,./._.C.^.qXtXlXm % ",
"g i.dXF B G L M.~.G ~.L ^.~.=.V M n s q q n M :.g 6 r  .M g q w b +.V +.r.r.r.,.+.M b V :.b w = g  .X.i 6 M G G G V u.~.).fX~.# 1 3XlXN.^.e.q.+.n L u g.].~.u.e.~.`.H m L u.c S ~.G x F @.6 a L _.).w.B G F b b N m x A A B c v G G q b v B G G e.w.=./.@XgXq.+ M XXkX[.=.>.E 4.q.m h i M e.).~.6X^.F O._.@Xq.F K ~.+.y.1XXX .^.)._.qXo.^.|.uX[.r.s.s.<.s.s.:.r.s.C.J.r.H.w.M >.C.+.g M :. X9 X e.G.[.h 6 M b :.A e.m.V./.V.u.=.M u B e.m , 9 m ( A A i  .^.V V u.b ^.r.u.+.$.~.L G :.G G F v =.b G ^.L A :.=.:.].XX/.|.'.fXz # ",
"C ).DXe.m G ,.M B e.|.u.G A M  .w b b h g n +.>.M 1 6 g +.+.b b +.w.,.V :.w.w.s.>.M M i w i , i +.h O.w 6 q x k b F H c J e.v $ g qXgX/._._.s.e.~.L Z G e.u.e.i #. .f G t.L G D F F ~.^.m c N /.E.x u X.j F 8.G /.B x G G A B v m m A B n +.F L b y.r.=.<.6XA % M ZXFXZ.=.y.M.XX8.u i /.Q.m._.~.i.|.+./ n |.L B i  Xu.[.$XL ^.@X%X^.|.[./.[.$X|.i.].V.M V.C.V w.<.U.*.i +.s.M M >.r.>.( V 4.g   A 8X=X:.i t i 6.A A ~.~._.~.u.=.N t h 7.-.u j M b q.q.b u.A u g._.u.V././.H q.r.^.s./.^.u.=.B L x G F M G w.,.=.A V.@X_.@XfXc # ",
"F _.4Xs.o.q.A q.+.:.+.m q M n +.+.q f M b +.:.>.+.h g u +.M b X.b w.:.+.:.b +.w.+.b +. .g t t 6 u G e.u q b x e 6 b b b b @.F # m @XzX~.L |.^._.^._.8.M V w.w.e.@.O.M l m B B L c k ^.|.^.v z F v k n :.M A ^.+.e.~.B b x B e.V 0 G e.M B G ^./.A v m.:.=./.A 5 Z 2XuX=.8.u.q.e.A n m M  .M _.y.e.^.n -.E E u.:.u.[.|.1X[.|._._.|.+X%XqX{.<.1X>XA.1X[.+.V.l.,.+.:.L.6.W ^ <.r.:.s.<.^ M  .2.m   V [.P.+.q.q.M H u.m.~.^.V.:. .>.r.t M e.<.B m X.i q.A u.M.V e.|.%XXX^.i.=X].r.L ~.^._.].~.u.:.Z B H b t L ,.=.y.@.L ~.^.u.fXv # ",
"L _.x.f ~ X.G V m =.+.M M +.+.g M n ^ g >.>.:.>.+.b b n :.g g M f M b s g s b b V M :.>.n w A J :.e._.x | b k q u b 9 b G &XL o r +X Xj +.r._.m.F e.:.:.M M ..i.u.H u.L c z z v F J ~.L v c c i c x B B u G L J b c B F z B H B m G B G 8.H u.,.m._./.:.m.1XK # g c.3XH 8.w.:.+.m b h e M n G _.).r.~.A.^.M :.A r.H =XXX>X}._.i.@X%XqX$X2X+.d.XX/.C.].W r.w.C.W 4.U.>. .>.<.X.M >.s.@.E ` #.s   V  X[.t u L L L L L L u.G F  .V.s.w.e.V i X.X.M.<.q.B V e.=.u.K ~.;X~.~.^.$X^.^.{.^.u.~.L +.~.~.u.~.L L L A B B t e.q.+.O.;Xv 0 ",
"u @.j.h :.t X.V b b ,.>.:.M >.>.>.M f w M V q M X.M M n +.n s r g M b s g w b M +.+.+.+.M w i N @.i @.B 6 b u b Z u z F J &XL # u ^.`.e M q.w.F J F y n n G M M u N ).~.c F v c D F u.z c F c b v v v c H ^.L L v c K L z u.V b e.e.G D m.m.F ~.~.G F v L qX:.# m >.$XF A :.:.F Z v B M ~.J ~.L y.n i.i.e.A.u.s.oXr.1X|.>X&XqX@X%X&X#X~.}.^.y.|.V. .^.w.r.4.*.] R r.w.p.1...g M +.+.R R :.s.7   e C.[.G m.m.F 8.F L =.K B L L i t t t t :.C.i.M.e.q.A G e.e.e.u./.|.u.M m.^.L L u._.F J G N R.~.u.~.E.~.u.v x m f h Z 8.~.&Xc # ",
"z T h.h X.g j ;Xh.>.g >.s.+.+.:.X.f q 9 g M t f M n M +.M M M g i s X.^ M g b M M :.M i n X.i q.E t ..B i ^ i  X%Xb q B v _.F + s u.c.T y ..G $XqX~.F u.n e.u.e.l +.).+Xu.^.F x F H G v 0 z c B L =.F m F L L _.L L F c v s X.e.e.M.~.A u.:.^.IXjXv z B F [.u.% F =X6XL G A ~.qXg.v b L L G u.F M M.y.K G u.^.i./.b XX/.3XlXxXqX&X@X~.e.|.fXi.@.e.E  ./._.` X./ Y o.^ o.-.>.>.-X=XM w W s.C.=   u [.5.q.r.u.#XtX^.:.F :.F ~.~./ E -.-.i o.R A t n A M A G G A A u.~.:.z B v b F ~.e.n 9 N J R.J G u.F ~.F s /.'.o.q m u.|.%Xz # ",
"9 I %.b n u [.n i =X>.>.B.@.p.+.#.^ ^ u h M g 8 g M ..3.M g ^ M +.b s b M g u M w M i , u i t n i r.f.l n i 0.g.g.}.c v J ).6 . o _.qX@.g i j.Y w.qX+.l y e n V e./.i.e.q.q.q.V N V M F G b c L ^.B l B u.A m.~.K ^.i.F D 5 t +.i ^ _.m.L L qX~._.&Xz v b L G a :.wXgXV.w._.IX|./.|.x F b n X.B M ~.u.^./.>.L _.L.i.V =.~./.&XxX&XqX_. X XhXjX=X+. .$.f.C.e.:.t o...t >.<.C.W h 5.,Xq >.@.1X6 X e.BX2X:.=.~.xXXXfX&Xv H u M i N o.V.w.E q.A M h q.i.>.A A x g V e.e.=.m G M z x e.b i k J F F B F u.K G 7 u.@XL  X Xv L L `.7 # ",
"< U K.=.m V J.5 q -X .t s.<.d.s.M t h h u X.X.M n +.+.:.M q g g V r.s M +.b g n w g g q M n w M m.u.i n V q.qXz F yXB c G y.6 . + f.>X=.w M ,Xt 8 1X_.B O.q.e.+.u ^ :.i w.u.w...e.e.D N G v b B _.u.B B u.L F B B F L ~.L z V |.~.L ~.m.m.|.qXz c %Xb v u.|.u.0 =.hXlX/.m.gXxXz c lXq B r u E G G m._.|.].~.r.uX].y.H V.~.~.|.^.zXxXlXyXuX].*.p.+.w.c.*.m.M.T / / / W s...l./ 7 X.BXq :.d.=Xg & A gX=XV m [.`.0 m lXF u.i M i M X.=.t r @.A X.X.@.G q.G u.A ^ Q A =.X.+.G 6 5 n V D V n q O.N F E.~.L q.q c./.z H hXs Z n w.7 # ",
"& I -Xj ( f MX2XG.bXw e 7.s.f.>.b w n M r n h X.f n M +.w.o.M j b :.s x V n n b q q , 1 w M O.M i.^ N | u G *XV ..8Xa B 6 g.E $ + N ,Xe i +.H.X.>.eXw.L | +.E.u.i +.n n D u.w.*.~.w.+.V q F m c v G Z v G :.=.u.~.u.~.J D L ^.|.~.m.A ~._.u.fX|.|.xXz :./.|.K 5 H xXzXN.r.~.IX^.`.jXp A n >.i u.G u.^.s.^._.qXwX|._._./.|.%X@X|.%XuXyX[.gXh. . .M >.f./ ^ E @.<.$.%.k.<./ *.eXw.K.,Xs C.[.%., & A tX[.b b B 1XV i.0Xm u.e.e.j j q.X.e b j >.j h V G G G G ^.w.X.G :.X.O.B o 7 L K M.O.N T D b F L L F i.V N zX~.aXg.7 u.A $.# O ",
"& 2 K.j t b w.K.k.W T d.G.<.>.X.q 7 h n j ^ h / ^ h n h X.:.O.h b s 6 6 b b M s , w q g ^ M :.o.E i n M t q _.xX'.K c b g f.| # + b c.E l t Q j.K.g.n u. Xi.O.9.i E n e.D G u./.^.).u.M i x b 6 b c m F F w.F ^.e.m.G B L L v u._.L v H ~.F u.zXgXL A L m._.G % ~.uXaXr.m.:._.hXgXV z u +.+.w v ,.L u.+.r.|.aX1X@X_.u._.XX/.%XA.|./.DXfX].#...i V O.r.`.u./ r.r.E ` U.r.r.i <.,X$.u r.M.i.j.: & T 1X1XG V z V.aX2XV B  .e.X.M g N @.q.V n G y.u.o.q.e.u.e.`.i.q.Z z =.9.B v L <.u N i V :.L L ^.u.r.F ~.n z ~.qX_.N n q.O.$.o   ",
"& I k.h 3 j u 9 x e Y <.J.B.X.j g f h ^ j -.X.n h f X.X.X.h j V V :.1 3 g s N b n w s g ^ >.:.w Y w.V M ,.i B B z c l i b @.i @ > u c.i r | E t l m q.i l i 6 +.V V ~.~.u.i b M +.M L +.n v m 6 r Z B F L ~.8.L +.e.i F u.~.F F u._.H v :.u.=.=.c v F Z m._.L 0 L gXxX_.u.u.A s c z Z b M +.1 w x n ,.^.).tX1X|.%X_._.^.|./.V.m.^.G aX@X,.~.e.G G i w.g.>.m.6.e.r.O.Z.^ X.W X.s 7 m :.C.2.k.* & 2 C.%XZ b G B x s X.A :.e.M M q.n :.>.e.V.i.<.s.A w O.<.e.e.e.G M v v B B u.B r. .h u.e.X.b v ~.m.e.w.L G :.9 z c b n h t [ o   ",
"* I 2.3 t T / @.s.Q @.^ o.6.n u w t t ~ f h X.X.f q h >.>.+.M N e.q.e M b b V m b b i i 8 ^ N E i n i M C i >.=.F F i n n p.b # 6 +.c.W i ../ l A i.V b m D q.t.S D O.q.q.n 6 u i  .=.N V M q q u Z F V m m L :.L q.G L L F s m =.F F e.:.m.y.~.w.y.c e.^.>XL z L uXxX@XXXV.u.B e.h t =.G M.f b m X.<.L XXXXL ~.V.y.|._.n i._.~.~.~.^.~.m.>.u.L ~.^. X*.` w.M.e.e.G.o.3 @.i.^. .q.i.+.[ [ { * & < ' C.F L m.~.A A q.e.r.q.A M n M X.+.q.i.`.+.M N q.+.i.E t i.h x m G B B e.A e.H :.L J g m b B 8.r.~.L M B X.M e.M M N =.i.  . ",
"* U } 2 3 3 ~ o.M.*.G./ e o.i e t t t u f t X.X.h X.u g :.=.f E j V b G e.G A A m j ( | u E i T i i n =.A r.y.L u.L i b b f.E @ >  .!.W e E / O.B D | E.x u.~.W.J c D M E i n b i ^ >.N r.L X.u M A L N B L u w x :.u.E.:.g :.h L u.V.u.^.,.m.r.s.C.:./.[.lXu.% G lXFX2X=X~.~.8.b M h A F y.A x G L s.%XaX|.~.~.[.uXqX#Xs.|.%X@X|.%X@X|.>X>X%X|.*X9XzXk.0XqXqX1Xd.:X=Xi.=XtX$Xo.9X].*.c.k.nXI * < U 6.w.y.u.m.s.e.e.M.`.r.e.M.A G G =.q.q.-.X.E X.G M.+./ g.].G e e ^.j j :.r.C.u.V.G _.|.8.8.i :.[.|.i.i 6 X.r.^.6./.-.+.1.X   ",
"& I U I U ` 7.%.h. X XR Q $.5.o.X.o.) ^ ^ ~ $.R / 5.Y  .i.T ^ +.+.X.X.[ 1.s.g.i.h.%.L.h.%.k.G.0.tXqX%X>X/.Z.2Xg.].@Xp.@.p.c...@ # +.Y.k.0.X.p.j.f.!.#.^.|.&X'.%X@X+.].@X/.@. .+.+.M.M.*X_.|.|.~.).^.XX@X&X&Xq.8.~._.@X_.|.|._.#._._.#X|._._.^.^.^.[.|.[.#XtXm.0 L kXgX#X1X;X1X#X].`.].W.E.~.6.i.}.].3XxXfXdXuX1XdXlXuXqXqX%X%X7X@X&X&X$X$XqX&X&X0X2X0Xk.9X0.qXJ.k.k.*.'.@X#X$X_.#XqX X[.F.{ ~ * < ! { S.-XXX;X&X&XqX%X$XqX&XlX=X X}.].>XK.P.=XP. X9X&X].oXoX X|.@...4.@.XX%X=X$X#X#X|.%Xf.}.].qX%Xw.XX>Xg. .w.#X%X>X@.#.Q...X   ",
"< *   & & > & & > = # 5 5 6 q # 5 5 + + o o > o + 5 o o + & o o o X X = & > = > > 5 7 z $ o 5 5 6 4 7 z 7 7 z a z z 7 5 # # 9 @ # q # # # # # # # # 7 k # # 0 z 5 o z z $ z 0 # 0 # $ 7 $ 0 % $ $ 5 z z z $ # z % % z z s 0 z z z 0 0 % % 0 % 5 0 0 7 7 z s c b m.u.c b s 5 7 z 0 + @ o # # $ % $ % 0 v F F F b v F b z z 0 z z s z b s z b v z z q b x q 9 q r e - = 0 0 z z z Z Z c 3 < - < * I 2 > > # 0 0 z c 6 5 7 7 0 x c # o + z % z 7 q z 9 q z o + c 9 7 % 7 0 $ 0 5 7 7 z 0 s 7 b 6 B Z c c b 7 q 0 z z b g z b 5 & X ",
"&         X X X & & & & = , < , o . X . .       . .   .   X     .     & * & * * ; ; w g f , 5 # o o # % 5 % % s 6 0 w r 6 # @ o # @ o o # o o o + # 5 % o @ % % o o $ z # # % # 5 $ # # $ $ # @ O O a % + # % $ # # z z $ # $ 0 0 # + . o # # 5 7 5 # # % 7 5 z V.a z 0 $ # O % o o @ o o O # $ # % % a z g C z z s z # m % % % $ % % $ $ % % % % 0 z z % z 7 , &   & $ % % $ z z $ $ & & X & ; - X X X + $ % 0 7 & & - , < ; f &   & & + . X # 7 = , 8 5 > , X X + + + $ # > # # % # # % a o $ b z s g 7 u $ s j M M s % % # & "
};